pypi-data/pypi-mirror-362/packages/pad-analytics/pad_analytics-0.2.1.tar.gz/pad_analytics-0.2.1/data/final_results__nn-quantity.csv
id,sample_id,actual_class,actual_quantity,nn_pred_quantity,nn_pred_prob,nn_pred_energy
15229,53848,amoxicillin,100,100,0.9935127,-4.268341
15233,53697,amoxicillin,100,100,0.99991214,-1.4937116
15236,53703,amoxicillin,100,100,0.99777466,-1.6154174
15238,53703,amoxicillin,100,100,0.9982223,-2.1022923
15253,53712,amoxicillin,80,80,0.87502944,-6.4623966
15261,53713,amoxicillin,80,100,0.9630052,-5.884946
15265,53697,amoxicillin,100,100,0.99979573,-2.5813653
15266,53712,amoxicillin,80,100,0.54669887,-5.779896
15268,53723,amoxicillin,80,100,0.9934947,-3.315073
15278,53721,amoxicillin,100,80,0.9920121,-6.8561125
15281,53848,amoxicillin,100,100,0.94518304,-4.9485126
15285,53717,amoxicillin,80,100,0.9884763,-4.557873
15286,53696,amoxicillin,100,100,0.67388386,-3.376264
15287,53696,amoxicillin,100,100,0.83830065,-2.654062
15289,53721,amoxicillin,100,100,0.70104396,-6.899526
15292,53734,amoxicillin,80,100,0.9999101,-0.24040268
15294,53723,amoxicillin,80,100,0.7940489,-6.0101523
15297,53713,amoxicillin,80,100,0.64251333,-8.33906
15302,53715,amoxicillin,80,100,0.97422326,-3.4868848
15310,53742,amoxicillin,50,100,0.68163365,-6.745218
15311,53742,amoxicillin,50,100,0.8627607,-6.824847
15312,53740,amoxicillin,50,100,0.68713975,-5.4063582
15315,53742,amoxicillin,50,100,0.9961934,-2.74524
15316,53740,amoxicillin,50,100,0.9342062,-4.841436
15320,53882,amoxicillin,50,100,0.9999895,-0.29410166
15321,53737,amoxicillin,50,100,0.5496979,-7.457685
15322,53738,amoxicillin,50,50,0.99998665,1.218709
15326,53717,amoxicillin,80,100,0.968129,-4.578022
15327,53450,amoxicillin,80,100,0.9462033,-4.9291725
15328,53450,amoxicillin,80,100,0.99623823,-2.7504067
15329,53450,amoxicillin,80,100,0.99536246,-3.133741
15330,53450,amoxicillin,80,100,0.92168164,-5.6752596
15336,53734,amoxicillin,80,100,0.9983277,-2.3224869
15337,53715,amoxicillin,80,100,0.9950477,-3.348999
15345,53697,amoxicillin,100,100,0.99983037,-3.7000532
15348,53703,amoxicillin,100,100,0.9965947,-2.4851446
15349,53712,amoxicillin,80,80,0.9809027,-5.435024
15352,53848,amoxicillin,100,100,0.9792229,-6.451685
15357,53703,amoxicillin,100,100,0.9818302,-5.9515643
15364,53696,amoxicillin,100,50,0.92682654,-4.3770823
15373,53696,amoxicillin,100,50,0.97390276,-2.4640265
15379,53697,amoxicillin,100,100,0.99981457,-3.729814
15382,53848,amoxicillin,100,100,0.9438885,-7.078926
15400,53882,amoxicillin,50,50,0.68608904,-6.700537
15403,52553,amoxicillin,20,20,0.9871725,0.72337615
15405,52553,amoxicillin,20,20,0.975179,0.3378046
15413,53890,amoxicillin,20,20,0.99516064,-4.315721
15415,52552,amoxicillin,50,100,0.7961112,-5.393766
15416,53877,amoxicillin,50,100,0.6745883,-5.8806686
15425,53742,amoxicillin,50,50,0.8765695,-6.8051805
15427,53737,amoxicillin,50,50,0.9854563,-5.375485
15433,52552,amoxicillin,50,100,0.69145864,-6.339948
15434,53877,amoxicillin,50,50,0.98689413,-3.0012465
15441,53738,amoxicillin,50,50,0.99999356,1.4859642
15447,53882,amoxicillin,50,100,0.56551236,-6.28638
15450,53740,amoxicillin,50,50,0.9087026,-5.1704063
15452,53738,amoxicillin,50,50,0.9999932,0.5996844
15456,53456,amoxicillin,20,20,0.99950993,0.010413266
15462,53458,amoxicillin,20,50,0.89662796,-3.1815896
15463,53452,amoxicillin,20,20,0.99950516,1.7800456
15464,53453,amoxicillin,20,20,0.99979,3.2773762
15472,52553,amoxicillin,20,20,0.9974809,0.32599634
15476,53890,amoxicillin,20,20,0.9982968,-4.1511555
15482,53458,amoxicillin,20,50,0.98881793,-1.7137054
15483,53452,amoxicillin,20,20,0.999972,2.089409
15484,53453,amoxicillin,20,20,0.99598867,1.4677233
15488,53461,amoxicillin,20,20,0.9998987,-1.0165895
15493,53458,amoxicillin,20,50,0.9996233,-1.7735445
15494,53452,amoxicillin,20,20,0.9999783,1.7512505
15495,53453,amoxicillin,20,20,0.9864639,-1.0231252
15498,53453,amoxicillin,20,20,0.9957495,1.7062645
15499,53452,amoxicillin,20,20,0.99992883,2.473163
15500,53458,amoxicillin,20,50,0.9978485,-2.0453103
15506,53456,amoxicillin,20,20,0.9992021,-0.7755133
15509,53461,amoxicillin,20,20,0.9997454,-1.815368
15515,53461,amoxicillin,20,20,0.99860734,-5.0664363
15517,53456,amoxicillin,20,20,0.99950397,-0.50926095
15525,53873,chloroquine,100,100,1.0,1.0688798
15529,53874,chloroquine,100,100,0.9999999,3.1395285
15538,53851,chloroquine,100,100,0.9999945,-1.8177872
15544,53447,chloroquine,100,100,0.9997154,-2.9932806
15547,53447,chloroquine,100,100,0.99994576,-2.0581076
15563,53873,chloroquine,100,100,1.0,1.3877324
15564,53874,chloroquine,100,100,1.0,3.3250883
15565,53447,chloroquine,100,100,0.9999765,-2.0413065
15566,53851,chloroquine,100,100,0.9999994,-0.5089259
15570,53857,chloroquine,100,100,0.9997787,-1.3140353
15574,53868,chloroquine,100,100,0.720743,-9.282366
15578,53869,chloroquine,100,100,1.0,0.22558315
15579,53857,chloroquine,100,100,0.9990231,-2.7198808
15583,53869,chloroquine,100,100,0.9999999,-0.88913214
15584,53868,chloroquine,100,50,0.77792674,-8.778943
15588,53796,hydroxychloroquine,100,100,0.9999677,-0.8270559
15593,53796,hydroxychloroquine,100,100,0.9999999,2.0605052
15594,53786,hydroxychloroquine,100,100,0.99979585,-2.4680004
15596,53784,hydroxychloroquine,100,100,0.9998012,0.28602776
15598,53784,hydroxychloroquine,100,100,0.99830174,0.22319156
15600,53786,hydroxychloroquine,100,100,0.99998903,-0.5645078
15601,53796,hydroxychloroquine,100,100,0.99999976,1.5700305
15613,53771,hydroxychloroquine,100,100,0.95711243,-4.715906
15616,53783,hydroxychloroquine,100,100,0.99544466,-2.3978283
15619,53771,hydroxychloroquine,100,100,0.6595155,-5.2879195
15622,53783,hydroxychloroquine,100,100,0.99976796,-1.2642757
15624,53788,hydroxychloroquine,100,100,0.9982425,-1.8766923
15626,53791,hydroxychloroquine,100,100,0.9996693,0.4414336
15630,53771,hydroxychloroquine,100,100,0.8296462,-5.295364
15645,53899,hydroxychloroquine,80,80,0.9357912,-5.823573
15646,53814,hydroxychloroquine,80,100,0.9932594,-1.9324178
15649,53783,hydroxychloroquine,100,100,0.99998665,0.28823072
15650,53800,hydroxychloroquine,80,100,0.9361615,-4.007836
15652,53801,hydroxychloroquine,80,100,0.9898784,-3.3786159
15667,53464,hydroxychloroquine,80,100,0.89170766,-6.77647
15668,53807,hydroxychloroquine,80,100,0.9991379,-2.6032681
15671,53801,hydroxychloroquine,80,100,0.9375227,-4.355156
15672,53464,hydroxychloroquine,80,100,0.9297967,-3.9800718
15673,53807,hydroxychloroquine,80,100,0.999526,-1.7477651
15683,53899,hydroxychloroquine,80,80,0.9944834,-4.5873585
15687,53771,hydroxychloroquine,100,100,0.99795854,-2.86656
15688,53788,hydroxychloroquine,100,100,0.99999,0.13552529
15696,53814,hydroxychloroquine,80,100,0.99859613,-0.8264583
15702,53791,hydroxychloroquine,100,100,0.9999877,1.2581047
15706,53791,hydroxychloroquine,100,100,0.99999785,2.4248612
15712,53800,hydroxychloroquine,80,100,0.99992347,-0.21936761
15717,53814,hydroxychloroquine,80,100,0.99106807,-2.7338362
15726,53807,hydroxychloroquine,80,100,0.99980885,-1.2898856
15741,53771,hydroxychloroquine,100,100,0.92589086,-4.268623
15743,53814,hydroxychloroquine,80,100,0.8439852,-2.9372993
15744,53899,hydroxychloroquine,80,50,0.58763456,-5.4908967
15753,53783,hydroxychloroquine,100,100,0.9999962,0.3146711
15768,53464,hydroxychloroquine,80,100,0.9259632,-4.403698
15777,53791,hydroxychloroquine,100,100,0.99985373,0.9538194
15779,53899,hydroxychloroquine,80,80,0.94896364,-5.3529677
15780,53788,hydroxychloroquine,100,100,0.99940455,-1.0452733
15786,53771,hydroxychloroquine,100,100,0.9523995,-4.397613
15791,53788,hydroxychloroquine,100,100,0.9994342,-1.0052761
15793,53783,hydroxychloroquine,100,100,0.99950373,-2.1420798
15815,52571,hydroxychloroquine,50,50,0.99998915,2.078846
15817,52565,hydroxychloroquine,50,50,0.99999225,0.0054234103
15818,52565,hydroxychloroquine,50,50,0.999997,1.4670912
15823,52571,hydroxychloroquine,50,50,0.99988616,1.2305179
15829,52565,hydroxychloroquine,50,50,0.9999838,-1.4155984
15832,52571,hydroxychloroquine,50,50,0.99986255,1.9351188
15836,53021,hydroxychloroquine,50,50,0.86401933,-4.938193
15839,52565,hydroxychloroquine,50,50,0.99996614,0.012813346
15842,53021,hydroxychloroquine,50,50,0.90031445,-2.9167128
15863,53016,hydroxychloroquine,50,50,0.99465925,-1.7494711
15864,51712,hydroxychloroquine,50,50,0.9951344,-0.50974596
15867,52565,hydroxychloroquine,50,50,0.9999901,-0.7997742
15869,52571,hydroxychloroquine,50,50,0.999967,1.6290272
15872,52567,hydroxychloroquine,50,50,0.9963224,-0.83578455
15873,53021,hydroxychloroquine,50,50,0.9995759,-2.713841
15874,52564,hydroxychloroquine,50,50,0.86919427,-4.0177894
15885,52564,hydroxychloroquine,50,50,0.9992268,-2.981198
15889,52567,hydroxychloroquine,50,50,0.99774075,-2.4535477
15903,51712,hydroxychloroquine,50,50,0.9975846,-2.0440412
15904,53016,hydroxychloroquine,50,50,0.9906413,-4.289123
15905,53021,hydroxychloroquine,50,50,0.9999596,-1.0649136
15906,52571,hydroxychloroquine,50,50,0.99999774,2.1875372
15907,52565,hydroxychloroquine,50,50,0.9999312,-1.5626469
15911,52564,hydroxychloroquine,50,50,0.999561,-3.3436966
15912,52567,hydroxychloroquine,50,50,0.9824287,-4.702253
15916,53016,hydroxychloroquine,50,50,0.57597995,-6.821961
15919,51712,hydroxychloroquine,50,50,0.9873975,-3.7781034
15923,52564,hydroxychloroquine,50,50,0.999084,-3.608368
15924,52567,hydroxychloroquine,50,50,0.9879682,-3.8730037
15927,51712,hydroxychloroquine,50,50,0.9965647,-1.9808542
15928,53016,hydroxychloroquine,50,50,0.922936,-5.911451
15929,51734,hydroxychloroquine,20,20,0.99998176,2.6663716
15938,51731,hydroxychloroquine,20,20,0.9964495,0.77837116
15939,51728,hydroxychloroquine,20,20,0.9966312,-1.003079
15940,51729,hydroxychloroquine,20,50,0.99949026,-1.802904
15956,53001,hydroxychloroquine,20,20,0.9999808,3.3429317
15958,53006,hydroxychloroquine,20,20,0.99979,3.0410607
15959,51720,hydroxychloroquine,20,20,0.99708647,-0.07099531
15972,51720,hydroxychloroquine,20,20,0.998002,1.3369284
15981,51731,hydroxychloroquine,20,20,0.99901366,-0.7176914
15982,51728,hydroxychloroquine,20,20,0.999985,-0.34709558
15983,51729,hydroxychloroquine,20,50,0.9961932,-5.0404882
15985,53001,hydroxychloroquine,20,20,0.99999416,2.3328044
15991,51734,hydroxychloroquine,20,20,0.99967074,-2.567361
16003,53672,promethazine-hydrochloride,100,100,0.9993794,-1.6478704
16007,51732,promethazine-hydrochloride,100,100,0.9973929,-4.6106553
16014,53675,promethazine-hydrochloride,100,100,0.99999905,2.698303
16015,53014,promethazine-hydrochloride,100,100,0.9238297,-1.2962172
16016,53010,promethazine-hydrochloride,100,50,0.87902796,-8.824169
16024,53672,promethazine-hydrochloride,100,100,0.9663793,-3.317478
16030,51732,promethazine-hydrochloride,100,100,0.9998765,-0.15016495
16037,53675,promethazine-hydrochloride,100,100,0.9999949,1.066375
16039,53014,promethazine-hydrochloride,100,100,0.69851714,-2.1283975
16040,53010,promethazine-hydrochloride,100,50,0.7219522,-9.220386
16047,51743,promethazine-hydrochloride,100,100,0.84153324,-0.7462786
16051,51743,promethazine-hydrochloride,100,100,0.9630899,-0.035282042
16052,52993,promethazine-hydrochloride,80,50,0.897116,-3.633352
16054,51704,promethazine-hydrochloride,80,80,0.9998123,1.5522974
16055,52993,promethazine-hydrochloride,80,50,0.9001448,-3.1843586
16057,53680,promethazine-hydrochloride,80,50,0.5721465,-5.2275825
16069,51704,promethazine-hydrochloride,80,80,0.99952686,0.6694674
16074,51714,promethazine-hydrochloride,80,100,0.7992427,-4.8860474
16075,53680,promethazine-hydrochloride,80,50,0.49327907,-4.854116
16089,52576,promethazine-hydrochloride,80,50,0.6325683,-5.529751
16092,51715,promethazine-hydrochloride,80,100,0.8838786,-4.073364
16093,51719,promethazine-hydrochloride,80,80,0.94377464,-3.8789697
16094,53026,promethazine-hydrochloride,50,50,0.9971059,-1.7976
16098,52568,promethazine-hydrochloride,50,50,0.8825712,-3.37869
16105,53530,promethazine-hydrochloride,50,80,0.47362107,-5.0583467
16107,53031,promethazine-hydrochloride,50,80,0.6159579,-5.2120113
16111,53024,promethazine-hydrochloride,50,50,0.93075097,-2.4567983
16112,52583,promethazine-hydrochloride,50,80,0.475202,-4.1777864
16113,53028,promethazine-hydrochloride,50,50,0.8140883,-6.2511315
16119,53031,promethazine-hydrochloride,50,80,0.5923154,-4.278409
16122,53024,promethazine-hydrochloride,50,100,0.6435335,-3.5381885
16123,52583,promethazine-hydrochloride,50,80,0.7029804,-2.8723512
16124,53028,promethazine-hydrochloride,50,50,0.88165593,-5.1544976
16127,53026,promethazine-hydrochloride,50,50,0.9989692,-0.74100626
16135,53530,promethazine-hydrochloride,50,50,0.92247665,-4.3023715
16138,52568,promethazine-hydrochloride,50,50,0.9995291,-1.4874856
16143,53031,promethazine-hydrochloride,50,50,0.99654585,-1.2727504
16147,53024,promethazine-hydrochloride,50,100,0.55528015,-4.3543363
16148,52583,promethazine-hydrochloride,50,50,0.86648846,-1.8166785
16149,53028,promethazine-hydrochloride,50,50,0.8054264,-5.825788
16151,53026,promethazine-hydrochloride,50,50,0.99044853,-2.5339758
16159,53530,promethazine-hydrochloride,50,50,0.93864566,-2.846285
16164,53572,promethazine-hydrochloride,20,20,0.9351228,-3.162769
16167,53559,promethazine-hydrochloride,20,20,0.9996828,-2.427579
16172,53495,promethazine-hydrochloride,20,20,0.99997115,1.1443256
16175,53535,promethazine-hydrochloride,20,20,0.90848607,-5.0903277
16180,53557,promethazine-hydrochloride,20,20,0.9927267,-2.2882338
16182,53557,promethazine-hydrochloride,20,20,0.88034254,-2.678282
16184,53572,promethazine-hydrochloride,20,50,0.6394896,-4.623745
16187,53559,promethazine-hydrochloride,20,20,0.99987805,-1.2604828
16192,53495,promethazine-hydrochloride,20,20,0.9999646,1.203919
16195,53535,promethazine-hydrochloride,20,20,0.93086004,-5.76018
16198,53534,promethazine-hydrochloride,20,20,0.8031178,-4.9153767
16204,53534,promethazine-hydrochloride,20,50,0.7469479,-5.0837665
16211,53026,promethazine-hydrochloride,50,50,0.99979335,0.28852054
16215,53028,promethazine-hydrochloride,50,50,0.9709807,-4.3429604
16220,53031,promethazine-hydrochloride,50,50,0.9942906,-2.364421
16222,53024,promethazine-hydrochloride,50,100,0.869835,-3.6239154
16223,52568,promethazine-hydrochloride,50,50,0.99595547,-2.299797
16224,52568,promethazine-hydrochloride,50,50,0.9992803,-1.2843578
16227,52583,promethazine-hydrochloride,50,50,0.9318361,-3.097839
16236,53650,ampicillin,100,100,0.99774855,-4.313547
16237,53649,ampicillin,100,100,0.99727243,-2.652888
16245,53649,ampicillin,100,100,0.99469995,-3.0484593
16246,53650,ampicillin,100,100,0.99773955,-4.347578
16252,53657,ampicillin,100,100,0.9995925,-1.9502001
16259,53657,ampicillin,100,100,0.99999106,-0.082521304
16265,53659,ampicillin,100,20,0.5559819,-4.3891325
16271,53660,ampicillin,100,100,0.9991726,-0.32956088
16275,53567,ampicillin,100,100,0.999448,-0.75820404
16277,53660,ampicillin,100,100,0.9997292,0.6738152
16281,53567,ampicillin,100,100,0.9990728,-0.64279443
16283,53644,ampicillin,100,100,0.9999465,-0.90040565
16285,53644,ampicillin,100,100,0.9999323,-1.7541511
16289,53601,ampicillin,100,100,0.9999682,-0.12490855
16292,53664,ampicillin,100,100,0.99394,-3.7976925
16294,53601,ampicillin,100,100,0.99999857,0.8989791
16302,53637,ampicillin,80,80,0.9877681,-5.8593683
16303,53670,ampicillin,100,100,0.97733206,-3.8501787
16309,53670,ampicillin,100,100,0.9291036,-5.159874
16314,53501,ampicillin,80,100,0.9597295,-5.136618
16315,53472,ampicillin,80,80,0.999481,-1.6805478
16318,53637,ampicillin,80,80,0.91780645,-6.274667
16319,53633,ampicillin,80,80,0.69488215,-7.27409
16324,53633,ampicillin,80,80,0.99156255,-4.528348
16330,53582,ampicillin,80,100,0.8228408,-6.6716394
16351,53582,ampicillin,80,100,0.95115274,-6.2909646
16355,53502,ampicillin,80,100,0.9846178,-5.0351377
16359,53502,ampicillin,80,100,0.49225298,-7.4505515
16370,53584,ampicillin,50,100,0.8876472,-4.177991
16380,53584,ampicillin,50,100,0.97869897,-2.5909693
16385,53578,ampicillin,50,50,0.6344803,-5.28537
16389,53578,ampicillin,50,100,0.48872876,-4.6172857
16390,53490,ampicillin,50,20,0.6931679,-6.3582983
16404,53489,ampicillin,50,20,0.97816944,-5.2077017
16407,53513,ampicillin,50,20,0.9431373,-3.6799898
16408,53518,ampicillin,50,50,0.4722005,-6.0602612
16414,53578,ampicillin,50,100,0.60435635,-4.179839
16420,53513,ampicillin,50,50,0.6283952,-4.5288725
16421,53518,ampicillin,50,50,0.6846543,-6.2232656
16434,53562,ampicillin,20,20,0.9930616,-3.199799
16447,53512,ampicillin,20,20,0.9975057,-1.8312883
16454,53553,ampicillin,20,20,0.989604,-0.8558539
16455,53543,ampicillin,20,20,0.99999046,1.707023
16456,53623,ampicillin,20,20,0.9999511,0.70735097
16462,53550,ampicillin,20,20,0.98900014,-4.6787987
16465,53553,ampicillin,20,20,0.9760418,-1.8366965
16466,53543,ampicillin,20,20,0.9999889,1.6923143
16467,53623,ampicillin,20,20,0.99997807,0.12816238
16468,53548,ampicillin,20,20,0.9999666,0.43731263
16473,53548,ampicillin,20,20,0.99995327,-0.34363508
16483,53550,ampicillin,20,20,0.99049616,-3.6714787
16491,53424,albendazole,100,100,0.9963343,-7.460234
16492,53355,albendazole,100,50,0.4961637,-7.206335
16493,53429,albendazole,100,80,0.99903935,-1.0943118
16497,53355,albendazole,100,50,0.6005976,-6.907347
16498,53429,albendazole,100,80,0.975774,-3.9050586
16504,53353,albendazole,100,100,0.6430224,-6.4953833
16506,53328,albendazole,100,80,0.619179,-7.9583945
16514,53329,albendazole,100,100,0.9317483,-4.4716783
16515,53425,albendazole,100,100,0.95287323,-6.2398195
16519,53353,albendazole,100,100,0.98342854,-4.3390126
16530,53328,albendazole,100,80,0.9496323,-5.5607023
16536,53329,albendazole,100,100,0.8654592,-5.642353
16538,53430,albendazole,100,80,0.99823785,-5.0428348
16541,53422,albendazole,80,20,0.9481915,-4.4672384
16546,53422,albendazole,80,50,0.5362236,-6.0178604
16554,53316,albendazole,80,80,0.99709356,-4.6644206
16555,53316,albendazole,80,80,0.96050733,-7.366345
16558,53406,albendazole,80,80,0.82532305,-7.114787
16567,53324,albendazole,80,80,0.9435547,-4.273292
16571,53335,albendazole,80,80,0.5142982,-5.769986
16572,53325,albendazole,80,80,0.9999958,-0.33928752
16574,53327,albendazole,80,100,0.9803073,-9.181073
16577,53316,albendazole,80,80,0.9951624,-5.6386247
16579,53406,albendazole,80,80,0.83886653,-5.116609
16581,53406,albendazole,80,80,0.9900433,-3.0582037
16583,53324,albendazole,80,80,0.95936084,-4.5572987
16588,53325,albendazole,80,80,0.999997,1.1403009
16594,53335,albendazole,80,100,0.44286117,-5.033039
16595,53327,albendazole,80,100,0.9274906,-8.423869
16596,53324,albendazole,80,80,0.9721925,-4.338416
16601,53312,albendazole,50,80,0.34374112,-5.848707
16604,53414,albendazole,50,80,0.85711396,-6.386681
16605,53304,albendazole,50,80,0.9904648,-3.207042
16606,53313,albendazole,50,50,0.6529216,-5.8719854
16608,53312,albendazole,50,80,0.8636462,-5.3576365
16615,53315,albendazole,50,80,0.8883439,-5.2427297
16616,53393,albendazole,50,80,0.7280118,-4.0358577
16623,53396,albendazole,50,80,0.97482854,-4.111583
16627,53393,albendazole,50,50,0.5815633,-5.319467
16629,53313,albendazole,50,100,0.6456798,-5.753553
16630,53414,albendazole,50,80,0.9849658,-5.706297
16631,53304,albendazole,50,80,0.9992111,-1.2760017
16632,53304,albendazole,50,80,0.9981117,-1.8983793
16647,53315,albendazole,50,80,0.92687553,-4.822395
16648,53396,albendazole,50,80,0.7872824,-6.0608926
16650,53049,ciprofloxacin,100,100,0.9999509,-2.300253
16657,53049,ciprofloxacin,100,100,0.999863,-1.9492106
16659,53040,ciprofloxacin,100,100,0.99914086,-3.5536609
16665,53053,ciprofloxacin,100,100,0.99999976,1.688299
16669,53040,ciprofloxacin,100,100,0.9994419,-3.5103414
16670,53048,ciprofloxacin,100,100,0.7050448,-7.707079
16673,53053,ciprofloxacin,100,100,0.9999994,1.348851
16678,53145,ciprofloxacin,100,100,0.99990284,-2.5912037
16680,53048,ciprofloxacin,100,100,0.9211135,-6.71322
16683,53151,ciprofloxacin,100,100,0.999941,-2.9417703
16685,53150,ciprofloxacin,100,100,0.9833076,-5.434699
16686,53234,ciprofloxacin,100,80,0.97840524,-4.3117437
16692,53145,ciprofloxacin,100,100,0.9999529,-1.4123403
16696,53151,ciprofloxacin,100,100,0.99991584,-2.828429
16698,53150,ciprofloxacin,100,100,0.99407697,-3.761894
16702,53234,ciprofloxacin,100,80,0.9862266,-3.8758337
16713,53137,ciprofloxacin,80,100,0.988906,-2.98465
16714,53139,ciprofloxacin,80,100,0.6014983,-7.7189484
16727,53065,ciprofloxacin,80,80,0.9835924,-5.750099
16736,53137,ciprofloxacin,80,100,0.9886818,-3.2226737
16741,53170,ciprofloxacin,80,50,0.92000514,-6.1119976
16745,53174,ciprofloxacin,80,50,0.99875903,-3.40798
16747,53173,ciprofloxacin,80,50,0.9990559,-1.4458734
16749,53066,ciprofloxacin,80,80,0.6177985,-7.2245555
16752,53170,ciprofloxacin,80,50,0.796485,-6.7197766
16756,53174,ciprofloxacin,80,50,0.99236417,-3.956854
16758,53173,ciprofloxacin,80,50,0.9968336,-1.6470503
16761,53066,ciprofloxacin,80,20,0.7424434,-6.5008
16762,53049,ciprofloxacin,100,100,0.9998945,-2.6863983
16764,53065,ciprofloxacin,80,80,0.9971517,-3.1638927
16772,53204,ciprofloxacin,50,50,0.98611,-4.240574
16778,53153,ciprofloxacin,50,20,0.95594376,-3.1004665
16782,53206,ciprofloxacin,50,50,0.9716024,-3.9275458
16784,53204,ciprofloxacin,50,50,0.99018186,-3.4060197
16786,53402,albendazole,20,20,0.66315925,-4.72507
16796,53206,ciprofloxacin,50,50,0.9962245,-2.4228435
16798,53099,ciprofloxacin,50,50,0.99980456,-1.0123664
16806,53097,ciprofloxacin,50,50,0.9632228,-2.5392568
16812,53099,ciprofloxacin,50,50,0.99962616,-1.3711483
16819,53137,ciprofloxacin,80,100,0.42352945,-6.058422
16820,53048,ciprofloxacin,100,100,0.98432803,-6.1457276
16822,53053,ciprofloxacin,100,100,0.9999994,-0.17636113
16830,53301,albendazole,20,20,0.93202925,-6.6030183
16836,53150,ciprofloxacin,100,100,0.9967685,-2.5640054
16850,53049,ciprofloxacin,100,100,0.99997544,-1.7986984
16856,53053,ciprofloxacin,100,100,0.9999994,0.012084736
16862,53091,ciprofloxacin,50,50,0.98194677,-3.7230525
16863,53090,ciprofloxacin,50,50,0.91249204,-4.4861794
16866,53057,ciprofloxacin,20,100,0.9134921,-1.311647
16867,53091,ciprofloxacin,50,50,0.941598,-4.3401885
16868,53117,ciprofloxacin,20,20,0.99898773,-0.5893561
16870,53117,ciprofloxacin,20,20,0.99813026,-1.3291191
16871,53162,ciprofloxacin,20,20,0.99973255,0.07642845
16873,53090,ciprofloxacin,50,50,0.9481231,-4.8713
16878,53118,ciprofloxacin,20,20,0.99992645,2.629522
16880,53166,ciprofloxacin,20,20,0.9902762,-2.4368203
16882,53065,ciprofloxacin,80,20,0.80666614,-9.715232
16888,53162,ciprofloxacin,20,20,0.9976392,-1.8943455
16889,53160,ciprofloxacin,20,20,0.9960062,-0.6460034
16895,53232,albendazole,20,20,0.61462456,-6.302246
16901,53048,ciprofloxacin,100,100,0.9914077,-5.220703
16906,53234,ciprofloxacin,100,80,0.6610377,-6.0394306
16909,53232,albendazole,20,20,0.9282058,-5.5380297
16914,53150,ciprofloxacin,100,100,0.9882984,-4.7247553
16919,53040,ciprofloxacin,100,100,0.9994117,-3.1963396
16922,53301,albendazole,20,20,0.9796157,-7.148527
16924,53066,ciprofloxacin,80,100,0.6250703,-9.43836
16926,53097,ciprofloxacin,50,50,0.9285283,-2.759232
16927,53145,ciprofloxacin,100,100,0.9999894,0.9448431
16946,53242,albendazole,20,20,0.9587786,-3.5266802
16954,53151,ciprofloxacin,100,100,0.99999154,-1.853321
16960,53303,albendazole,20,20,0.69363296,-4.8004494
16966,53162,ciprofloxacin,20,20,0.9996333,0.20553513
16968,53117,ciprofloxacin,20,20,0.9960544,-0.83329904
16970,53118,ciprofloxacin,20,20,0.9998739,1.9560789
16971,53057,ciprofloxacin,20,100,0.58592373,-1.0838649
16974,53166,ciprofloxacin,20,20,0.9990288,-0.8827656
16976,53160,ciprofloxacin,20,20,0.97798836,-1.0885243
16978,53117,ciprofloxacin,20,20,0.99926406,-0.58582747
16984,53338,albendazole,20,20,0.89787674,-3.6796317
16988,53242,albendazole,20,20,0.9490225,-3.8132427
16989,53234,ciprofloxacin,100,100,0.82500255,-5.52565
16992,53145,ciprofloxacin,100,100,0.99998975,0.112056725
16994,53243,albendazole,20,20,0.979859,-2.5537724
17001,53040,ciprofloxacin,100,100,0.99967706,-2.8137252
17003,53402,albendazole,20,20,0.5851643,-4.1841416
17004,53151,ciprofloxacin,100,100,0.9999964,-0.22095451
17006,53303,albendazole,20,20,0.9943169,-4.194373
17007,53243,albendazole,20,20,0.99061465,-1.8419573
17019,53057,ciprofloxacin,20,20,0.96097773,-0.3967053
17027,53162,ciprofloxacin,20,20,0.9991855,-0.22100282
17032,53117,ciprofloxacin,20,20,0.99277675,-0.38557976
17038,53118,ciprofloxacin,20,20,0.9990459,1.0720509
17041,53166,ciprofloxacin,20,20,0.9975085,-0.98978204
17046,53160,ciprofloxacin,20,20,0.99701643,-0.22283228
17048,53057,ciprofloxacin,20,20,0.894938,-0.71352077
17056,53222,ciprofloxacin,20,20,0.99984825,1.9293938
17063,53118,ciprofloxacin,20,20,0.99901986,0.86709434
17065,53160,ciprofloxacin,20,20,0.9987153,0.09089519
17070,53166,ciprofloxacin,20,20,0.99805593,-1.100181
17078,53222,ciprofloxacin,20,20,0.99981755,1.6249616
17091,53222,ciprofloxacin,20,20,0.99992263,1.4776583
17092,53222,ciprofloxacin,20,20,0.999915,1.6796308
17109,53126,lactose,100,100,0.6277313,-4.422989
17111,53121,lactose,100,100,0.96318376,-2.940369
17118,53126,lactose,100,100,0.7997114,-3.6630416
17120,53121,lactose,100,100,0.9902541,-2.2372231
17121,53124,lactose,100,100,0.97818065,-1.7863024
17124,53126,lactose,100,100,0.76656675,-2.1244311
17126,53121,lactose,100,100,0.8464837,-2.4247675
17127,53124,lactose,100,100,0.9888446,-3.9409626
17137,53211,lactose,100,100,0.99998367,2.1696928
17138,53208,lactose,100,100,0.99847883,-1.8610109
17142,53121,lactose,100,100,0.9435283,-2.2165384
17147,53126,lactose,100,100,0.87505454,-1.2280498
17150,53211,lactose,100,100,0.999949,0.69251215
17152,53226,lactose,100,100,0.9986407,-1.9128522
17153,53124,lactose,100,100,0.9159345,-1.4694372
17155,53208,lactose,100,100,0.99916375,0.54498595
17158,53211,lactose,100,100,0.9999368,1.2788565
17162,53075,lactose,100,100,0.99998796,-0.37648982
17345,52516,benzyl-penicillin,100,100,0.9987386,-1.6396269
17379,52516,benzyl-penicillin,100,100,0.9995932,0.075781874
17396,52516,benzyl-penicillin,100,100,0.9995604,0.8019996
17431,52375,benzyl-penicillin,100,20,0.5422539,-6.43256
17455,52369,benzyl-penicillin,100,100,0.77341676,-5.489298
17458,52363,benzyl-penicillin,80,80,0.7394489,-4.689702
17478,52363,benzyl-penicillin,80,80,0.7079103,-4.8184047
17489,52363,benzyl-penicillin,80,20,0.3527609,-5.4714546
17502,52349,benzyl-penicillin,80,100,0.9966935,-1.2648292
17514,52349,benzyl-penicillin,80,100,0.98637307,-2.59699
17535,52363,benzyl-penicillin,80,80,0.95889246,-3.1216285
17547,52422,benzyl-penicillin,80,80,0.49478725,-4.8957
17556,52422,benzyl-penicillin,80,80,0.5559425,-6.3754444
17560,52349,benzyl-penicillin,80,100,0.9809457,-2.4724169
17564,52422,benzyl-penicillin,80,100,0.7303343,-4.3708415
17597,52356,benzyl-penicillin,50,20,0.9216676,-1.4618571
17617,52358,benzyl-penicillin,50,100,0.6847659,-4.7682915
17650,52356,benzyl-penicillin,50,20,0.9900422,0.32178873
17656,52358,benzyl-penicillin,50,100,0.6578933,-4.5048094
17670,53198,benzyl-penicillin,20,20,0.9986173,0.4072462
17707,53197,benzyl-penicillin,20,20,0.8499363,-5.414097
17710,53198,benzyl-penicillin,20,20,0.99688464,0.53618205
17720,53198,benzyl-penicillin,20,20,0.99949205,1.0359586
17747,53197,benzyl-penicillin,20,100,0.56084025,-5.2722416
17750,53198,benzyl-penicillin,20,20,0.99717003,-0.3623869
17756,52530,benzyl-penicillin,20,20,0.99859446,1.326123
17776,53180,isoniazid,100,100,0.99716836,-4.393629
17784,53180,isoniazid,100,100,0.98622084,-5.5925713
17793,53187,isoniazid,100,100,0.9998778,-0.8579417
17794,52340,isoniazid,100,100,0.9997944,-1.5395268
17799,52338,isoniazid,100,100,0.99876726,0.9080086
17808,52336,isoniazid,100,100,0.99935883,-1.5222011
17812,53180,isoniazid,100,100,0.9986773,-3.37607
17817,52336,isoniazid,100,100,0.9762631,-3.598112
17820,52209,isoniazid,100,100,0.83805233,-4.5671988
17823,52340,isoniazid,100,100,0.9995741,-1.3589463
17827,52338,isoniazid,100,100,0.9999752,2.2877643
17830,52336,isoniazid,100,100,0.99982077,-1.7921295
17837,53180,isoniazid,100,100,0.99837387,-2.777355
17850,52221,isoniazid,100,100,0.8822697,-3.6057901
17859,52221,isoniazid,100,100,0.98769814,-2.3186185
17866,52340,isoniazid,100,100,0.9985127,-1.9948862
17871,52221,isoniazid,100,100,0.958937,-3.4519153
17888,52340,isoniazid,100,100,0.9934116,-2.429665
17933,52470,isoniazid,80,80,0.9958994,-4.949596
17934,52464,isoniazid,80,80,0.9797703,-3.6447196
17935,52469,isoniazid,80,80,0.9778907,-5.1856694
17937,52465,isoniazid,80,80,0.99766773,-3.6567955
17938,52465,isoniazid,80,80,0.97252494,-5.192583
17939,52469,isoniazid,80,80,0.7547647,-8.148243
17940,52464,isoniazid,80,80,0.9064355,-4.602961
17947,52323,isoniazid,80,80,0.9996145,-2.8917701
17948,52470,isoniazid,80,80,0.99717915,-4.8048916
17949,52464,isoniazid,80,80,0.8588875,-4.890261
17950,52469,isoniazid,80,80,0.99069124,-4.4908757
17952,52465,isoniazid,80,80,0.9946408,-4.270735
17960,52223,isoniazid,80,100,0.5881484,-5.3957167
17962,52323,isoniazid,80,80,0.99850404,-3.589118
17968,52223,isoniazid,80,80,0.96120465,-4.1091375
17970,52321,isoniazid,80,100,0.93242097,-3.530005
17974,52321,isoniazid,80,80,0.5176829,-4.32394
17991,52463,isoniazid,50,50,0.96683395,-4.1173778
17992,52461,isoniazid,50,50,0.56138384,-6.2961407
17997,52441,isoniazid,50,100,0.8636932,-6.089549
17998,52456,isoniazid,50,80,0.9484291,-5.3474293
18001,52321,isoniazid,80,20,0.651992,-7.7978888
18005,52465,isoniazid,80,80,0.9932935,-5.0120244
18011,52321,isoniazid,80,100,0.6735793,-5.287342
18012,52464,isoniazid,80,80,0.9778917,-4.3866296
18032,52463,isoniazid,50,50,0.987472,-3.1169274
18033,52461,isoniazid,50,50,0.81554306,-5.550543
18039,52469,isoniazid,80,80,0.8806046,-6.9930973
18040,52494,isoniazid,20,20,0.9990355,-0.15794152
18041,52478,isoniazid,50,100,0.49072945,-7.3258996
18042,52494,isoniazid,20,20,0.9999062,1.8528214
18043,52223,isoniazid,80,80,0.52248615,-5.7366314
18050,52921,isoniazid,20,20,0.9999745,-0.4748633
18051,52500,isoniazid,20,20,0.65921944,-2.7276733
18054,52470,isoniazid,80,80,0.9544781,-7.306241
18062,52491,isoniazid,20,20,0.9998915,1.1543535
18064,52500,isoniazid,20,20,0.9912924,-3.024212
18066,52921,isoniazid,20,20,0.99873704,-1.5307661
18069,52500,isoniazid,20,20,0.873763,-3.8850472
18070,52491,isoniazid,20,20,0.99965334,1.7272124
18072,52478,isoniazid,50,80,0.9496096,-7.045339
18085,52323,isoniazid,80,80,0.9659195,-7.113564
18093,52222,isoniazid,80,80,0.7091159,-6.5068765
18096,52491,isoniazid,20,20,0.99983656,0.3015556
18105,52478,isoniazid,50,80,0.96004575,-7.5318313
18106,52473,isoniazid,50,50,0.9541486,-3.6152842
18112,52461,isoniazid,50,80,0.75233924,-6.938713
18113,52494,isoniazid,20,20,0.9998982,2.61583
18122,52494,isoniazid,20,20,0.9988275,0.59294635
18142,52490,isoniazid,20,20,0.9999676,1.6748766
18147,52478,isoniazid,50,100,0.69259655,-7.3832254
18155,52463,isoniazid,50,80,0.941706,-5.9125123
18169,52458,isoniazid,20,20,0.9993104,-0.613322
18173,52933,isoniazid,20,20,0.9996044,-1.9576013
18175,52463,isoniazid,50,50,0.5424729,-6.3788805
18181,52933,isoniazid,20,20,0.99744165,-2.5867903
18201,52500,isoniazid,20,20,0.74356306,-4.4572597
18204,52223,isoniazid,80,100,0.60388345,-5.2921085
18205,52490,isoniazid,20,20,0.99941885,1.9044878
18207,52461,isoniazid,50,80,0.89035106,-6.7689505
18213,52457,isoniazid,50,80,0.90550596,-5.2781734
18215,52490,isoniazid,20,20,0.9997937,1.5423106
18395,52456,isoniazid,50,80,0.94361204,-5.603917
18403,52323,isoniazid,80,80,0.9349813,-6.401201
18432,51986,tetracycline,80,100,0.34685996,-10.244742
18433,52036,tetracycline,20,20,0.99277264,-2.0546858
18532,52109,tetracycline,100,100,0.9997991,-2.380949
18538,51986,tetracycline,80,100,0.61743563,-9.345112
18539,52066,tetracycline,50,20,0.7350888,-7.369427
18540,52005,tetracycline,50,50,0.52148896,-7.7762513
18545,52036,tetracycline,20,20,0.99088997,-1.7870907
18546,52086,tetracycline,20,20,0.99911684,-4.626339
18551,52115,tetracycline,100,100,0.9968425,-3.9943275
18558,52127,tetracycline,100,100,0.99998987,3.179341
18563,52091,tetracycline,80,50,0.4884657,-8.926753
18572,52091,tetracycline,80,80,0.5706586,-9.321447
18576,52100,tetracycline,80,100,0.99999833,0.8631489
18590,51986,tetracycline,80,50,0.383147,-9.421001
18596,52074,tetracycline,50,50,0.9660529,-6.7790446
18609,52054,tetracycline,20,20,0.97593915,-3.6185095
18613,52942,tetracycline,100,100,0.99999964,3.4393718
18617,52941,tetracycline,100,100,0.9999465,0.92840934
18622,52109,tetracycline,100,100,0.99975973,-2.7287767
18627,52092,tetracycline,80,100,0.527149,-7.093708
18631,52094,tetracycline,80,80,0.99910647,-5.780056
18635,52092,tetracycline,80,80,0.8931198,-6.4255624
18649,51984,tetracycline,50,100,0.59309876,-8.272705
18658,52051,tetracycline,20,20,0.94900465,-5.559009
18676,52051,tetracycline,20,20,0.99203306,-5.7158546
18682,52086,tetracycline,20,20,0.9993253,-3.9476302
18698,52056,tetracycline,20,50,0.9864804,-1.3127493
18709,52941,tetracycline,100,100,0.9998191,0.9256374
18714,52125,tetracycline,80,50,0.62329954,-9.250572
18734,52007,tetracycline,50,100,0.9770488,-6.720447
18740,51984,tetracycline,50,100,0.57413924,-8.532855
18742,52061,tetracycline,20,20,0.999956,-1.8050946
18744,52060,tetracycline,50,50,0.79174817,-5.141646
18754,52107,tetracycline,100,100,0.99999917,-0.16195494
18760,52125,tetracycline,80,50,0.6953564,-9.212417
18778,52054,tetracycline,20,20,0.9844891,-3.2856555
18784,52115,tetracycline,100,100,0.9966323,-4.255077
18786,52942,tetracycline,100,100,1.0,4.776772
18789,52107,tetracycline,100,100,0.99999833,-0.8131425
18801,52094,tetracycline,80,80,0.99738616,-6.7228155
18804,52100,tetracycline,80,100,0.9999913,0.29021537
18814,52066,tetracycline,50,20,0.8436434,-6.1420608
18817,51999,tetracycline,50,50,0.99398804,-5.2679696
18820,52005,tetracycline,50,50,0.9228376,-6.967102
18823,52007,tetracycline,50,100,0.99298346,-5.560408
18838,52938,tetracycline,100,100,0.99921894,-1.6398499
18852,52097,tetracycline,80,50,0.5369967,-8.68533
18860,52074,tetracycline,50,50,0.8380289,-7.2484665
18865,51999,tetracycline,50,50,0.9974542,-4.9898114
18874,52127,tetracycline,100,100,0.99995184,1.8404379
18881,52097,tetracycline,80,50,0.56770825,-7.716813
18896,52061,tetracycline,20,20,0.9996082,-3.5562599
18899,52052,tetracycline,20,20,0.99985456,-2.4572256
18900,52060,tetracycline,50,50,0.542404,-5.309203
18904,52052,tetracycline,20,20,0.999816,-2.277267
18907,52056,tetracycline,20,50,0.9631145,-1.7685642
18909,52036,tetracycline,20,20,0.9776593,-2.1265368
18956,52007,tetracycline,50,100,0.98580027,-7.256883
18958,51984,tetracycline,50,100,0.539851,-8.175276
18964,52913,ceftriaxone,80,80,0.9910517,-4.0976205
18965,52672,ceftriaxone,50,50,0.7214037,-6.0139174
18975,52675,ceftriaxone,50,50,0.99170274,-4.117651
18978,52091,tetracycline,80,50,0.50103956,-8.993838
18980,52710,ceftriaxone,50,100,0.9613539,-6.556852
18992,52051,tetracycline,20,20,0.93613034,-5.969331
18996,52905,ceftriaxone,100,100,0.984991,-5.1874866
19001,52640,ceftriaxone,20,20,0.9982476,-0.6704572
19017,52056,tetracycline,20,50,0.8928402,-1.482093
19025,52033,ceftriaxone,100,50,0.9138647,-3.6214821
19027,52668,ceftriaxone,20,20,0.99945587,-1.1960354
19031,52066,tetracycline,50,20,0.8798383,-6.590633
19032,52885,ceftriaxone,20,20,0.9999726,0.44607466
19035,52036,tetracycline,20,20,0.9961898,-1.4098696
19037,52877,ceftriaxone,20,20,0.9998783,-0.6208121
19042,52699,ceftriaxone,80,50,0.7938896,-4.3138447
19052,52872,ceftriaxone,20,20,0.99989176,1.9852314
19059,52007,tetracycline,50,100,0.99658597,-6.071077
19061,52668,ceftriaxone,20,20,0.99884605,-1.6197456
19062,52094,tetracycline,80,80,0.9999219,-4.9549046
19068,52937,tetracycline,100,100,0.99999976,5.004592
19103,52885,ceftriaxone,20,20,0.99999404,1.7133203
19119,52060,tetracycline,50,20,0.8998774,-5.148233
19120,52056,tetracycline,20,50,0.8107988,-2.6159601
19123,52881,ceftriaxone,20,20,0.9999881,2.6720972
19125,52640,ceftriaxone,20,20,0.99446714,-2.082527
19128,52109,tetracycline,100,100,0.9996511,-1.8467842
19131,52680,ceftriaxone,50,20,0.93263406,-4.746866
19133,52937,tetracycline,100,100,1.0,5.7603207
19134,52669,ceftriaxone,20,50,0.5894297,-4.4840546
19135,52926,ceftriaxone,80,80,0.8943098,-9.132599
19141,52097,tetracycline,80,100,0.81972003,-8.212004
19144,51999,tetracycline,50,50,0.99660945,-5.942725
19155,52695,ceftriaxone,80,80,0.992446,-2.3750415
19168,52656,ceftriaxone,100,100,0.92468375,-6.741243
19169,52034,ceftriaxone,100,100,0.8626597,-7.288998
19175,52107,tetracycline,100,100,0.999979,-1.667845
19178,52913,ceftriaxone,80,80,0.99471396,-4.149488
19181,52094,tetracycline,80,80,0.9976082,-6.267147
19186,52941,tetracycline,100,100,0.998657,-0.40181988
19189,52074,tetracycline,50,50,0.8930882,-7.266091
19194,52092,tetracycline,80,80,0.80635256,-7.3202224
19199,52872,ceftriaxone,20,20,0.9990687,0.21852796
19201,52092,tetracycline,80,100,0.5576566,-7.3086376
19206,52086,tetracycline,20,20,0.99935967,-5.6576877
19208,52677,ceftriaxone,50,50,0.9986376,-2.6799436
19217,52005,tetracycline,50,50,0.5225471,-8.287672
19218,52677,ceftriaxone,50,50,0.9986376,-2.6799436
19219,52107,tetracycline,100,100,0.99999917,-0.32009864
19221,52115,tetracycline,100,100,0.9992459,-4.4699454
19222,52680,ceftriaxone,50,20,0.8892871,-4.7617455
19230,52942,tetracycline,100,100,1.0,5.6214266
19234,52675,ceftriaxone,50,50,0.95903474,-3.6024668
19235,52052,tetracycline,20,20,0.99964535,-3.706889
19237,52100,tetracycline,80,100,0.9999993,0.65693533
19238,52669,ceftriaxone,20,50,0.565777,-5.4509716
19241,52677,ceftriaxone,50,50,0.99682534,-3.858892
19264,52909,ceftriaxone,100,20,0.99592245,-4.1824975
19286,52942,tetracycline,100,100,1.0,7.2480865
19291,52649,ceftriaxone,80,80,0.547279,-7.065909
19294,52672,ceftriaxone,50,50,0.77473253,-5.7212653
19302,52046,ceftriaxone,100,100,0.92069626,-5.90708
19311,52656,ceftriaxone,100,100,0.91531205,-6.280696
19313,52881,ceftriaxone,20,20,0.9999826,1.8003964
19317,52697,ceftriaxone,80,100,0.49834314,-7.5066776
19325,52673,ceftriaxone,50,50,0.9507301,-6.711437
19330,52697,ceftriaxone,80,80,0.95680225,-6.183973
19337,52941,tetracycline,100,100,0.9972594,-0.82060736
19343,52097,tetracycline,80,50,0.798779,-8.218087
19346,52051,tetracycline,20,20,0.9812889,-5.700612
19351,52066,tetracycline,50,20,0.96575713,-5.532532
19355,52125,tetracycline,80,50,0.7453274,-10.051023
19358,52100,tetracycline,80,100,0.99999964,1.520142
19362,52005,tetracycline,50,20,0.8164374,-6.547805
19366,52127,tetracycline,100,100,0.99999034,2.4380498
19374,52074,tetracycline,50,50,0.9561229,-7.594793
19377,52061,tetracycline,20,20,0.9999939,-2.0467267
19380,51999,tetracycline,50,50,0.9461477,-7.890885
19382,52052,tetracycline,20,20,0.9998814,-2.792918
19383,52648,ceftriaxone,50,50,0.9656216,-4.9984975
19387,52115,tetracycline,100,100,0.9977596,-4.2007813
19390,52877,ceftriaxone,20,20,0.99979144,-0.85192966
19403,52699,ceftriaxone,80,50,0.85629505,-5.292243
19407,52695,ceftriaxone,80,80,0.81503266,-4.181641
19409,52061,tetracycline,20,20,0.99998355,-1.404528
19410,52033,ceftriaxone,100,50,0.96270746,-3.5191066
19411,51986,tetracycline,80,50,0.47198918,-9.4731655
19419,52109,tetracycline,100,100,0.9995908,-3.4223723
19421,52905,ceftriaxone,100,100,0.9940293,-4.831185
19437,52649,ceftriaxone,80,50,0.931896,-5.6516404
19448,52046,ceftriaxone,100,100,0.95988435,-5.815054
19452,52710,ceftriaxone,50,100,0.8136921,-6.4235168
19472,52046,ceftriaxone,100,100,0.8769777,-5.625443
19475,52877,ceftriaxone,20,20,0.998857,-1.1860906
19481,52046,ceftriaxone,100,100,0.9846853,-4.671213
19497,52695,ceftriaxone,80,80,0.99946874,-1.4851681
19501,52680,ceftriaxone,50,50,0.49104518,-4.6170917
19517,52881,ceftriaxone,20,20,0.999997,2.8786318
19518,52694,ceftriaxone,80,80,0.97202027,-3.8447576
19519,52909,ceftriaxone,100,20,0.99963725,-2.8063264
19522,52675,ceftriaxone,50,50,0.98065037,-4.2062182
19529,52695,ceftriaxone,80,80,0.99559695,-1.8126582
19531,52913,ceftriaxone,80,80,0.9983192,-2.5003026
19540,52913,ceftriaxone,80,80,0.9958758,-2.8418243
19542,52699,ceftriaxone,80,50,0.7511255,-4.8804274
19546,52904,ceftriaxone,100,50,0.72554576,-6.5816455
19549,52909,ceftriaxone,100,20,0.9992029,-3.0649679
19551,52905,ceftriaxone,100,100,0.62140936,-5.4197235
19553,52672,ceftriaxone,50,50,0.9845595,-4.295318
19557,52034,ceftriaxone,100,100,0.4977541,-7.2020817
19567,52677,ceftriaxone,50,50,0.99607724,-3.0531578
19570,52710,ceftriaxone,50,100,0.97868365,-5.3379054
19574,52710,ceftriaxone,50,100,0.99502784,-4.094315
19581,52881,ceftriaxone,20,20,0.9999989,3.7800746
19582,52675,ceftriaxone,50,50,0.9185893,-5.5355163
19583,52881,ceftriaxone,20,20,0.99999654,3.2467182
19587,52648,ceftriaxone,50,50,0.9836701,-5.2559714
19596,52680,ceftriaxone,50,80,0.7981294,-4.9330673
19612,52648,ceftriaxone,50,50,0.9191666,-5.3840704
19613,52872,ceftriaxone,20,20,0.9989594,0.08269271
19616,52656,ceftriaxone,100,100,0.8867195,-6.35709
19618,52908,ceftriaxone,100,50,0.6778138,-6.038084
19619,52672,ceftriaxone,50,50,0.9955746,-3.421649
19621,52656,ceftriaxone,100,100,0.9152269,-6.437701
19625,52885,ceftriaxone,20,20,0.9999975,3.269309
19646,52905,ceftriaxone,100,100,0.7775706,-6.1011624
19650,52669,ceftriaxone,20,50,0.9150369,-4.164203
19654,52677,ceftriaxone,50,50,0.9942099,-2.4962983
19662,52034,ceftriaxone,100,100,0.84271216,-4.8930774
19674,52872,ceftriaxone,20,20,0.99932706,0.4463101
19677,52668,ceftriaxone,20,20,0.9996673,-0.7604291
19679,52640,ceftriaxone,20,20,0.98990834,-3.0169914
19684,52669,ceftriaxone,20,50,0.94390637,-3.98251
19691,52699,ceftriaxone,80,50,0.9933709,-2.7275746
19692,52668,ceftriaxone,20,20,0.99982613,-0.61082083
19694,52640,ceftriaxone,20,20,0.99260265,-2.8355057
19701,52877,ceftriaxone,20,20,0.9993749,-0.51732296
19710,52854,sulfamethoxazole,80,80,0.99855703,-1.0611467
19718,52844,sulfamethoxazole,80,80,0.9671641,-1.6136369
19734,52317,sulfamethoxazole,50,80,0.64324677,-4.7587514
19741,52309,sulfamethoxazole,50,50,0.9999628,1.4821938
19748,52302,sulfamethoxazole,20,20,0.8886838,-4.832013
19750,52845,sulfamethoxazole,80,80,0.9933994,-2.3689065
19754,52646,sulfamethoxazole,50,50,0.7812165,-6.4596906
19756,52865,sulfamethoxazole,100,100,0.5478464,-5.5939465
19760,52852,sulfamethoxazole,80,80,0.8925914,-5.2861776
19772,52297,sulfamethoxazole,20,20,0.993046,-1.1452341
19774,52844,sulfamethoxazole,80,80,0.9774195,-2.8258755
19777,52317,sulfamethoxazole,50,80,0.9647443,-2.4303904
19780,52180,sulfamethoxazole,20,20,0.9993542,1.3885849
19784,52856,sulfamethoxazole,100,80,0.7303139,-5.9134116
19785,52861,sulfamethoxazole,100,80,0.5513101,-3.7359698
19790,52861,sulfamethoxazole,100,80,0.8923176,-3.496786
19792,52639,sulfamethoxazole,80,80,0.9356102,-5.6177793
19796,52329,sulfamethoxazole,80,80,0.9998184,-4.8027964
19799,52300,sulfamethoxazole,20,20,0.9931311,-0.6666686
19802,52854,sulfamethoxazole,80,80,0.98734343,-4.192241
19803,52300,sulfamethoxazole,20,20,0.94506866,-1.8055644
19808,52307,sulfamethoxazole,50,50,0.9997329,-1.0326306
19809,52307,sulfamethoxazole,50,50,0.9834541,-1.9862719
19821,52297,sulfamethoxazole,20,20,0.9977175,-0.9361917
19822,52854,sulfamethoxazole,80,80,0.9970458,-2.130417
19824,52212,sulfamethoxazole,50,80,0.7340588,-2.3560197
19829,52302,sulfamethoxazole,20,20,0.6029766,-4.645947
19834,52642,sulfamethoxazole,100,80,0.7433477,-5.975319
19835,52335,sulfamethoxazole,50,100,0.7403535,-5.812432
19843,52848,sulfamethoxazole,100,80,0.99555176,-2.1325371
19851,52629,sulfamethoxazole,20,20,0.9808607,-2.0268967
19856,52212,sulfamethoxazole,50,80,0.8089252,-2.180584
19858,52330,sulfamethoxazole,80,100,0.82020336,-5.0614824
19893,52297,sulfamethoxazole,20,20,0.9992231,0.243556
19905,53530,promethazine-hydrochloride,50,50,0.9462316,-2.1300602
19912,51704,promethazine-hydrochloride,80,80,0.9999838,2.6330807
19914,51714,promethazine-hydrochloride,80,100,0.9975546,-2.905104
19919,51719,promethazine-hydrochloride,80,80,0.71358496,-4.8881297
19920,51719,promethazine-hydrochloride,80,80,0.9478126,-4.726292
19922,51715,promethazine-hydrochloride,80,100,0.86591154,-4.730365
19933,51715,promethazine-hydrochloride,80,100,0.8928847,-4.11228
19945,51714,promethazine-hydrochloride,80,100,0.9976888,-1.7876728
19961,53014,promethazine-hydrochloride,100,100,0.62789243,-3.3828952
19962,51732,promethazine-hydrochloride,100,100,0.99607664,-3.3904133
19963,53675,promethazine-hydrochloride,100,100,0.99998343,0.47193328
19970,53672,promethazine-hydrochloride,100,100,0.865889,-4.3333907
19980,53672,promethazine-hydrochloride,100,100,0.9870272,-2.145826
19985,53675,promethazine-hydrochloride,100,100,0.99999595,2.347889
19986,51743,promethazine-hydrochloride,100,100,0.9913932,-0.16000977
19987,51732,promethazine-hydrochloride,100,100,0.9974287,-2.4004245
19989,51743,promethazine-hydrochloride,100,100,0.8420148,-0.9939738
19996,53686,promethazine-hydrochloride,100,100,0.632999,-5.610601
19997,53014,promethazine-hydrochloride,100,100,0.55210286,-2.1123948
20008,51743,promethazine-hydrochloride,100,100,0.8690747,-1.449907
20013,53557,promethazine-hydrochloride,20,20,0.98823625,-2.9475346
20018,53572,promethazine-hydrochloride,20,20,0.93006605,-3.9322586
20022,53557,promethazine-hydrochloride,20,20,0.9853415,-3.0561087
20024,53535,promethazine-hydrochloride,20,20,0.86821353,-6.1091757
20027,53534,promethazine-hydrochloride,20,20,0.4608319,-7.178715
20034,53534,promethazine-hydrochloride,20,20,0.9120327,-5.3565235
20036,53572,promethazine-hydrochloride,20,20,0.7411638,-5.231609
20041,53495,promethazine-hydrochloride,20,20,0.9999074,-0.09050661
20043,53535,promethazine-hydrochloride,20,20,0.7385476,-5.898867
20048,53495,promethazine-hydrochloride,20,20,0.99994326,-0.16988398
20053,53559,promethazine-hydrochloride,20,20,0.9998753,-1.0391945
20060,53268,doxycycline,20,20,0.99982303,0.5103052
20066,53269,doxycycline,20,20,0.99725205,-2.0151603
20071,53269,doxycycline,20,20,0.9986706,-1.8838193
20074,53363,doxycycline,20,20,0.9994091,-1.9467309
20075,53369,doxycycline,20,20,0.9990231,0.13583788
20076,53373,doxycycline,20,20,0.9995753,0.05399827
20078,53370,doxycycline,20,20,0.9970504,-2.3728178
20086,53363,doxycycline,20,20,0.9989843,-2.867027
20090,53369,doxycycline,20,20,0.9971129,-1.6446046
20095,53268,doxycycline,20,20,0.85513777,-3.0229585
20099,53374,doxycycline,20,20,0.99988735,-2.2694268
20101,53370,doxycycline,20,20,0.99954164,-1.8992052
20107,53361,doxycycline,20,20,0.9402414,-3.1226022
20109,53361,doxycycline,20,20,0.929383,-2.8493657
20124,53287,doxycycline,50,100,0.9404367,-5.283405
20126,53383,doxycycline,50,80,0.86551183,-7.8004737
20129,53377,doxycycline,50,20,0.8448919,-3.045841
20138,53377,doxycycline,50,50,0.6867946,-6.1475253
20147,53385,doxycycline,50,100,0.5528354,-6.0844245
20165,53286,doxycycline,50,100,0.53221333,-7.0622025
20169,53272,doxycycline,50,50,0.5927783,-4.5367246
20176,53383,doxycycline,50,80,0.99157095,-5.5115495
20179,53287,doxycycline,50,100,0.5033859,-5.708107
20181,53244,doxycycline,80,50,0.7486555,-6.008652
20184,53614,doxycycline,80,80,0.6753898,-3.4312148
20185,53290,doxycycline,80,80,0.9744596,-3.7951922
20190,53350,doxycycline,80,20,0.9181626,-5.2038727
20192,53351,doxycycline,80,100,0.9765672,-4.34804
20199,53351,doxycycline,80,100,0.7459689,-5.9771857
20201,53289,doxycycline,80,20,0.5822146,-7.322421
20203,53345,doxycycline,80,20,0.34162095,-8.2446785
20209,53345,doxycycline,80,50,0.52988535,-6.846244
20211,53244,doxycycline,80,20,0.46944404,-5.8217797
20216,53289,doxycycline,80,80,0.88412255,-6.8117943
20226,53293,doxycycline,80,100,0.94620734,-4.9868784
20228,53293,doxycycline,80,100,0.9621574,-4.4861503
20232,53350,doxycycline,80,100,0.87295365,-5.837862
20233,53290,doxycycline,80,80,0.9628981,-3.797074
20239,53629,doxycycline,100,100,0.8820978,-5.4105477
20248,53624,doxycycline,100,100,0.99472356,-3.4477537
20254,53618,doxycycline,100,100,0.9868197,-4.837426
20255,53483,doxycycline,100,100,0.8691845,-6.5227766
20266,53511,doxycycline,100,100,0.99965525,-0.975572
20271,53484,doxycycline,100,100,0.85686475,-2.8376226
20273,53618,doxycycline,100,100,0.9980509,-3.0548031
20277,53624,doxycycline,100,100,0.9628189,-4.2058725
20280,53629,doxycycline,100,100,0.6136326,-7.459011
20284,53509,doxycycline,100,100,0.9573027,-3.130887
20285,53628,doxycycline,100,100,0.99929917,-1.4495904
20295,53628,doxycycline,100,100,0.8972136,-3.8122137
20299,53484,doxycycline,100,100,0.908191,-3.1096468
20317,53826,chloroquine,20,20,0.89095855,-6.628172
20319,53768,chloroquine,20,20,0.99456716,-2.887257
20324,53821,chloroquine,20,20,0.9998673,-0.93600345
20333,53809,chloroquine,20,20,0.9999981,1.1505405
20340,53821,chloroquine,20,20,0.9998229,-2.356552
20343,53809,chloroquine,20,20,0.9999858,0.49327698
20344,53768,chloroquine,20,20,0.98724943,-1.8136455
20345,53826,chloroquine,20,20,0.95277333,-3.3683276
20349,53768,chloroquine,20,20,0.99821484,-0.5109964
20351,53818,chloroquine,20,20,0.9007231,-5.128938
20358,53810,chloroquine,20,20,0.9999987,0.3435945
20359,53826,chloroquine,20,20,0.93047136,-4.91284
20360,53816,chloroquine,20,20,0.9998357,-2.5513048
20363,53809,chloroquine,20,20,0.9999881,0.8908888
20367,53809,chloroquine,20,20,0.9999951,0.89094114
20375,53821,chloroquine,20,20,0.99995756,-1.047301
20376,53816,chloroquine,20,20,0.9974481,-3.7652502
20379,53810,chloroquine,20,20,0.9999914,0.01848446
20383,53821,chloroquine,20,20,0.9997073,-2.300478
20388,53809,chloroquine,20,20,0.99998736,0.353377
20396,53818,chloroquine,20,20,0.9093952,-4.6867666
20405,53821,chloroquine,20,20,0.99393976,-4.1840515
20408,53821,chloroquine,20,20,0.99973685,-1.9099884
20409,53816,chloroquine,20,20,0.99993956,-0.79653805
20420,53768,chloroquine,20,20,0.99120754,-3.6948352
20424,53810,chloroquine,20,20,0.99999666,0.0318278
20426,53816,chloroquine,20,20,0.9992291,-3.2762194
20428,53810,chloroquine,20,20,0.9999801,-0.17131081
20432,53809,chloroquine,20,20,0.9999907,1.0715455
20435,53818,chloroquine,20,20,0.7809351,-5.4624987
20437,53768,chloroquine,20,20,0.99294245,-3.6778822
20438,53816,chloroquine,20,20,0.99988914,-0.87989557
20439,53810,chloroquine,20,20,0.99999905,0.069002084
20440,53826,chloroquine,20,20,0.6097733,-6.2097263
20441,53826,chloroquine,20,100,0.5049851,-4.7769823
20444,53869,chloroquine,100,100,0.9999999,-1.4832267
20453,53857,chloroquine,100,100,0.9992459,-1.5491403
20454,53868,chloroquine,100,50,0.931823,-7.7173567
20462,53857,chloroquine,100,100,0.9998784,-4.02427
20465,53835,chloroquine,100,100,0.9999721,-0.504414
20467,53851,chloroquine,100,100,0.9999993,-0.5219709
20468,53868,chloroquine,100,50,0.9915537,-6.024416
20474,53873,chloroquine,100,100,0.9999937,-2.53476
20478,53447,chloroquine,100,100,0.97296923,-4.2742343
20484,53447,chloroquine,100,100,0.99758005,-3.247498
20485,53873,chloroquine,100,100,0.9999995,-2.0823734
20489,53869,chloroquine,100,100,0.999982,-4.554536
20495,53874,chloroquine,100,100,0.99999964,1.8699846
20499,53851,chloroquine,100,100,0.99986863,-2.2167904
20502,53762,chloroquine,50,50,0.9996643,-2.5367532
20503,53816,chloroquine,50,20,0.99977654,-1.8089839
20507,53762,chloroquine,50,50,0.99900275,-4.2748218
20509,53766,chloroquine,50,50,0.98860663,-4.983228
20510,53752,chloroquine,50,50,0.9516996,-4.385203
20512,53752,chloroquine,50,20,0.5903245,-4.3858376
20517,53764,chloroquine,50,50,0.9906549,-6.2859693
20521,53761,chloroquine,50,50,0.7378137,-6.90431
20529,53846,chloroquine,50,50,0.9999877,-1.9992472
20535,53846,chloroquine,50,20,0.64374924,-7.8800516
20538,53761,chloroquine,50,20,0.78064394,-5.1509533
20539,53841,chloroquine,50,20,0.8701595,-4.5289836
20542,53761,chloroquine,50,20,0.9293838,-7.178228
20543,53762,chloroquine,50,50,0.9995047,-3.7483945
20544,53764,chloroquine,50,50,0.97235155,-5.682795
20547,53766,chloroquine,50,50,0.83517265,-4.9851537
20548,53766,chloroquine,50,50,0.9952467,-4.680693
20554,53764,chloroquine,50,50,0.9765335,-5.1152596
20557,53752,chloroquine,50,50,0.8953467,-4.1270523
20562,53833,chloroquine,80,100,0.9290081,-7.4261684
20565,53438,chloroquine,80,100,0.9953061,-5.213853
20568,53433,chloroquine,80,100,0.9999994,0.7703744
20570,53833,chloroquine,80,80,0.6602795,-6.864624
20576,53835,chloroquine,80,100,0.99583447,-4.0861273
20583,53432,chloroquine,80,100,0.9919396,-5.2511587
20589,53432,chloroquine,80,100,0.9970945,-5.705678
20591,53866,chloroquine,80,100,0.8524491,-8.121826
20593,53435,chloroquine,80,80,0.99396026,-6.374221
20594,53433,chloroquine,80,100,0.99997175,-1.1585242
20599,52544,chloroquine,80,80,0.8715628,-6.293224
20602,53866,chloroquine,80,100,0.9832161,-4.445137
20611,52544,chloroquine,80,80,0.88610244,-5.8299527
20612,53438,chloroquine,80,100,0.98810184,-4.9504046
20614,53435,chloroquine,80,80,0.9951383,-6.507103
20620,53762,chloroquine,50,50,0.9939925,-6.4930663
20622,53841,chloroquine,50,20,0.6755433,-4.7806997
20627,53818,chloroquine,50,100,0.5874867,-5.084662
20629,53846,chloroquine,50,50,0.64112186,-8.460595
20632,53766,chloroquine,50,20,0.7220862,-9.192062
20633,53766,chloroquine,50,50,0.9755729,-6.098447
20637,53762,chloroquine,50,50,0.9613948,-7.448015
20652,53846,chloroquine,50,50,0.41681972,-9.218448
20656,53752,chloroquine,50,50,0.96855295,-4.2358074
20657,53841,chloroquine,50,50,0.8181618,-5.34759
20658,53846,chloroquine,50,20,0.9509251,-7.8042207
20667,53761,chloroquine,50,20,0.99666697,-3.9337785
20675,53752,chloroquine,50,50,0.5812343,-3.8806589
20677,53764,chloroquine,50,50,0.532637,-6.359291
20680,53764,chloroquine,50,50,0.976905,-6.739319
20681,53846,chloroquine,50,20,0.70022583,-8.717444
20682,53761,chloroquine,50,20,0.587374,-7.1185737
20689,53841,chloroquine,50,20,0.7311661,-4.6074524
20691,53841,chloroquine,50,20,0.91130954,-5.8184395
20699,53429,albendazole,100,80,0.98766196,-3.6908479
20714,53355,albendazole,100,50,0.81331915,-5.2481084
20716,53353,albendazole,100,100,0.62419146,-5.638114
20726,53353,albendazole,100,100,0.80772364,-4.891282
20729,53355,albendazole,100,50,0.84648013,-5.8248887
20736,53355,albendazole,100,50,0.6013327,-6.497131
20747,53353,albendazole,100,100,0.790798,-5.1503224
20756,53353,albendazole,100,100,0.95548654,-4.7069707
20775,53429,albendazole,100,80,0.9704661,-3.3438628
20783,53429,albendazole,100,80,0.9987828,-2.0295498
20786,53353,albendazole,100,100,0.743135,-4.037827
20795,53154,ciprofloxacin,50,50,0.92130893,-5.140755
20799,53206,ciprofloxacin,50,50,0.99591416,-3.885183
20804,53091,ciprofloxacin,50,50,0.9968929,-3.737938
20809,53153,ciprofloxacin,50,50,0.97965896,-2.8733122
20815,53204,ciprofloxacin,50,50,0.85933226,-5.9845366
20816,53206,ciprofloxacin,50,50,0.67940557,-6.0522456
20819,53091,ciprofloxacin,50,50,0.99548787,-4.5425243
20822,53204,ciprofloxacin,50,50,0.91385293,-6.6537642
20831,53154,ciprofloxacin,50,80,0.5354685,-6.339437
20833,53097,ciprofloxacin,50,50,0.9832012,-2.627608
20838,53099,ciprofloxacin,50,50,0.9999578,-0.5671293
20842,53090,ciprofloxacin,50,50,0.9932573,-3.2955015
20851,53097,ciprofloxacin,50,50,0.9514041,-2.2399766
20852,53099,ciprofloxacin,50,50,0.99969757,-2.9151008
20856,53090,ciprofloxacin,50,50,0.96549356,-4.3028145
20857,53174,ciprofloxacin,80,50,0.99963117,-2.6036918
20859,53170,ciprofloxacin,80,50,0.75613004,-6.9817557
20863,53174,ciprofloxacin,80,50,0.9579893,-4.7644696
20864,53065,ciprofloxacin,80,80,0.9943487,-2.4629326
20865,53066,ciprofloxacin,80,20,0.8626783,-7.0603743
20867,53173,ciprofloxacin,80,50,0.9863322,-3.1948283
20869,53170,ciprofloxacin,80,20,0.5091065,-7.1405344
20873,53065,ciprofloxacin,80,80,0.9053313,-5.514196
20876,53170,ciprofloxacin,80,50,0.74338216,-7.234562
20879,53173,ciprofloxacin,80,50,0.9718563,-2.9876726
20885,53066,ciprofloxacin,80,20,0.96378165,-5.681454
20889,53173,ciprofloxacin,80,50,0.99586123,-3.3600698
20896,53065,ciprofloxacin,80,80,0.97729915,-6.082475
20898,53174,ciprofloxacin,80,50,0.99895215,-3.1793783
20901,53066,ciprofloxacin,80,20,0.96032995,-5.4703436
20903,53169,ciprofloxacin,80,100,0.5927626,-7.3958025
20905,53173,ciprofloxacin,80,50,0.9784209,-2.8440852
20909,53703,amoxicillin,100,100,0.992004,-3.0454452
20910,53721,amoxicillin,100,80,0.97513753,-7.8622165
20911,53848,amoxicillin,100,100,0.98935586,-7.500775
20912,53749,amoxicillin,100,100,0.99996626,-8.910608
20930,53696,amoxicillin,100,50,0.99569017,-2.8852158
20931,53748,amoxicillin,100,100,0.99999833,-0.26382214
20933,53697,amoxicillin,100,100,0.99847835,-6.126038
20941,52553,amoxicillin,20,20,0.99539423,-1.6038076
20942,53453,amoxicillin,20,20,0.9984137,-1.2202404
20944,53458,amoxicillin,20,50,0.88867134,-4.4544845
20945,53461,amoxicillin,20,20,0.9933304,-3.6919937
20949,53452,amoxicillin,20,20,0.99986947,-0.56645125
20952,53890,amoxicillin,20,20,0.95134294,-5.5251975
20967,52553,amoxicillin,20,20,0.9958045,-0.46180588
20968,53890,amoxicillin,20,20,0.99944526,-3.2544634
20970,53456,amoxicillin,20,20,0.99129254,-2.976036
20978,53742,amoxicillin,50,100,0.99816835,-2.8800137
20986,53877,amoxicillin,50,50,0.88156396,-4.2560434
20988,53737,amoxicillin,50,50,0.9864842,-7.1980624
20998,52552,amoxicillin,50,100,0.9225487,-7.1444726
21000,53882,amoxicillin,50,100,0.5415423,-6.5311875
21002,53740,amoxicillin,50,100,0.84777504,-6.4887056
21011,53712,amoxicillin,80,80,0.99651104,-4.5718427
21015,53713,amoxicillin,80,80,0.78870183,-6.5234256
21016,53715,amoxicillin,80,100,0.98077184,-6.5299983
21018,53715,amoxicillin,80,100,0.977467,-5.1785107
21020,53723,amoxicillin,80,100,0.5882879,-6.9285674
21021,53734,amoxicillin,80,100,0.9976163,-3.1494896
21026,53717,amoxicillin,80,80,0.66704696,-7.278465
21034,52567,hydroxychloroquine,50,50,0.99127114,-3.887873
21041,52567,hydroxychloroquine,50,50,0.998645,-2.3341475
21048,52564,hydroxychloroquine,50,50,0.9992151,-3.0166998
21074,51712,hydroxychloroquine,50,50,0.997707,-1.9186279
21076,52571,hydroxychloroquine,50,50,0.9995067,-0.3863984
21077,52565,hydroxychloroquine,50,50,0.99998903,-0.8863377
21078,52564,hydroxychloroquine,50,50,0.99902785,-3.6970477
21085,52567,hydroxychloroquine,50,50,0.99735034,-2.3195624
21094,53016,hydroxychloroquine,50,20,0.99997056,-3.857715
21103,53016,hydroxychloroquine,50,50,0.9175934,-6.0219154
21110,52567,hydroxychloroquine,50,50,0.99635077,-3.2163157
21115,51712,hydroxychloroquine,50,50,0.997858,-2.357723
21116,52571,hydroxychloroquine,50,50,0.9999596,0.87410975
21122,53021,hydroxychloroquine,50,50,0.996865,-3.1567657
21126,52565,hydroxychloroquine,50,50,0.999982,-1.6278627
21130,53016,hydroxychloroquine,50,50,0.99122673,-4.2061296
21145,52571,hydroxychloroquine,50,50,0.99997747,1.4916064
21163,53016,hydroxychloroquine,50,50,0.9936982,-4.2374177
21165,52567,hydroxychloroquine,50,50,0.9991685,-2.1440017
21169,53016,hydroxychloroquine,50,50,0.99257857,-4.125367
21172,53016,hydroxychloroquine,50,50,0.92809695,-4.7711134
21180,53021,hydroxychloroquine,50,50,0.8590151,-5.042935
21190,53788,hydroxychloroquine,100,100,0.9984646,-1.9311261
21220,53791,hydroxychloroquine,100,100,0.99968255,0.48146158
21229,53796,hydroxychloroquine,100,100,0.99999845,1.0465933
21231,53771,hydroxychloroquine,100,100,0.96471524,-4.5179996
21243,53783,hydroxychloroquine,100,100,0.9940088,-2.4564323
21247,53796,hydroxychloroquine,100,100,0.99999654,0.30294758
21249,53784,hydroxychloroquine,100,100,0.9853667,-4.454828
21257,53783,hydroxychloroquine,100,100,0.9999888,0.12473552
21259,53786,hydroxychloroquine,100,100,0.99998367,-0.17059729
21260,53783,hydroxychloroquine,100,100,0.9998641,-0.96132565
21262,53784,hydroxychloroquine,100,100,0.9980894,-0.068265885
21273,53786,hydroxychloroquine,100,100,0.9999968,0.09710246
21276,53771,hydroxychloroquine,100,100,0.9333712,-4.411512
21284,53771,hydroxychloroquine,100,100,0.847386,-5.2034864
21295,53803,hydroxychloroquine,80,80,0.9722811,-2.586876
21305,53814,hydroxychloroquine,80,100,0.9932597,-2.100201
21309,53899,hydroxychloroquine,80,80,0.960113,-4.4679418
21316,53803,hydroxychloroquine,80,80,0.9839684,-2.0925944
21319,53803,hydroxychloroquine,80,80,0.94791406,-2.9787607
21330,53807,hydroxychloroquine,80,100,0.9990989,-2.6784332
21340,53814,hydroxychloroquine,80,100,0.88140756,-2.7934036
21348,53807,hydroxychloroquine,80,100,0.99908304,-2.612516
21356,53464,hydroxychloroquine,80,100,0.91912585,-6.0253243
21374,53801,hydroxychloroquine,80,100,0.9962806,-3.0490532
21379,53807,hydroxychloroquine,80,100,0.9994368,-1.7988203
21381,53464,hydroxychloroquine,80,100,0.90326643,-4.198879
21386,53800,hydroxychloroquine,80,100,0.9147228,-4.276252
21392,53800,hydroxychloroquine,80,100,0.9895453,-2.7406943
21394,53800,hydroxychloroquine,80,100,0.95887583,-3.8704016
21407,53801,hydroxychloroquine,80,100,0.924749,-4.522981
21427,53464,hydroxychloroquine,80,100,0.94140875,-5.787998
21434,53899,hydroxychloroquine,80,80,0.9948019,-4.063353
21442,53800,hydroxychloroquine,80,100,0.9596744,-3.9227705
21455,51731,hydroxychloroquine,20,20,0.99996305,1.7946585
21473,51729,hydroxychloroquine,20,100,0.65303165,-5.5601044
21475,53001,hydroxychloroquine,20,20,0.9999565,1.9156449
21476,53001,hydroxychloroquine,20,20,0.99999774,3.5577073
21481,51728,hydroxychloroquine,20,20,0.9999528,-1.0966983
21486,51731,hydroxychloroquine,20,20,0.99983084,-0.5478134
21488,51734,hydroxychloroquine,20,20,0.9999535,-0.5479821
21489,51729,hydroxychloroquine,20,100,0.7660104,-7.5672817
21492,51728,hydroxychloroquine,20,20,0.99980086,-0.13741133
21494,51720,hydroxychloroquine,20,20,0.9969759,-0.09173648
21496,53006,hydroxychloroquine,20,20,0.99998736,2.3566568
21502,53006,hydroxychloroquine,20,20,0.9999869,2.1347542
21505,51720,hydroxychloroquine,20,20,0.9373369,-1.7049696
21511,53899,hydroxychloroquine,80,80,0.99698985,-4.4643903
21512,53800,hydroxychloroquine,80,100,0.9398029,-4.1722035
21522,53803,hydroxychloroquine,80,80,0.935014,-3.0488977
21524,53464,hydroxychloroquine,80,100,0.9964528,-2.6852884
21530,53807,hydroxychloroquine,80,100,0.9996562,-1.2022998
21532,53801,hydroxychloroquine,80,100,0.9715873,-3.9095147
21538,53006,hydroxychloroquine,20,20,0.9999819,2.472904
21544,53006,hydroxychloroquine,20,20,0.99997365,3.2215652
21545,51720,hydroxychloroquine,20,20,0.99221426,0.31626707
21548,53006,hydroxychloroquine,20,20,0.99999225,2.8068924
21571,53006,hydroxychloroquine,20,20,0.9999794,2.1890476
21581,51728,hydroxychloroquine,20,20,0.999992,-0.17297813
21582,53001,hydroxychloroquine,20,20,0.9999919,2.0378435
21607,53006,hydroxychloroquine,20,20,0.99997985,2.46091
21609,51729,hydroxychloroquine,20,50,0.99960357,-3.3841636
21613,53006,hydroxychloroquine,20,20,0.99998593,2.5300105
21616,51734,hydroxychloroquine,20,20,0.9995189,-3.0419743
21621,53006,hydroxychloroquine,20,20,0.9999759,1.8453062
21627,53006,hydroxychloroquine,20,20,0.9999629,2.6784227
21630,53006,hydroxychloroquine,20,20,0.9999813,2.769867
21631,53001,hydroxychloroquine,20,20,0.99999464,4.0668607
21649,53006,hydroxychloroquine,20,20,0.9999821,2.5727117
21653,51734,hydroxychloroquine,20,20,0.99957913,-0.48091874
21680,53006,hydroxychloroquine,20,20,0.99999034,4.16927
21689,51731,hydroxychloroquine,20,20,0.9949602,-0.16695301
21691,51720,hydroxychloroquine,20,20,0.99518126,-0.3939597
21695,53006,hydroxychloroquine,20,20,0.9999707,3.048569
21713,51734,hydroxychloroquine,20,20,0.99999714,0.86715275
21721,53006,hydroxychloroquine,20,20,0.9999682,2.8264496
21728,51731,hydroxychloroquine,20,20,0.9999397,1.5029607
21735,51729,hydroxychloroquine,20,50,0.998514,-3.0697138
21746,53006,hydroxychloroquine,20,20,0.99998033,2.561254
21748,51731,hydroxychloroquine,20,20,0.99914205,-0.9162789
21767,53006,hydroxychloroquine,20,20,0.99998164,2.2795327
21776,53006,hydroxychloroquine,20,20,0.99996495,1.7384734
21785,53006,hydroxychloroquine,20,20,0.9999726,1.7909193
21790,51729,hydroxychloroquine,20,50,0.9683963,-5.0689936
21794,53001,hydroxychloroquine,20,20,0.9999926,3.475333
21795,53006,hydroxychloroquine,20,20,0.9999645,1.5660504
21802,51728,hydroxychloroquine,20,20,0.9999968,1.163728
21817,51728,hydroxychloroquine,20,20,0.99999356,1.7209542
21864,52627,sulfamethoxazole,20,20,0.9999194,0.16108593
21867,52309,sulfamethoxazole,50,50,0.99990094,0.067239925
21869,52646,sulfamethoxazole,50,80,0.5822002,-5.7239413
21871,52168,sulfamethoxazole,50,80,0.75469315,-3.8895311
21894,51753,epinephrine,50,20,0.9576147,-5.6922293
21899,52129,epinephrine,80,80,0.9865297,-4.530382
21900,52000,epinephrine,20,20,0.9995615,-1.2460591
21901,52848,sulfamethoxazole,100,80,0.9616108,-2.1450462
21907,51958,epinephrine,100,100,0.9999827,-0.27014917
21910,52133,epinephrine,80,100,0.422902,-8.92597
21912,51973,epinephrine,50,50,0.99095714,-7.6648965
21913,51944,epinephrine,100,100,0.9974873,-4.967399
21915,51961,epinephrine,50,50,0.99846566,-3.8657227
21916,52016,epinephrine,20,20,0.99819475,-1.5333555
21920,52849,sulfamethoxazole,100,80,0.9950276,-1.576162
21922,52150,sulfamethoxazole,50,50,0.9295825,-4.3562245
21936,51973,epinephrine,50,50,0.8479146,-10.094932
21940,52629,sulfamethoxazole,20,20,0.9857803,-2.2459652
21941,52627,sulfamethoxazole,20,20,0.99996877,1.9488419
21946,52122,epinephrine,80,50,0.88970315,-7.510621
21948,52190,sulfamethoxazole,50,50,0.99666876,-2.2833233
21949,52023,epinephrine,20,20,0.97786945,-7.486466
21950,52302,sulfamethoxazole,20,20,0.9634132,-3.2594826
21958,51982,epinephrine,50,50,0.9741253,-3.9983065
21970,51970,epinephrine,50,50,0.94081515,-5.070815
21973,52856,sulfamethoxazole,100,80,0.985899,-4.62218
21976,52168,sulfamethoxazole,50,80,0.9812216,-3.292398
21979,52180,sulfamethoxazole,20,20,0.99566627,0.97412384
21983,52276,epinephrine,100,20,0.65961534,-7.94862
21992,51965,epinephrine,100,100,0.99993503,-5.8748083
22008,51958,epinephrine,100,100,0.9997938,-4.604632
22014,52014,epinephrine,20,20,0.97868425,-5.517446
22015,52633,sulfamethoxazole,80,50,0.9332772,-4.573656
22021,52317,sulfamethoxazole,50,80,0.8909985,-1.4482611
22028,51968,epinephrine,50,50,0.98211986,-3.4481769
22039,52844,sulfamethoxazole,80,80,0.9541535,-3.1616168
22060,51965,epinephrine,100,100,0.99999964,-0.945441
22067,51953,epinephrine,100,100,0.98497367,-6.2207
22068,52646,sulfamethoxazole,50,50,0.8984091,-4.590296
22070,52014,epinephrine,20,20,0.7349199,-6.629686
22073,51953,epinephrine,100,100,0.9981577,-5.2705045
22082,52861,sulfamethoxazole,100,80,0.9052936,-3.4623804
22089,52142,epinephrine,80,80,0.9974522,-5.189834
22094,52845,sulfamethoxazole,80,80,0.9695486,-0.9120278
22098,52642,sulfamethoxazole,100,80,0.9358636,-2.8867338
22108,52330,sulfamethoxazole,80,100,0.8617814,-3.9188209
22109,52335,sulfamethoxazole,50,50,0.6969086,-5.065622
22111,51982,epinephrine,50,50,0.9024423,-5.4477024
22115,52150,sulfamethoxazole,50,50,0.9782244,-4.1860785
22118,52302,sulfamethoxazole,20,20,0.9810947,-3.0257573
22120,52122,epinephrine,80,80,0.94063276,-6.938391
22121,52330,sulfamethoxazole,80,100,0.5346704,-5.954739
22122,52013,epinephrine,20,20,0.5476795,-6.608614
22123,52856,sulfamethoxazole,100,80,0.61118925,-5.0708704
22125,52869,sulfamethoxazole,100,100,0.98027474,-4.542008
22130,52013,epinephrine,20,50,0.5154487,-5.5632915
22135,51746,epinephrine,80,50,0.6186064,-8.989345
22143,51944,epinephrine,100,100,0.9965977,-3.6454935
22144,52865,sulfamethoxazole,100,100,0.68368447,-5.282798
22149,52309,sulfamethoxazole,50,50,0.99998343,2.1369464
22173,51956,epinephrine,100,100,0.994692,-5.3632083
22175,52848,sulfamethoxazole,100,80,0.97801197,-2.0203443
22183,51962,epinephrine,50,50,0.9747859,-5.795036
22184,52852,sulfamethoxazole,80,80,0.5472079,-5.6871943
22185,52023,epinephrine,20,20,0.996031,-4.3457723
22190,51753,epinephrine,50,80,0.45371747,-6.341404
22192,52129,epinephrine,80,80,0.9787396,-5.184335
22195,52300,sulfamethoxazole,20,20,0.9921808,-0.23342806
22199,52142,epinephrine,80,80,0.9977927,-5.482131
22203,52845,sulfamethoxazole,80,80,0.98841476,-1.6104739
22211,52021,epinephrine,20,20,0.9987465,-3.401743
22216,51982,epinephrine,50,50,0.82050586,-4.2101183
22222,52329,sulfamethoxazole,80,80,0.9997212,-2.8046007
22223,51779,epinephrine,80,50,0.9560503,-5.736092
22225,51970,epinephrine,50,50,0.9865541,-4.8805504
22229,51778,epinephrine,80,80,0.81783766,-6.351201
22230,52212,sulfamethoxazole,50,80,0.909287,-1.2625798
22231,52300,sulfamethoxazole,20,20,0.9934455,-0.35824975
22232,51956,epinephrine,100,100,0.97578454,-6.9266143
22233,52317,sulfamethoxazole,50,50,0.658189,-3.0249176
22237,51954,epinephrine,100,100,0.8884535,-5.899499
22242,52642,sulfamethoxazole,100,80,0.6112394,-4.6314273
22247,52016,epinephrine,20,20,0.99820447,-1.7779351
22249,52646,sulfamethoxazole,50,50,0.86331284,-4.5052047
22262,52122,epinephrine,80,80,0.9249145,-6.780598
22263,52335,sulfamethoxazole,50,50,0.5725763,-5.1176434
22277,52633,sulfamethoxazole,80,50,0.876428,-4.988623
22286,51954,epinephrine,100,100,0.5919227,-6.423239
22288,51961,epinephrine,50,50,0.99896705,-3.5336385
22290,52212,sulfamethoxazole,50,80,0.9690994,-0.9299188
22298,52329,sulfamethoxazole,80,80,0.99988604,-3.085766
22299,52021,epinephrine,20,20,0.9989833,-3.2772524
22303,51958,epinephrine,100,100,0.99995506,-0.4125776
22305,51970,epinephrine,50,50,0.7227561,-6.9323564
22311,52852,sulfamethoxazole,80,80,0.7783435,-5.968357
22316,52627,sulfamethoxazole,20,20,0.9999752,1.7273519
22317,52190,sulfamethoxazole,50,50,0.9865541,-3.4490821
22320,52854,sulfamethoxazole,80,80,0.5888199,-5.145704
22327,51746,epinephrine,80,50,0.64538914,-9.118165
22329,52310,sulfamethoxazole,50,50,0.99486524,-1.8902711
22334,51778,epinephrine,80,80,0.95319134,-5.3933644
22335,52309,sulfamethoxazole,50,50,0.99999905,3.1235049
22345,52629,sulfamethoxazole,20,20,0.99618965,-2.6086612
22346,51968,epinephrine,50,50,0.95918304,-4.2089987
22349,52180,sulfamethoxazole,20,20,0.9968816,1.4406409
22352,52865,sulfamethoxazole,100,100,0.8716712,-4.629813
22355,51962,epinephrine,50,50,0.8452902,-6.312481
22359,51961,epinephrine,50,50,0.9146845,-6.122116
22361,51779,epinephrine,80,50,0.89885736,-5.826813
22371,52297,sulfamethoxazole,20,20,0.99654824,-0.47296774
22372,52861,sulfamethoxazole,100,80,0.6187929,-4.5635133
22373,52639,sulfamethoxazole,80,80,0.9893635,-3.5311165
22375,52869,sulfamethoxazole,100,100,0.99939644,-3.4879782
22380,52849,sulfamethoxazole,100,80,0.98906064,-1.8610982
22384,51965,epinephrine,100,100,0.9999901,-3.866598
22385,52133,epinephrine,80,80,0.38616955,-8.902604
22398,51968,epinephrine,50,50,0.88557076,-5.642265
22410,51778,epinephrine,80,50,0.5356428,-7.442374
22412,52133,epinephrine,80,100,0.49904492,-8.333638
22417,51746,epinephrine,80,50,0.5809435,-10.305349
22422,51968,epinephrine,50,50,0.91314316,-4.2138057
22427,52133,epinephrine,80,100,0.6978561,-8.998548
22433,51779,epinephrine,80,50,0.9959875,-4.997395
22434,52013,epinephrine,20,20,0.79379475,-6.4587235
22435,51944,epinephrine,100,100,0.9999696,-6.004538
22443,52013,epinephrine,20,20,0.8243542,-6.18363
22445,52000,epinephrine,20,20,0.99979883,-0.9285717
22450,51753,epinephrine,50,50,0.8890911,-5.757752
22451,52142,epinephrine,80,80,0.9859309,-6.7375817
22452,51970,epinephrine,50,50,0.9752958,-5.02813
22459,51962,epinephrine,50,100,0.9938419,-4.91487
22474,52016,epinephrine,20,20,0.99992764,-0.094872095
22475,51778,epinephrine,80,80,0.9243376,-6.089963
22476,51958,epinephrine,100,100,0.999995,-1.5691662
22491,52021,epinephrine,20,20,0.99804914,-3.8490121
22498,52021,epinephrine,20,20,0.9976398,-4.0435514
22504,51944,epinephrine,100,100,0.9998355,-3.9615428
22518,51954,epinephrine,100,100,0.5786931,-6.8331985
22521,52627,sulfamethoxazole,20,20,0.9994326,-0.8829461
22523,52849,sulfamethoxazole,100,80,0.99502975,-1.1219555
22529,52190,sulfamethoxazole,50,50,0.987812,-3.476492
22531,52016,epinephrine,20,20,0.99705195,-1.8792125
22534,51982,epinephrine,50,50,0.68409497,-5.716701
22538,52629,sulfamethoxazole,20,20,0.99617213,-1.2170861
22543,52190,sulfamethoxazole,50,50,0.9972807,-2.4678931
22544,52633,sulfamethoxazole,80,50,0.9542673,-5.037257
22552,51954,epinephrine,100,100,0.98666966,-5.322333
22559,52869,sulfamethoxazole,100,100,0.9971234,-4.2829823
22570,52845,sulfamethoxazole,80,80,0.9844847,-1.9011457
22571,51746,epinephrine,80,80,0.55057985,-9.682508
22576,52142,epinephrine,80,80,0.49313423,-8.334266
22585,52150,sulfamethoxazole,50,50,0.9347412,-5.6706433
22589,51753,epinephrine,50,50,0.9510873,-5.764669
22593,52639,sulfamethoxazole,80,80,0.95581084,-6.03087
22610,52000,epinephrine,20,20,0.9999739,0.50754887
22632,52845,sulfamethoxazole,80,80,0.9818288,-2.0721092
22643,52733,ethambutol,50,50,0.99932766,0.46667853
22657,52747,ethambutol,20,20,0.9999722,2.9945652
22662,52902,ethambutol,80,50,0.91056615,-2.421096
22666,52747,ethambutol,20,20,0.999969,3.1022725
22667,52889,ethambutol,80,50,0.99997044,1.6660596
22669,52765,ethambutol,20,20,0.99997306,0.961538
22673,52729,ethambutol,50,50,0.99753606,-0.93132526
22677,52724,ethambutol,50,100,0.76060736,-5.537666
22682,52791,ethambutol,100,100,0.99960357,-0.8633463
22684,52778,ethambutol,100,50,0.805261,-2.7093124
22687,52757,ethambutol,20,20,0.99848133,2.0546687
22697,52729,ethambutol,50,50,0.993757,-1.7921863
22710,52752,ethambutol,20,20,0.99999785,2.7036743
22712,52707,ethambutol,80,80,0.63202864,-2.1071606
22718,52765,ethambutol,20,20,0.99996376,1.5325787
22721,52704,ethambutol,50,50,0.9969422,-0.8479119
22727,52748,ethambutol,20,20,0.99981886,1.5224793
22729,52775,ethambutol,100,100,0.99817526,-1.4734957
22730,52751,ethambutol,100,100,0.9951976,-2.503549
22732,52775,ethambutol,100,100,0.9984263,-0.8792784
22735,52782,ethambutol,100,100,0.98788583,-3.680985
22739,52748,ethambutol,20,20,0.99925643,1.4044838
22741,52751,ethambutol,100,100,0.8737959,-4.6403866
22747,52814,ethambutol,100,100,0.99998784,1.3495346
22748,52894,ethambutol,80,80,0.9410766,-2.7984688
22751,52757,ethambutol,20,20,0.9999895,4.3823967
22753,52780,ethambutol,100,50,0.9984378,-1.8508449
22755,52782,ethambutol,100,100,0.8806719,-3.0080438
22756,52778,ethambutol,100,50,0.67189765,-3.8802824
22758,52724,ethambutol,50,50,0.7894439,-4.0298285
22767,52707,ethambutol,80,100,0.71037894,-1.8414563
22770,52787,ethambutol,80,100,0.971263,-2.2116678
22773,51935,ethambutol,20,20,0.99757725,1.395124
22776,52902,ethambutol,80,50,0.82007843,-3.2128608
22779,52789,ethambutol,80,100,0.9873232,-2.554463
22780,52733,ethambutol,50,50,0.9999379,2.4767313
22781,52752,ethambutol,20,20,0.9999958,2.8769832
22784,52894,ethambutol,80,80,0.93785214,-2.1709569
22788,52889,ethambutol,80,50,0.999398,0.7619914
22793,52748,ethambutol,20,20,0.9995547,1.1106185
22794,52765,ethambutol,20,20,0.9997954,1.0136914
22800,52761,ethambutol,20,20,0.9996327,1.160519
22802,52786,ethambutol,80,100,0.79428804,-1.7776276
22820,52791,ethambutol,100,100,0.99998474,0.6642912
22822,52724,ethambutol,50,50,0.99123305,-3.8006828
22823,52751,ethambutol,100,100,0.70880455,-3.3359787
22824,52720,ethambutol,50,50,0.99999917,2.2798383
22826,52721,ethambutol,50,50,0.9999149,0.0639913
22835,52721,ethambutol,50,50,0.99974984,-1.2762867
22841,52729,ethambutol,50,50,0.9985421,-1.1336321
22842,52704,ethambutol,50,50,0.9898107,-2.0831249
22843,52889,ethambutol,80,50,0.97332776,-2.1645105
22846,52747,ethambutol,20,20,0.9996891,1.7537495
22852,52787,ethambutol,80,100,0.9990382,-0.21794595
22854,52814,ethambutol,100,100,0.999884,0.7741545
22860,52889,ethambutol,80,50,0.9999654,0.9093496
22867,52733,ethambutol,50,50,0.99968195,1.3005205
22873,52789,ethambutol,80,100,0.98997444,-2.5393538
22881,52786,ethambutol,80,80,0.7115947,-1.3017097
22886,52778,ethambutol,100,50,0.74270236,-4.440654
22889,52752,ethambutol,20,20,0.99999547,2.758761
22891,52757,ethambutol,20,20,0.9999994,4.0292935
22892,52761,ethambutol,20,20,0.9993699,1.0743945
22900,52737,ethambutol,50,50,0.9822381,-1.9154235
22903,52780,ethambutol,100,50,0.9698036,-3.8364813
22913,52765,ethambutol,20,20,0.9999877,1.2837988
22917,52902,ethambutol,80,50,0.9922916,-1.2542174
22918,52894,ethambutol,80,50,0.5568083,-2.831242
22920,51935,ethambutol,20,20,0.997054,0.43888763
22924,52747,ethambutol,20,20,0.9998759,2.4897752
22926,52707,ethambutol,80,80,0.94494367,-2.4004865
22927,52902,ethambutol,80,50,0.9599294,-2.295583
22935,52720,ethambutol,50,50,0.9999987,2.035174
22945,52789,ethambutol,80,100,0.88372505,-3.1553125
22946,52786,ethambutol,80,80,0.76282775,-0.65068346
22952,52733,ethambutol,50,50,0.99692816,-0.48640567
22955,52707,ethambutol,80,80,0.95605576,-1.7646127
22967,52748,ethambutol,20,20,0.9996555,1.0561502
22975,51935,ethambutol,20,20,0.92708766,-2.133779
22976,52786,ethambutol,80,80,0.95378125,-0.95235306
22980,52787,ethambutol,80,100,0.501514,-2.2882624
22988,52751,ethambutol,100,100,0.62153935,-3.215353
22999,52775,ethambutol,100,100,0.9981006,-1.0435671
23004,52724,ethambutol,50,100,0.9026194,-4.4666147
23006,52791,ethambutol,100,100,0.99787295,-2.2115712
23008,52761,ethambutol,20,20,0.9933066,0.45923185
23010,52704,ethambutol,50,50,0.9932672,-0.8752129
23011,52752,ethambutol,20,20,0.999998,2.2918718
23012,52894,ethambutol,80,80,0.7720429,-3.2799299
23013,52814,ethambutol,100,100,0.9999621,1.5191139
23017,52981,ferrous-sulfate,80,80,0.99999416,0.9866575
23018,51896,ferrous-sulfate,100,80,0.8657516,-5.66836
23019,52971,ferrous-sulfate,80,80,0.999665,-3.8101892
23021,52830,ferrous-sulfate,20,20,0.9998292,-0.054722425
23024,52260,ferrous-sulfate,20,20,0.9996854,0.10455439
23026,51798,ferrous-sulfate,80,100,0.65190923,-6.1117907
23027,52829,ferrous-sulfate,50,50,0.8593305,-5.298375
23034,52249,ferrous-sulfate,50,100,0.554649,-6.9838877
23036,52948,ferrous-sulfate,50,50,0.9999964,1.2240437
23043,52978,ferrous-sulfate,100,80,0.99973565,-2.2395868
23046,51939,ferrous-sulfate,100,100,0.9995586,-1.719783
23048,52978,ferrous-sulfate,100,80,0.9996811,-0.66220194
23057,51797,ferrous-sulfate,80,80,0.9994987,0.573431
23063,52797,ferrous-sulfate,20,50,0.72776854,-3.0592892
23064,51771,ferrous-sulfate,100,100,0.9897832,-1.8560405
23066,51896,ferrous-sulfate,100,100,0.8849957,-4.735997
23069,51771,ferrous-sulfate,100,100,0.9363869,-3.6667833
23081,51807,ferrous-sulfate,100,100,0.9999169,-1.3835763
23091,52816,ferrous-sulfate,20,20,0.99848515,-1.3736842
23093,51936,ferrous-sulfate,100,100,0.99661297,-2.134207
23098,51798,ferrous-sulfate,80,80,0.93457407,-5.5882974
23100,52961,ferrous-sulfate,50,50,0.99996877,-0.72288966
23104,52975,ferrous-sulfate,80,80,0.9999999,3.311917
23110,52261,ferrous-sulfate,20,20,0.99941134,-0.48325977
23117,52961,ferrous-sulfate,50,50,0.9999682,-0.5632914
23118,52261,ferrous-sulfate,20,20,0.9965043,-1.78424
23121,51936,ferrous-sulfate,100,100,0.9922214,-4.557109
23125,52820,ferrous-sulfate,20,20,0.999979,0.042271372
23138,51935,ethambutol,20,20,0.99558556,-0.8396384
23140,52957,ferrous-sulfate,50,50,0.99408543,-2.5799332
23144,52829,ferrous-sulfate,50,50,0.75775224,-6.0363073
23145,52797,ferrous-sulfate,20,50,0.98434895,-2.1911914
23150,52814,ethambutol,100,100,0.9999901,-0.13308746
23161,52820,ferrous-sulfate,20,20,0.9999547,-0.36150065
23163,52828,ferrous-sulfate,50,50,0.99756527,-1.1351066
23164,52961,ferrous-sulfate,50,50,0.99989915,-2.635855
23167,52981,ferrous-sulfate,80,80,0.9999435,-1.0569143
23168,52975,ferrous-sulfate,80,80,0.9997204,-2.5166504
23177,51771,ferrous-sulfate,100,100,0.9794627,-3.2490366
23179,52948,ferrous-sulfate,50,50,0.9999907,1.0853275
23182,52978,ferrous-sulfate,100,80,0.9980135,-3.2843122
23187,52261,ferrous-sulfate,20,20,0.9995865,0.19803499
23188,51933,ferrous-sulfate,100,100,0.80460775,-6.246809
23189,52260,ferrous-sulfate,20,20,0.9999639,3.146662
23190,52816,ferrous-sulfate,20,20,0.99361163,-1.5140367
23193,51768,ferrous-sulfate,80,80,0.9999671,-0.28760692
23198,52797,ferrous-sulfate,20,20,0.8492888,-2.790752
23200,51896,ferrous-sulfate,100,100,0.5528752,-5.284852
23208,52830,ferrous-sulfate,20,20,0.9998388,0.5929718
23209,51936,ferrous-sulfate,100,100,0.99895394,-1.6219686
23214,52817,ferrous-sulfate,20,20,0.9996731,0.84433436
23220,52795,ferrous-sulfate,20,20,0.9564284,-1.3139056
23225,51936,ferrous-sulfate,100,100,0.99831605,-2.1091793
23228,52797,ferrous-sulfate,20,20,0.9740617,-2.9374774
23245,52261,ferrous-sulfate,20,20,0.9988294,0.32678244
23251,51807,ferrous-sulfate,100,100,0.9999877,-1.5285498
23252,52975,ferrous-sulfate,80,80,0.99999976,1.05991
23253,52830,ferrous-sulfate,20,20,0.9997296,-0.8256109
23256,51939,ferrous-sulfate,100,100,0.99723935,-2.0158374
23258,52828,ferrous-sulfate,50,50,0.996947,-1.6060777
23262,52978,ferrous-sulfate,100,80,0.56765646,-6.707155
23263,51933,ferrous-sulfate,100,100,0.8360373,-5.271177
23270,51797,ferrous-sulfate,80,80,0.95100385,-2.7534254
23273,52829,ferrous-sulfate,50,20,0.73819935,-6.02806
23274,51797,ferrous-sulfate,80,80,0.99153453,-2.2222
23275,51896,ferrous-sulfate,100,80,0.8114914,-5.1339297
23277,52957,ferrous-sulfate,50,50,0.9995784,-2.3694553
23279,52971,ferrous-sulfate,80,80,0.98977166,-5.843268
23280,52816,ferrous-sulfate,20,20,0.99909174,-0.093242064
23283,52953,ferrous-sulfate,50,50,0.9995602,-3.176776
23288,52966,ferrous-sulfate,80,80,0.9997235,-2.6666613
23289,52957,ferrous-sulfate,50,50,0.995243,-3.6188822
23290,51771,ferrous-sulfate,100,100,0.999688,-1.724797
23303,52948,ferrous-sulfate,50,50,0.999984,0.28729168
23316,51807,ferrous-sulfate,100,100,0.99999535,0.43119267
23322,52961,ferrous-sulfate,50,50,0.9997695,-2.6527123
23329,52795,ferrous-sulfate,20,20,0.90054816,-1.488287
23336,52971,ferrous-sulfate,80,80,0.99882346,-5.0408707
23349,52966,ferrous-sulfate,80,80,0.99999285,-1.3359592
23351,52829,ferrous-sulfate,50,50,0.42154318,-6.744745
23353,52981,ferrous-sulfate,80,80,0.9999852,0.09005932
23354,51798,ferrous-sulfate,80,100,0.6975562,-5.9563975
23355,51768,ferrous-sulfate,80,80,0.99979275,-2.0795145
23360,51798,ferrous-sulfate,80,100,0.9965329,-4.612079
23375,51939,ferrous-sulfate,100,100,0.99930274,-2.2513065
23376,52260,ferrous-sulfate,20,20,0.9997676,2.586002
23379,52829,ferrous-sulfate,50,20,0.5199469,-5.9765882
23384,52953,ferrous-sulfate,50,50,0.9986141,-3.9385252
23387,52817,ferrous-sulfate,20,20,0.9985781,-0.07503831
23390,52816,ferrous-sulfate,20,20,0.99902046,-1.3455807
23400,52817,ferrous-sulfate,20,20,0.9999523,0.3664389
23402,52975,ferrous-sulfate,80,80,0.9999999,2.5959768
23403,51939,ferrous-sulfate,100,100,0.9885169,-2.2690115
23405,52981,ferrous-sulfate,80,80,0.9999976,1.1739671
23408,52953,ferrous-sulfate,50,50,0.99835926,-2.8708336
23413,51768,ferrous-sulfate,80,80,0.9999968,0.6643346
23419,52789,ethambutol,80,100,0.8769636,-2.9853365
23423,52780,ethambutol,100,50,0.9893215,-3.0211024
23427,52948,ferrous-sulfate,50,50,0.99999726,0.8639288
23428,52820,ferrous-sulfate,20,20,0.99997914,0.15977778
23429,52828,ferrous-sulfate,50,50,0.99807847,-1.2964866
23432,51768,ferrous-sulfate,80,80,0.99992347,-0.5488823
23436,51768,ferrous-sulfate,80,80,0.99996054,-0.20955986
23442,52948,ferrous-sulfate,50,50,0.9999995,2.420511
23450,52704,ethambutol,50,50,0.99763775,-1.5029198
23459,52782,ethambutol,100,100,0.93452513,-5.5379376
23465,52787,ethambutol,80,80,0.6742279,-3.134354
23468,52966,ferrous-sulfate,80,80,0.9994679,-2.3511648
23477,52782,ethambutol,100,100,0.93122417,-4.780398
23478,52737,ethambutol,50,50,0.9987766,0.5640349
23479,51933,ferrous-sulfate,100,80,0.5035666,-5.8364887
23488,52761,ethambutol,20,20,0.999694,1.3781432
23494,52953,ferrous-sulfate,50,50,0.99954516,-2.0371397
23496,52830,ferrous-sulfate,20,20,0.9999229,0.19807994
23497,52720,ethambutol,50,50,0.99999785,1.9956421
23508,52817,ferrous-sulfate,20,20,0.99997175,0.5126
23509,52795,ferrous-sulfate,20,20,0.57887644,-1.8414687
23514,52791,ethambutol,100,100,0.9978327,-2.9872625
23516,51933,ferrous-sulfate,100,100,0.67459893,-4.8033333
23519,52828,ferrous-sulfate,50,50,0.9989563,-0.95062757
23522,52757,ethambutol,20,20,0.99995637,3.4869254
23529,52971,ferrous-sulfate,80,80,0.98450387,-4.625367
23537,52966,ferrous-sulfate,80,80,0.99997604,-0.90295166
23539,51797,ferrous-sulfate,80,80,0.99994826,-0.10980012
23542,52729,ethambutol,50,50,0.996931,-0.60643363
23543,51807,ferrous-sulfate,100,100,0.9996866,-1.0804533
23544,52795,ferrous-sulfate,20,20,0.73389465,-1.9581602
23546,52957,ferrous-sulfate,50,50,0.9955782,-2.7849262
23548,52616,rifampicin,80,100,0.96825546,-5.6717925
23574,52172,rifampicin,100,100,0.93690205,-5.2505927
23577,55456,rifampicin,20,20,0.9994616,-3.4181566
23580,55448,rifampicin,80,50,0.9507525,-8.189228
23582,55154,rifampicin,20,20,0.9998888,-3.7113314
23597,52618,rifampicin,100,80,0.625421,-9.173368
23606,52595,rifampicin,50,50,0.99997234,-1.4585544
23607,52597,rifampicin,50,50,0.9842332,-5.9801517
23609,52156,rifampicin,80,80,0.99741215,-4.8905125
23610,52618,rifampicin,100,100,0.63556045,-7.2005353
23612,52611,rifampicin,80,50,0.644784,-6.380253
23621,55155,rifampicin,20,20,0.99998033,-1.7960364
23627,52172,rifampicin,100,100,0.51857436,-6.385289
23631,52173,rifampicin,100,100,0.9997781,-0.4820836
23640,52597,rifampicin,50,50,0.87539417,-7.370875
23642,55443,rifampicin,20,20,0.7433593,-5.651797
23643,52984,rifampicin,50,100,0.98299694,-6.0185986
23647,52286,rifampicin,80,80,0.94437176,-6.7310543
23649,55144,rifampicin,50,20,0.9781847,-5.649796
23651,52160,rifampicin,100,50,0.75109744,-5.511273
23656,52160,rifampicin,100,50,0.83542156,-6.1299367
23658,52985,rifampicin,50,100,0.99460536,-3.9819827
23665,52156,rifampicin,80,80,0.99273163,-5.91432
23669,52616,rifampicin,80,100,0.95776373,-6.6883655
23672,55457,rifampicin,20,20,0.99286336,-3.441956
23675,52985,rifampicin,50,100,0.9980124,-3.1199186
23676,55441,rifampicin,20,20,0.9047789,-3.9894805
23684,55461,rifampicin,20,20,0.99994206,-0.9444613
23685,52157,rifampicin,80,80,0.98996276,-5.456425
23688,51789,rifampicin,50,50,0.9957088,-5.154951
23696,55155,rifampicin,20,20,0.9999752,-1.7732466
23698,52612,rifampicin,80,100,0.9914957,-5.2144465
23704,52597,rifampicin,50,50,0.98761463,-5.851027
23710,52600,rifampicin,80,100,0.7890133,-9.116197
23714,51788,rifampicin,50,50,0.97171366,-6.0897164
23715,52611,rifampicin,80,50,0.58290535,-7.3287926
23722,52160,rifampicin,100,100,0.51919234,-4.7878013
23727,52990,rifampicin,100,100,0.9852937,-8.579607
23732,52616,rifampicin,80,100,0.5221994,-7.350624
23737,55462,rifampicin,20,20,0.9998989,-1.0551802
23740,52292,rifampicin,100,100,0.9999896,-4.5791306
23741,55456,rifampicin,20,20,0.99747074,-5.0689473
23745,55145,rifampicin,50,20,0.6122825,-4.8080106
23747,52616,rifampicin,80,100,0.6291041,-9.101257
23756,55457,rifampicin,20,20,0.99356186,-3.1588001
23759,52597,rifampicin,50,50,0.9934778,-5.582861
23761,51789,rifampicin,50,50,0.9980293,-4.886827
23763,55448,rifampicin,80,50,0.98005396,-6.96314
23768,55461,rifampicin,20,20,0.9997838,-1.6913306
23771,51788,rifampicin,50,50,0.9379095,-8.683362
23772,52990,rifampicin,100,100,0.9998987,-3.156177
23773,52172,rifampicin,100,100,0.8330598,-6.8765416
23775,52595,rifampicin,50,50,0.9998332,-1.8803462
23783,52286,rifampicin,80,80,0.97483635,-4.947956
23787,52612,rifampicin,80,100,0.99626935,-6.694965
23788,55448,rifampicin,80,50,0.7674095,-7.429602
23795,52985,rifampicin,50,100,0.9901911,-4.8351297
23796,52156,rifampicin,80,80,0.9959984,-4.7775664
23799,52990,rifampicin,100,100,0.9923264,-7.308578
23802,52595,rifampicin,50,50,0.99999845,-0.47552916
23807,52600,rifampicin,80,100,0.56318015,-11.733927
23809,52595,rifampicin,50,50,0.999572,-1.6494672
23824,52990,rifampicin,100,100,0.96961695,-8.809786
23831,55457,rifampicin,20,20,0.96179515,-3.2749104
23836,55144,rifampicin,50,20,0.9951172,-4.689728
23837,52173,rifampicin,100,100,0.99995863,-1.9385437
23839,55144,rifampicin,50,20,0.99880576,-2.6719537
23840,52294,rifampicin,100,100,0.91469747,-5.915556
23841,55448,rifampicin,80,50,0.984562,-7.247246
23846,55145,rifampicin,50,20,0.9221056,-4.334106
23850,52292,rifampicin,100,100,0.99999976,-1.7983387
23851,55443,rifampicin,20,50,0.55302644,-5.383679
23853,52286,rifampicin,80,80,0.9552195,-6.0144053
23854,55462,rifampicin,20,20,0.9998597,-1.5430344
23855,52984,rifampicin,50,100,0.9537765,-5.47087
23857,55462,rifampicin,20,20,0.99984205,-1.3266239
23859,52160,rifampicin,100,100,0.67933476,-5.0529118
23864,52984,rifampicin,50,100,0.973478,-5.5126886
23865,55461,rifampicin,20,20,0.9999082,-1.1903055
23876,55155,rifampicin,20,20,0.99999845,-0.2292101
23886,52618,rifampicin,100,100,0.6927173,-7.733576
23888,52294,rifampicin,100,100,0.9999225,0.13747641
23891,52156,rifampicin,80,80,0.99349,-6.0852723
23897,55154,rifampicin,20,20,0.9998915,-3.3433878
23899,55155,rifampicin,20,20,0.99999714,-0.92196655
23900,51789,rifampicin,50,50,0.9996364,-2.7192829
23901,55443,rifampicin,20,20,0.9811008,-4.651477
23902,52984,rifampicin,50,100,0.9382409,-5.494558
23905,52292,rifampicin,100,100,0.9999994,-2.3061392
23909,55441,rifampicin,20,20,0.5431763,-4.6396384
23910,52611,rifampicin,80,100,0.50534457,-9.328464
23914,55145,rifampicin,50,20,0.95172167,-3.970495
23915,52294,rifampicin,100,100,0.9929784,-3.4099052
23916,51789,rifampicin,50,50,0.9978734,-2.7630944
23922,52611,rifampicin,80,100,0.7609243,-8.241933
23935,52600,rifampicin,80,100,0.9925774,-9.1817255
23937,55441,rifampicin,20,50,0.5723496,-4.3681073
23938,52286,rifampicin,80,50,0.6385814,-6.8111625
23939,55443,rifampicin,20,20,0.69434905,-4.974662
23944,55457,rifampicin,20,20,0.9948967,-2.0685654
23949,52612,rifampicin,80,100,0.9841345,-5.8619075
23950,52294,rifampicin,100,100,0.99952424,-0.92187834
23957,55144,rifampicin,50,20,0.9979132,-3.1536868
23961,52600,rifampicin,80,100,0.9944872,-8.9629345
23962,52172,rifampicin,100,100,0.87653774,-4.827407
23963,52985,rifampicin,50,100,0.98128027,-5.0178733
23967,55456,rifampicin,20,20,0.99916303,-3.122443
23968,52292,rifampicin,100,100,0.999998,-2.8105521
23969,52157,rifampicin,80,80,0.9968309,-4.582535
23972,55456,rifampicin,20,20,0.9987134,-4.5958366
23982,52157,rifampicin,80,80,0.9924164,-6.148927
23988,55154,rifampicin,20,20,0.999772,-4.5868187
23990,52157,rifampicin,80,80,0.9702289,-6.8356757
23993,55462,rifampicin,20,20,0.9999763,-0.4266626
24010,55441,rifampicin,20,50,0.73698187,-5.008856
24015,52173,rifampicin,100,100,0.99858725,-2.053903
24019,55145,rifampicin,50,20,0.8448824,-4.855367
24020,55154,rifampicin,20,20,0.99992144,-3.0302503
24034,51788,rifampicin,50,50,0.9233186,-9.729745
24036,55461,rifampicin,20,20,0.99994195,-1.0170225
24037,52173,rifampicin,100,100,0.99946946,-0.34393376
24038,52618,rifampicin,100,100,0.9154256,-7.914623
24048,55110,pyrazinamide,100,100,0.9997514,0.6662101
24051,55513,pyrazinamide,50,100,0.44913694,-5.162913
24052,55297,pyrazinamide,20,20,0.9999554,0.76596975
24053,55301,pyrazinamide,20,20,0.99938166,1.0079821
24055,55249,pyrazinamide,100,100,0.9999988,3.541232
24058,55253,pyrazinamide,100,100,0.98132956,-1.5944488
24059,55114,pyrazinamide,100,100,0.85229397,-4.5967836
24064,55293,pyrazinamide,20,50,0.62605965,-4.33692
24075,55173,pyrazinamide,100,100,0.99959713,-0.10500703
24080,55253,pyrazinamide,100,100,0.98876417,-2.5630298
24081,55034,pyrazinamide,100,100,0.99980396,0.3596776
24082,55304,pyrazinamide,80,80,0.7556334,-5.1237664
24086,55304,pyrazinamide,80,80,0.6864214,-5.033124
24089,55136,pyrazinamide,20,20,0.63926834,-2.698647
24101,55137,pyrazinamide,20,20,0.98376966,-1.8615013
24121,55513,pyrazinamide,50,50,0.4507966,-4.647895
24125,55110,pyrazinamide,100,100,0.999456,-0.13968234
24132,55312,pyrazinamide,80,80,0.9330349,-6.5012684
24134,55284,pyrazinamide,80,100,0.99131984,-2.6961832
24143,55033,pyrazinamide,80,100,0.98778653,-1.757373
24144,55307,pyrazinamide,80,100,0.84607494,-4.5955286
24145,55289,pyrazinamide,50,50,0.9744512,-2.4015224
24152,55249,pyrazinamide,100,100,0.9999949,2.3756616
24159,55284,pyrazinamide,80,100,0.8386032,-3.9701056
24162,55111,pyrazinamide,100,100,0.9999796,0.2923607
24166,55281,pyrazinamide,20,50,0.64099747,-5.695486
24167,55513,pyrazinamide,50,100,0.49164367,-5.0511494
24173,55312,pyrazinamide,80,80,0.6149818,-6.4743443
24174,55111,pyrazinamide,100,100,0.9998349,-1.8498058
24180,55137,pyrazinamide,20,20,0.98509556,-2.0188243
24202,55286,pyrazinamide,50,100,0.9791358,-3.4769247
24208,55168,pyrazinamide,80,80,0.84970945,-4.305396
24213,55289,pyrazinamide,50,50,0.9110803,-2.5309777
24229,55297,pyrazinamide,20,20,0.9999645,0.6689674
24230,55297,pyrazinamide,20,20,0.9998971,0.9343614
24231,55168,pyrazinamide,80,80,0.7650262,-4.705629
24233,55114,pyrazinamide,100,100,0.99104416,-4.188684
24242,55168,pyrazinamide,80,80,0.8547864,-4.632662
24244,55286,pyrazinamide,50,100,0.9291528,-4.316003
24246,55293,pyrazinamide,20,20,0.5937897,-4.2775354
24247,55264,pyrazinamide,50,20,0.7690199,-3.6702776
24248,55307,pyrazinamide,80,100,0.9591252,-4.572275
24250,55304,pyrazinamide,80,80,0.5324356,-5.3707128
24259,55312,pyrazinamide,80,80,0.48206118,-10.081893
24260,55128,pyrazinamide,20,20,0.9920232,-1.8172753
24262,55280,pyrazinamide,50,50,0.6630841,-5.0056915
24263,55173,pyrazinamide,100,100,0.9982095,-2.0030591
24271,55281,pyrazinamide,20,20,0.5448192,-5.5460815
24275,55034,pyrazinamide,100,100,0.9998554,-0.53829926
24279,55025,pyrazinamide,80,80,0.5026935,-4.078179
24280,55280,pyrazinamide,50,50,0.9694458,-3.5628018
24282,55284,pyrazinamide,80,100,0.9598946,-3.4917648
24284,55517,pyrazinamide,50,50,0.97014815,-2.7659824
24285,55264,pyrazinamide,50,20,0.7779679,-4.0646553
24286,55173,pyrazinamide,100,100,0.99937004,-0.66503286
24287,55286,pyrazinamide,50,100,0.9953004,-3.2011404
24291,55034,pyrazinamide,100,100,0.9982703,-1.0587741
24292,55173,pyrazinamide,100,100,0.99929535,-1.3568074
24293,55312,pyrazinamide,80,80,0.93646884,-6.354956
24294,55264,pyrazinamide,50,20,0.73083675,-3.9972143
24295,55110,pyrazinamide,100,100,0.9998964,1.0271463
24303,55293,pyrazinamide,20,50,0.64900064,-4.1932425
24307,55281,pyrazinamide,20,20,0.58904827,-4.4036036
24309,55289,pyrazinamide,50,50,0.95571065,-2.5668328
24315,55301,pyrazinamide,20,20,0.99842846,-0.12465587
24319,55505,pyrazinamide,50,80,0.79942566,-4.4212556
24322,55505,pyrazinamide,50,80,0.7999514,-4.522594
24326,55136,pyrazinamide,20,20,0.62238204,-2.2878108
24327,55128,pyrazinamide,20,20,0.9674693,-2.5704715
24329,55505,pyrazinamide,50,80,0.5152469,-4.614362
24338,55286,pyrazinamide,50,100,0.99790347,-2.4868054
24339,55297,pyrazinamide,20,20,0.99995387,1.1918308
24355,55111,pyrazinamide,100,100,0.999076,-2.8922741
24363,55168,pyrazinamide,80,80,0.7419186,-5.213782
24367,55253,pyrazinamide,100,100,0.9998264,-0.2303223
24370,55301,pyrazinamide,20,20,0.9987312,-0.6998752
24384,55517,pyrazinamide,50,50,0.9796903,-2.785658
24385,55033,pyrazinamide,80,100,0.96368444,-3.3467796
24399,55280,pyrazinamide,50,50,0.65217465,-5.508213
24400,55517,pyrazinamide,50,50,0.99655235,-1.4435054
24411,55114,pyrazinamide,100,100,0.9858224,-3.9944465
24413,55033,pyrazinamide,80,100,0.9668947,-2.889902
24415,55307,pyrazinamide,80,100,0.94849485,-4.9462404
24417,55304,pyrazinamide,80,80,0.8378803,-4.979592
24423,55136,pyrazinamide,20,20,0.8379542,-2.2639103
24426,55249,pyrazinamide,100,100,0.9999999,4.672076
24427,55137,pyrazinamide,20,20,0.9762309,-2.4064548
24428,55137,pyrazinamide,20,20,0.9714612,-2.2539055
24429,55034,pyrazinamide,100,100,0.99845684,-1.0290464
24432,55284,pyrazinamide,80,100,0.9741184,-3.3275769
24437,55111,pyrazinamide,100,100,0.99995553,-0.37883022
24441,55128,pyrazinamide,20,20,0.9730338,-2.6373723
24442,55301,pyrazinamide,20,20,0.9994524,0.24019842
24443,55517,pyrazinamide,50,50,0.9711473,-1.7416508
24445,55033,pyrazinamide,80,100,0.9261648,-3.3967445
24449,55513,pyrazinamide,50,50,0.44438875,-5.002332
24462,55312,pyrazinamide,80,80,0.88935727,-6.870618
24464,55025,pyrazinamide,80,100,0.47614437,-4.309021
24466,55280,pyrazinamide,50,50,0.96961546,-3.2874377
24470,55249,pyrazinamide,100,100,0.9999962,1.926821
24473,55289,pyrazinamide,50,50,0.8929248,-3.3924654
24478,55253,pyrazinamide,100,100,0.9997069,-0.05086911
24479,55264,pyrazinamide,50,20,0.6970843,-3.7712998
24487,55293,pyrazinamide,20,50,0.40458754,-4.6017437
24492,55114,pyrazinamide,100,100,0.96884567,-2.8918726
24493,55307,pyrazinamide,80,100,0.97636163,-4.3484516
24494,55505,pyrazinamide,50,80,0.7445605,-5.1253896
24496,55281,pyrazinamide,20,50,0.66185045,-4.983451
24498,55110,pyrazinamide,100,100,0.9998442,0.093734466
24504,55136,pyrazinamide,20,20,0.6162434,-2.010082
24506,55128,pyrazinamide,20,20,0.8081162,-2.5456674
24507,55025,pyrazinamide,80,100,0.8417737,-3.3300471
24537,55229,azithromycin,100,100,0.99997234,-0.3930526
24538,55337,azithromycin,20,20,0.9998615,-0.1725572
24544,55225,azithromycin,100,100,0.9999981,1.7693796
24553,55486,azithromycin,100,100,0.99078697,-2.7825196
24554,55320,azithromycin,20,20,0.9532195,-2.7916512
24555,55333,azithromycin,20,20,0.989995,-1.1563128
24557,55229,azithromycin,100,100,0.99989367,-0.8371244
24560,55464,azithromycin,80,100,0.9764339,-6.24747
24563,55095,azithromycin,100,100,0.9999933,0.14580324
24568,55340,azithromycin,20,20,0.93545514,-5.2860303
24573,55402,azithromycin,50,20,0.5940686,-8.958872
24576,55409,azithromycin,50,50,0.90993214,-5.5228705
24578,55414,azithromycin,50,20,0.99267757,-4.704756
24584,55234,azithromycin,100,20,0.99912244,0.8037364
24587,55464,azithromycin,80,100,0.93460274,-5.6325917
24602,55477,azithromycin,80,100,0.6960059,-7.491508
24605,55477,azithromycin,80,100,0.67378134,-7.1130357
24606,55402,azithromycin,50,50,0.49251524,-8.926616
24615,55201,azithromycin,80,100,0.5700986,-5.220026
24618,55402,azithromycin,50,20,0.77337545,-8.154505
24619,55229,azithromycin,100,100,0.99998665,-0.5577965
24620,55333,azithromycin,20,20,0.98997575,-1.4109447
24626,55414,azithromycin,50,50,0.629278,-8.199055
24627,55368,azithromycin,20,20,0.9997447,-0.0045032133
24631,55225,azithromycin,100,100,0.9999567,1.5583292
24632,55333,azithromycin,20,20,0.9864036,-2.050511
24635,55203,azithromycin,100,100,0.9999988,0.73075855
24637,55272,azithromycin,50,50,0.53167087,-5.113852
24640,55197,azithromycin,80,100,0.9999367,0.70484465
24643,55361,promethazine-hydrochloride,20,20,0.9999064,-0.30599067
24664,55468,azithromycin,80,100,0.999539,-2.521724
24666,55335,azithromycin,20,20,0.99987864,-2.0181947
24669,55368,azithromycin,20,20,0.99994445,0.6793267
24670,55201,azithromycin,80,100,0.896947,-5.4307837
24672,55420,azithromycin,50,80,0.5691278,-6.6029186
24673,55320,azithromycin,20,20,0.9433884,-3.0974488
24677,55332,azithromycin,20,20,0.9311447,-3.3414378
24679,55337,azithromycin,20,20,0.9998344,0.06816414
24685,55473,azithromycin,50,50,0.9217349,-3.656433
24695,55056,azithromycin,80,80,0.99552983,-3.925798
24696,55473,azithromycin,50,50,0.9890209,-1.9239242
24703,55340,azithromycin,20,20,0.8828243,-5.6225257
24705,55414,azithromycin,50,20,0.85286397,-5.927802
24709,55198,azithromycin,80,100,0.9949721,-6.0815554
24717,55486,azithromycin,100,100,0.9835986,-4.9410243
24724,55361,promethazine-hydrochloride,20,20,0.9995322,-1.2981672
24726,55225,azithromycin,100,100,0.9999757,-0.77048415
24727,55468,azithromycin,80,100,0.9997775,-2.9585383
24733,55468,azithromycin,80,100,0.99831855,-2.4603376
24737,55420,azithromycin,50,20,0.72175574,-6.9741507
24742,55235,azithromycin,100,100,0.9999988,0.6562034
24743,55056,azithromycin,80,80,0.99024475,-3.4102051
24747,55063,azithromycin,100,100,0.9999367,0.3439579
24749,55401,azithromycin,50,80,0.7676576,-7.1434746
24752,55473,azithromycin,50,50,0.98766685,-3.4614923
24758,55095,azithromycin,100,100,0.9999794,0.71387106
24762,55272,azithromycin,50,100,0.95318246,-4.9079127
24763,55056,azithromycin,80,80,0.9772414,-3.7441244
24765,55401,azithromycin,50,100,0.7841996,-5.3772945
24769,55203,azithromycin,100,100,0.9999995,1.6098999
24771,55477,azithromycin,80,100,0.509337,-6.8394747
24773,55198,azithromycin,80,100,0.9979011,-4.899194
24775,55332,azithromycin,20,20,0.99548197,-2.8010073
24776,55095,azithromycin,100,100,0.99999917,0.5607078
24778,55198,azithromycin,80,100,0.9943816,-5.492498
24779,55401,azithromycin,50,100,0.5652163,-6.8375545
24782,55234,azithromycin,100,20,0.9997762,-0.2191709
24794,55409,azithromycin,50,50,0.98241526,-4.653388
24796,55335,azithromycin,20,20,0.99954504,-1.5373446
24798,55420,azithromycin,50,50,0.7041588,-6.63904
24800,55272,azithromycin,50,100,0.53186494,-7.5576773
24810,55486,azithromycin,100,100,0.91969985,-3.996501
24813,55197,azithromycin,80,100,0.99999475,1.7480134
24816,55235,azithromycin,100,100,0.9999987,1.063798
24819,55340,azithromycin,20,20,0.98766,-4.853178
24822,55361,promethazine-hydrochloride,20,20,0.9997235,-0.98336244
24825,55337,azithromycin,20,20,0.9999181,-0.52554494
24826,55095,azithromycin,100,100,0.99995315,0.4690414
24828,55063,azithromycin,100,100,0.92195725,-0.92884827
24836,55402,azithromycin,50,20,0.7461796,-7.908054
24837,55234,azithromycin,100,20,0.99909496,0.31182587
24838,55203,azithromycin,100,100,1.0,1.3571206
24839,55332,azithromycin,20,20,0.9332013,-3.6947618
24843,55063,azithromycin,100,100,0.76314574,-3.1437135
24846,55320,azithromycin,20,20,0.96051556,-2.3614771
24854,55409,azithromycin,50,50,0.9953335,-2.1339176
24862,55401,azithromycin,50,100,0.6374624,-7.6738653
24866,55337,azithromycin,20,20,0.99969053,-1.3685026
24867,55201,azithromycin,80,100,0.8555923,-4.328148
24868,55368,azithromycin,20,20,0.9951432,-2.0240383
24871,55234,azithromycin,100,20,0.9992465,1.0022098
24874,55361,promethazine-hydrochloride,20,20,0.999424,-0.8825333
24875,55340,azithromycin,20,20,0.97564495,-5.1069355
