pypi-data/pypi-mirror-362/packages/pad-analytics/pad_analytics-0.2.2.tar.gz/pad_analytics-0.2.2/data/final_results__nn-all.csv
id,sample_id,actual_class,actual_quantity,nn_pred_quantity,nn_pred_prob,nn_pred_energy,nn_pred_api,nn_pred_api_prob,nn_pred_api_energy
15229,53848,amoxicillin,100,100,0.9935127,-4.268341,Amoxicillin,0.99990153,16.626171
15233,53697,amoxicillin,100,100,0.99991214,-1.4937116,Amoxicillin,0.999782,15.910532
15236,53703,amoxicillin,100,100,0.99777466,-1.6154174,Amoxicillin,0.9968561,14.064292
15238,53703,amoxicillin,100,100,0.9982223,-2.1022923,Amoxicillin,0.9985043,14.516852
15253,53712,amoxicillin,80,80,0.87502944,-6.4623966,Amoxicillin,0.9998435,16.75993
15261,53713,amoxicillin,80,100,0.9630052,-5.884946,Amoxicillin,0.99903667,15.115502
15265,53697,amoxicillin,100,100,0.99979573,-2.5813653,Amoxicillin,0.99996436,16.797903
15266,53712,amoxicillin,80,100,0.54669887,-5.779896,Amoxicillin,0.9995142,16.062056
15268,53723,amoxicillin,80,100,0.9934947,-3.315073,Amoxicillin,0.99996424,16.915754
15278,53721,amoxicillin,100,80,0.9920121,-6.8561125,Amoxicillin,0.9996598,15.123513
15281,53848,amoxicillin,100,100,0.94518304,-4.9485126,Amoxicillin,0.9998628,16.78053
15285,53717,amoxicillin,80,100,0.9884763,-4.557873,Amoxicillin,0.99979824,16.373575
15286,53696,amoxicillin,100,100,0.67388386,-3.376264,Amoxicillin,0.99998343,17.421312
15287,53696,amoxicillin,100,100,0.83830065,-2.654062,Amoxicillin,0.99997556,16.972868
15289,53721,amoxicillin,100,100,0.70104396,-6.899526,Amoxicillin,0.99979573,15.201107
15292,53734,amoxicillin,80,100,0.9999101,-0.24040268,Amoxicillin,0.9999461,17.106968
15294,53723,amoxicillin,80,100,0.7940489,-6.0101523,Amoxicillin,0.9999902,16.7804
15297,53713,amoxicillin,80,100,0.64251333,-8.33906,Amoxicillin,0.99978715,15.838864
15302,53715,amoxicillin,80,100,0.97422326,-3.4868848,Amoxicillin,0.99992204,15.828933
15310,53742,amoxicillin,50,100,0.68163365,-6.745218,Amoxicillin,0.9998172,16.525236
15311,53742,amoxicillin,50,100,0.8627607,-6.824847,Amoxicillin,0.9998667,16.616766
15312,53740,amoxicillin,50,100,0.68713975,-5.4063582,Amoxicillin,0.99984515,16.18304
15315,53742,amoxicillin,50,100,0.9961934,-2.74524,Amoxicillin,0.99985766,16.216002
15316,53740,amoxicillin,50,100,0.9342062,-4.841436,Amoxicillin,0.99960095,15.737054
15320,53882,amoxicillin,50,100,0.9999895,-0.29410166,Amoxicillin,0.9999763,16.152916
15321,53737,amoxicillin,50,100,0.5496979,-7.457685,Amoxicillin,0.99656624,15.168895
15322,53738,amoxicillin,50,50,0.99998665,1.218709,Amoxicillin,0.99992883,16.581045
15326,53717,amoxicillin,80,100,0.968129,-4.578022,Amoxicillin,0.99988675,16.612585
15327,53450,amoxicillin,80,100,0.9462033,-4.9291725,Amoxicillin,0.99990976,16.396166
15328,53450,amoxicillin,80,100,0.99623823,-2.7504067,Amoxicillin,0.99971455,16.061974
15329,53450,amoxicillin,80,100,0.99536246,-3.133741,Amoxicillin,0.9998228,16.163914
15330,53450,amoxicillin,80,100,0.92168164,-5.6752596,Amoxicillin,0.99997354,16.062897
15336,53734,amoxicillin,80,100,0.9983277,-2.3224869,Amoxicillin,0.9999677,17.094196
15337,53715,amoxicillin,80,100,0.9950477,-3.348999,Amoxicillin,0.99997115,17.164555
15345,53697,amoxicillin,100,100,0.99983037,-3.7000532,Amoxicillin,0.99997663,15.65236
15348,53703,amoxicillin,100,100,0.9965947,-2.4851446,Amoxicillin,0.981062,12.592002
15349,53712,amoxicillin,80,80,0.9809027,-5.435024,Amoxicillin,0.99994135,16.6717
15352,53848,amoxicillin,100,100,0.9792229,-6.451685,Amoxicillin,0.99998856,17.330688
15357,53703,amoxicillin,100,100,0.9818302,-5.9515643,Amoxicillin,0.9985304,14.18174
15364,53696,amoxicillin,100,50,0.92682654,-4.3770823,Amoxicillin,0.9999893,16.84148
15373,53696,amoxicillin,100,50,0.97390276,-2.4640265,Amoxicillin,0.9999912,17.184368
15379,53697,amoxicillin,100,100,0.99981457,-3.729814,Amoxicillin,0.99998605,16.292524
15382,53848,amoxicillin,100,100,0.9438885,-7.078926,Amoxicillin,0.9999875,16.941645
15400,53882,amoxicillin,50,50,0.68608904,-6.700537,Amoxicillin,0.9999943,16.795597
15403,52553,amoxicillin,20,20,0.9871725,0.72337615,Amoxicillin,0.999979,15.228598
15405,52553,amoxicillin,20,20,0.975179,0.3378046,Amoxicillin,0.9999796,15.270394
15413,53890,amoxicillin,20,20,0.99516064,-4.315721,Amoxicillin,0.9997944,15.70446
15415,52552,amoxicillin,50,100,0.7961112,-5.393766,Amoxicillin,0.9999243,16.068039
15416,53877,amoxicillin,50,100,0.6745883,-5.8806686,Amoxicillin,0.9999931,17.364231
15425,53742,amoxicillin,50,50,0.8765695,-6.8051805,Amoxicillin,0.9999783,17.08674
15427,53737,amoxicillin,50,50,0.9854563,-5.375485,Amoxicillin,0.9993548,14.980843
15433,52552,amoxicillin,50,100,0.69145864,-6.339948,Amoxicillin,0.9998926,15.780573
15434,53877,amoxicillin,50,50,0.98689413,-3.0012465,Amoxicillin,0.9997788,15.260823
15441,53738,amoxicillin,50,50,0.99999356,1.4859642,Amoxicillin,0.99996793,16.339508
15447,53882,amoxicillin,50,100,0.56551236,-6.28638,Amoxicillin,0.9999552,15.669467
15450,53740,amoxicillin,50,50,0.9087026,-5.1704063,Amoxicillin,0.99998856,16.593433
15452,53738,amoxicillin,50,50,0.9999932,0.5996844,Amoxicillin,0.9999528,15.775206
15456,53456,amoxicillin,20,20,0.99950993,0.010413266,Amoxicillin,0.99994946,15.426506
15462,53458,amoxicillin,20,50,0.89662796,-3.1815896,Amoxicillin,0.99998295,16.027306
15463,53452,amoxicillin,20,20,0.99950516,1.7800456,Amoxicillin,0.9996288,13.760172
15464,53453,amoxicillin,20,20,0.99979,3.2773762,Amoxicillin,0.9999436,14.934087
15472,52553,amoxicillin,20,20,0.9974809,0.32599634,Amoxicillin,0.99998224,15.585968
15476,53890,amoxicillin,20,20,0.9982968,-4.1511555,Amoxicillin,0.9999275,16.051575
15482,53458,amoxicillin,20,50,0.98881793,-1.7137054,Amoxicillin,0.9999826,15.913501
15483,53452,amoxicillin,20,20,0.999972,2.089409,Amoxicillin,0.9997427,13.953114
15484,53453,amoxicillin,20,20,0.99598867,1.4677233,Amoxicillin,0.99995875,15.305657
15488,53461,amoxicillin,20,20,0.9998987,-1.0165895,Amoxicillin,0.9999422,15.606844
15493,53458,amoxicillin,20,50,0.9996233,-1.7735445,Amoxicillin,0.9999429,14.279411
15494,53452,amoxicillin,20,20,0.9999783,1.7512505,Amoxicillin,0.9987571,12.648653
15495,53453,amoxicillin,20,20,0.9864639,-1.0231252,Amoxicillin,0.999803,13.843188
15498,53453,amoxicillin,20,20,0.9957495,1.7062645,Amoxicillin,0.999637,13.560363
15499,53452,amoxicillin,20,20,0.99992883,2.473163,Amoxicillin,0.9972988,12.645669
15500,53458,amoxicillin,20,50,0.9978485,-2.0453103,Amoxicillin,0.9999335,14.838695
15506,53456,amoxicillin,20,20,0.9992021,-0.7755133,Amoxicillin,0.99997246,14.64426
15509,53461,amoxicillin,20,20,0.9997454,-1.815368,Amoxicillin,0.9996911,14.400489
15515,53461,amoxicillin,20,20,0.99860734,-5.0664363,Amoxicillin,0.9997433,14.11046
15517,53456,amoxicillin,20,20,0.99950397,-0.50926095,Amoxicillin,0.99997294,14.952984
15525,53873,chloroquine,100,100,1.0,1.0688798,Chloroquine,0.9957183,13.269885
15529,53874,chloroquine,100,100,0.9999999,3.1395285,Chloroquine,0.95270354,12.861184
15538,53851,chloroquine,100,100,0.9999945,-1.8177872,Chloroquine,0.9996213,15.183649
15544,53447,chloroquine,100,100,0.9997154,-2.9932806,Chloroquine,0.9955505,14.260725
15547,53447,chloroquine,100,100,0.99994576,-2.0581076,Chloroquine,0.9707236,12.58958
15563,53873,chloroquine,100,100,1.0,1.3877324,Chloroquine,0.9971365,13.857559
15564,53874,chloroquine,100,100,1.0,3.3250883,Chloroquine,0.7267145,11.964561
15565,53447,chloroquine,100,100,0.9999765,-2.0413065,Chloroquine,0.97829676,13.250202
15566,53851,chloroquine,100,100,0.9999994,-0.5089259,Chloroquine,0.99912316,14.644563
15570,53857,chloroquine,100,100,0.9997787,-1.3140353,Chloroquine,0.99989295,15.698151
15574,53868,chloroquine,100,100,0.720743,-9.282366,Chloroquine,0.9999198,16.3972
15578,53869,chloroquine,100,100,1.0,0.22558315,Chloroquine,0.9998481,15.697332
15579,53857,chloroquine,100,100,0.9990231,-2.7198808,Chloroquine,0.99980634,15.186648
15583,53869,chloroquine,100,100,0.9999999,-0.88913214,Chloroquine,0.9998841,15.786373
15584,53868,chloroquine,100,50,0.77792674,-8.778943,Chloroquine,0.9999676,17.136446
15588,53796,hydroxychloroquine,100,100,0.9999677,-0.8270559,Hydroxychloroquine,0.7823376,11.598758
15593,53796,hydroxychloroquine,100,100,0.9999999,2.0605052,Hydroxychloroquine,0.99584854,14.181713
15594,53786,hydroxychloroquine,100,100,0.99979585,-2.4680004,Hydroxychloroquine,0.9837051,13.629421
15596,53784,hydroxychloroquine,100,100,0.9998012,0.28602776,Hydroxychloroquine,0.9967244,14.421518
15598,53784,hydroxychloroquine,100,100,0.99830174,0.22319156,Hydroxychloroquine,0.9879743,13.532199
15600,53786,hydroxychloroquine,100,100,0.99998903,-0.5645078,Hydroxychloroquine,0.98327416,13.996492
15601,53796,hydroxychloroquine,100,100,0.99999976,1.5700305,Hydroxychloroquine,0.9836174,13.350675
15613,53771,hydroxychloroquine,100,100,0.95711243,-4.715906,Hydroxychloroquine,0.99920815,15.178239
15616,53783,hydroxychloroquine,100,100,0.99544466,-2.3978283,Hydroxychloroquine,0.99513346,14.686607
15619,53771,hydroxychloroquine,100,100,0.6595155,-5.2879195,Hydroxychloroquine,0.9974865,15.2096815
15622,53783,hydroxychloroquine,100,100,0.99976796,-1.2642757,Hydroxychloroquine,0.9897904,14.552489
15624,53788,hydroxychloroquine,100,100,0.9982425,-1.8766923,Hydroxychloroquine,0.9958098,14.59995
15626,53791,hydroxychloroquine,100,100,0.9996693,0.4414336,Hydroxychloroquine,0.994756,14.44848
15630,53771,hydroxychloroquine,100,100,0.8296462,-5.295364,Hydroxychloroquine,0.99805236,15.312207
15645,53899,hydroxychloroquine,80,80,0.9357912,-5.823573,Hydroxychloroquine,0.99937075,15.00368
15646,53814,hydroxychloroquine,80,100,0.9932594,-1.9324178,Hydroxychloroquine,0.99690264,13.976171
15649,53783,hydroxychloroquine,100,100,0.99998665,0.28823072,Hydroxychloroquine,0.98688936,14.410508
15650,53800,hydroxychloroquine,80,100,0.9361615,-4.007836,Hydroxychloroquine,0.99620616,14.674108
15652,53801,hydroxychloroquine,80,100,0.9898784,-3.3786159,Hydroxychloroquine,0.99785465,14.921228
15667,53464,hydroxychloroquine,80,100,0.89170766,-6.77647,Hydroxychloroquine,0.99941254,13.98027
15668,53807,hydroxychloroquine,80,100,0.9991379,-2.6032681,Hydroxychloroquine,0.99845624,14.961621
15671,53801,hydroxychloroquine,80,100,0.9375227,-4.355156,Hydroxychloroquine,0.995199,14.642122
15672,53464,hydroxychloroquine,80,100,0.9297967,-3.9800718,Hydroxychloroquine,0.9986192,14.655503
15673,53807,hydroxychloroquine,80,100,0.999526,-1.7477651,Hydroxychloroquine,0.9968368,15.085408
15683,53899,hydroxychloroquine,80,80,0.9944834,-4.5873585,Hydroxychloroquine,0.99863154,15.524988
15687,53771,hydroxychloroquine,100,100,0.99795854,-2.86656,Hydroxychloroquine,0.9978174,15.147263
15688,53788,hydroxychloroquine,100,100,0.99999,0.13552529,Hydroxychloroquine,0.9852329,13.648615
15696,53814,hydroxychloroquine,80,100,0.99859613,-0.8264583,Hydroxychloroquine,0.99257374,13.700746
15702,53791,hydroxychloroquine,100,100,0.9999877,1.2581047,Hydroxychloroquine,0.9976259,14.379501
15706,53791,hydroxychloroquine,100,100,0.99999785,2.4248612,Hydroxychloroquine,0.9961636,14.776178
15712,53800,hydroxychloroquine,80,100,0.99992347,-0.21936761,Hydroxychloroquine,0.95998025,13.373326
15717,53814,hydroxychloroquine,80,100,0.99106807,-2.7338362,Hydroxychloroquine,0.9924856,13.921723
15726,53807,hydroxychloroquine,80,100,0.99980885,-1.2898856,Hydroxychloroquine,0.9911889,13.599804
15741,53771,hydroxychloroquine,100,100,0.92589086,-4.268623,Hydroxychloroquine,0.9964825,14.609451
15743,53814,hydroxychloroquine,80,100,0.8439852,-2.9372993,Hydroxychloroquine,0.9950624,14.094587
15744,53899,hydroxychloroquine,80,50,0.58763456,-5.4908967,Hydroxychloroquine,0.99916244,15.292346
15753,53783,hydroxychloroquine,100,100,0.9999962,0.3146711,Hydroxychloroquine,0.9819703,14.092025
15768,53464,hydroxychloroquine,80,100,0.9259632,-4.403698,Hydroxychloroquine,0.95717317,12.492459
15777,53791,hydroxychloroquine,100,100,0.99985373,0.9538194,Hydroxychloroquine,0.99548244,14.352581
15779,53899,hydroxychloroquine,80,80,0.94896364,-5.3529677,Hydroxychloroquine,0.9991541,15.430846
15780,53788,hydroxychloroquine,100,100,0.99940455,-1.0452733,Hydroxychloroquine,0.9931015,14.631322
15786,53771,hydroxychloroquine,100,100,0.9523995,-4.397613,Hydroxychloroquine,0.9986784,15.30047
15791,53788,hydroxychloroquine,100,100,0.9994342,-1.0052761,Hydroxychloroquine,0.9958995,14.689838
15793,53783,hydroxychloroquine,100,100,0.99950373,-2.1420798,Hydroxychloroquine,0.9887989,14.529828
15815,52571,hydroxychloroquine,50,50,0.99998915,2.078846,Hydroxychloroquine,0.99940836,14.654839
15817,52565,hydroxychloroquine,50,50,0.99999225,0.0054234103,Hydroxychloroquine,0.9993005,14.291128
15818,52565,hydroxychloroquine,50,50,0.999997,1.4670912,Hydroxychloroquine,0.999321,14.1747055
15823,52571,hydroxychloroquine,50,50,0.99988616,1.2305179,Hydroxychloroquine,0.9995129,14.211708
15829,52565,hydroxychloroquine,50,50,0.9999838,-1.4155984,Hydroxychloroquine,0.99953187,14.062385
15832,52571,hydroxychloroquine,50,50,0.99986255,1.9351188,Hydroxychloroquine,0.999574,14.525703
15836,53021,hydroxychloroquine,50,50,0.86401933,-4.938193,Hydroxychloroquine,0.9996068,14.5850315
15839,52565,hydroxychloroquine,50,50,0.99996614,0.012813346,Hydroxychloroquine,0.9990633,13.8500805
15842,53021,hydroxychloroquine,50,50,0.90031445,-2.9167128,Hydroxychloroquine,0.9992724,14.67622
15863,53016,hydroxychloroquine,50,50,0.99465925,-1.7494711,Hydroxychloroquine,0.99902415,15.202845
15864,51712,hydroxychloroquine,50,50,0.9951344,-0.50974596,Hydroxychloroquine,0.99917835,14.128185
15867,52565,hydroxychloroquine,50,50,0.9999901,-0.7997742,Hydroxychloroquine,0.9995586,14.471027
15869,52571,hydroxychloroquine,50,50,0.999967,1.6290272,Hydroxychloroquine,0.9994043,14.300128
15872,52567,hydroxychloroquine,50,50,0.9963224,-0.83578455,Hydroxychloroquine,0.99797696,13.791296
15873,53021,hydroxychloroquine,50,50,0.9995759,-2.713841,Hydroxychloroquine,0.99948823,14.857319
15874,52564,hydroxychloroquine,50,50,0.86919427,-4.0177894,Hydroxychloroquine,0.9989813,13.5137615
15885,52564,hydroxychloroquine,50,50,0.9992268,-2.981198,Hydroxychloroquine,0.99960226,14.264872
15889,52567,hydroxychloroquine,50,50,0.99774075,-2.4535477,Hydroxychloroquine,0.9993999,14.909412
15903,51712,hydroxychloroquine,50,50,0.9975846,-2.0440412,Hydroxychloroquine,0.99948263,13.862981
15904,53016,hydroxychloroquine,50,50,0.9906413,-4.289123,Hydroxychloroquine,0.9995944,15.15342
15905,53021,hydroxychloroquine,50,50,0.9999596,-1.0649136,Hydroxychloroquine,0.99891925,14.887558
15906,52571,hydroxychloroquine,50,50,0.99999774,2.1875372,Hydroxychloroquine,0.99919814,14.077769
15907,52565,hydroxychloroquine,50,50,0.9999312,-1.5626469,Hydroxychloroquine,0.99953747,14.661712
15911,52564,hydroxychloroquine,50,50,0.999561,-3.3436966,Hydroxychloroquine,0.999445,14.688975
15912,52567,hydroxychloroquine,50,50,0.9824287,-4.702253,Hydroxychloroquine,0.99853206,14.899008
15916,53016,hydroxychloroquine,50,50,0.57597995,-6.821961,Hydroxychloroquine,0.9990415,15.222167
15919,51712,hydroxychloroquine,50,50,0.9873975,-3.7781034,Hydroxychloroquine,0.9991258,14.292202
15923,52564,hydroxychloroquine,50,50,0.999084,-3.608368,Hydroxychloroquine,0.9992828,14.40203
15924,52567,hydroxychloroquine,50,50,0.9879682,-3.8730037,Hydroxychloroquine,0.99860424,14.913487
15927,51712,hydroxychloroquine,50,50,0.9965647,-1.9808542,Hydroxychloroquine,0.9982003,13.9603
15928,53016,hydroxychloroquine,50,50,0.922936,-5.911451,Hydroxychloroquine,0.999166,15.190401
15929,51734,hydroxychloroquine,20,20,0.99998176,2.6663716,Hydroxychloroquine,0.9994306,14.107685
15938,51731,hydroxychloroquine,20,20,0.9964495,0.77837116,Hydroxychloroquine,0.99903655,14.472889
15939,51728,hydroxychloroquine,20,20,0.9966312,-1.003079,Hydroxychloroquine,0.9991855,13.830066
15940,51729,hydroxychloroquine,20,50,0.99949026,-1.802904,Hydroxychloroquine,0.99823135,15.154352
15956,53001,hydroxychloroquine,20,20,0.9999808,3.3429317,Hydroxychloroquine,0.9994012,14.040434
15958,53006,hydroxychloroquine,20,20,0.99979,3.0410607,Hydroxychloroquine,0.99894434,13.471374
15959,51720,hydroxychloroquine,20,20,0.99708647,-0.07099531,Hydroxychloroquine,0.9995578,13.112929
15972,51720,hydroxychloroquine,20,20,0.998002,1.3369284,Hydroxychloroquine,0.99855834,12.53785
15981,51731,hydroxychloroquine,20,20,0.99901366,-0.7176914,Hydroxychloroquine,0.9993498,14.295646
15982,51728,hydroxychloroquine,20,20,0.999985,-0.34709558,Hydroxychloroquine,0.9983188,13.241782
15983,51729,hydroxychloroquine,20,50,0.9961932,-5.0404882,Hydroxychloroquine,0.9987936,14.493569
15985,53001,hydroxychloroquine,20,20,0.99999416,2.3328044,Hydroxychloroquine,0.999113,14.184355
15991,51734,hydroxychloroquine,20,20,0.99967074,-2.567361,Hydroxychloroquine,0.9991242,14.456856
16003,53672,promethazine-hydrochloride,100,100,0.9993794,-1.6478704,Promethazine-Hydrochloride,0.99443144,13.593292
16007,51732,promethazine-hydrochloride,100,100,0.9973929,-4.6106553,Promethazine-Hydrochloride,0.96121454,13.165678
16014,53675,promethazine-hydrochloride,100,100,0.99999905,2.698303,Promethazine-Hydrochloride,0.9952531,12.903646
16015,53014,promethazine-hydrochloride,100,100,0.9238297,-1.2962172,Promethazine-Hydrochloride,0.99808526,14.0826
16016,53010,promethazine-hydrochloride,100,50,0.87902796,-8.824169,Promethazine-Hydrochloride,0.8588117,10.714654
16024,53672,promethazine-hydrochloride,100,100,0.9663793,-3.317478,Promethazine-Hydrochloride,0.9880751,13.400665
16030,51732,promethazine-hydrochloride,100,100,0.9998765,-0.15016495,Promethazine-Hydrochloride,0.99960965,14.858465
16037,53675,promethazine-hydrochloride,100,100,0.9999949,1.066375,Promethazine-Hydrochloride,0.971001,12.516952
16039,53014,promethazine-hydrochloride,100,100,0.69851714,-2.1283975,Promethazine-Hydrochloride,0.9834842,13.5415
16040,53010,promethazine-hydrochloride,100,50,0.7219522,-9.220386,Promethazine-Hydrochloride,0.7607169,10.685974
16047,51743,promethazine-hydrochloride,100,100,0.84153324,-0.7462786,Promethazine-Hydrochloride,0.9969807,13.665634
16051,51743,promethazine-hydrochloride,100,100,0.9630899,-0.035282042,Promethazine-Hydrochloride,0.9980653,13.900996
16052,52993,promethazine-hydrochloride,80,50,0.897116,-3.633352,Promethazine-Hydrochloride,0.99886584,13.784577
16054,51704,promethazine-hydrochloride,80,80,0.9998123,1.5522974,Promethazine-Hydrochloride,0.91626334,11.016312
16055,52993,promethazine-hydrochloride,80,50,0.9001448,-3.1843586,Promethazine-Hydrochloride,0.99675983,13.742333
16057,53680,promethazine-hydrochloride,80,50,0.5721465,-5.2275825,Promethazine-Hydrochloride,0.9994363,14.671883
16069,51704,promethazine-hydrochloride,80,80,0.99952686,0.6694674,Promethazine-Hydrochloride,0.8468189,10.368818
16074,51714,promethazine-hydrochloride,80,100,0.7992427,-4.8860474,Promethazine-Hydrochloride,0.9994892,15.004329
16075,53680,promethazine-hydrochloride,80,50,0.49327907,-4.854116,Promethazine-Hydrochloride,0.99825484,14.36868
16089,52576,promethazine-hydrochloride,80,50,0.6325683,-5.529751,Promethazine-Hydrochloride,0.99690175,13.18799
16092,51715,promethazine-hydrochloride,80,100,0.8838786,-4.073364,Promethazine-Hydrochloride,0.999757,15.554278
16093,51719,promethazine-hydrochloride,80,80,0.94377464,-3.8789697,Promethazine-Hydrochloride,0.99983454,15.265636
16094,53026,promethazine-hydrochloride,50,50,0.9971059,-1.7976,Promethazine-Hydrochloride,0.99987924,15.77164
16098,52568,promethazine-hydrochloride,50,50,0.8825712,-3.37869,Promethazine-Hydrochloride,0.99957556,15.084605
16105,53530,promethazine-hydrochloride,50,80,0.47362107,-5.0583467,Promethazine-Hydrochloride,0.9998815,15.267281
16107,53031,promethazine-hydrochloride,50,80,0.6159579,-5.2120113,Promethazine-Hydrochloride,0.99948126,14.611838
16111,53024,promethazine-hydrochloride,50,50,0.93075097,-2.4567983,Promethazine-Hydrochloride,0.9946286,13.077718
16112,52583,promethazine-hydrochloride,50,80,0.475202,-4.1777864,Promethazine-Hydrochloride,0.9529332,11.306019
16113,53028,promethazine-hydrochloride,50,50,0.8140883,-6.2511315,Promethazine-Hydrochloride,0.9974216,13.3537655
16119,53031,promethazine-hydrochloride,50,80,0.5923154,-4.278409,Promethazine-Hydrochloride,0.9998306,15.140189
16122,53024,promethazine-hydrochloride,50,100,0.6435335,-3.5381885,Promethazine-Hydrochloride,0.99479204,13.967414
16123,52583,promethazine-hydrochloride,50,80,0.7029804,-2.8723512,Promethazine-Hydrochloride,0.93867844,12.365917
16124,53028,promethazine-hydrochloride,50,50,0.88165593,-5.1544976,Promethazine-Hydrochloride,0.9953484,13.896956
16127,53026,promethazine-hydrochloride,50,50,0.9989692,-0.74100626,Promethazine-Hydrochloride,0.9998142,16.16023
16135,53530,promethazine-hydrochloride,50,50,0.92247665,-4.3023715,Promethazine-Hydrochloride,0.999642,14.956508
16138,52568,promethazine-hydrochloride,50,50,0.9995291,-1.4874856,Promethazine-Hydrochloride,0.9996094,14.902065
16143,53031,promethazine-hydrochloride,50,50,0.99654585,-1.2727504,Promethazine-Hydrochloride,0.9995647,15.003288
16147,53024,promethazine-hydrochloride,50,100,0.55528015,-4.3543363,Promethazine-Hydrochloride,0.9749758,13.040692
16148,52583,promethazine-hydrochloride,50,50,0.86648846,-1.8166785,Promethazine-Hydrochloride,0.76051396,11.773814
16149,53028,promethazine-hydrochloride,50,50,0.8054264,-5.825788,Promethazine-Hydrochloride,0.93621874,12.640864
16151,53026,promethazine-hydrochloride,50,50,0.99044853,-2.5339758,Promethazine-Hydrochloride,0.9994867,15.536075
16159,53530,promethazine-hydrochloride,50,50,0.93864566,-2.846285,Promethazine-Hydrochloride,0.99805605,14.612772
16164,53572,promethazine-hydrochloride,20,20,0.9351228,-3.162769,Promethazine-Hydrochloride,0.99831665,13.236452
16167,53559,promethazine-hydrochloride,20,20,0.9996828,-2.427579,Promethazine-Hydrochloride,0.99900925,14.164094
16172,53495,promethazine-hydrochloride,20,20,0.99997115,1.1443256,Promethazine-Hydrochloride,0.99922705,14.191663
16175,53535,promethazine-hydrochloride,20,20,0.90848607,-5.0903277,Promethazine-Hydrochloride,0.99924195,14.725761
16180,53557,promethazine-hydrochloride,20,20,0.9927267,-2.2882338,Promethazine-Hydrochloride,0.99334127,13.464387
16182,53557,promethazine-hydrochloride,20,20,0.88034254,-2.678282,Promethazine-Hydrochloride,0.9876435,13.017518
16184,53572,promethazine-hydrochloride,20,50,0.6394896,-4.623745,Promethazine-Hydrochloride,0.9967685,13.251854
16187,53559,promethazine-hydrochloride,20,20,0.99987805,-1.2604828,Promethazine-Hydrochloride,0.99888843,14.190213
16192,53495,promethazine-hydrochloride,20,20,0.9999646,1.203919,Promethazine-Hydrochloride,0.9979298,13.958434
16195,53535,promethazine-hydrochloride,20,20,0.93086004,-5.76018,Promethazine-Hydrochloride,0.99922454,14.835444
16198,53534,promethazine-hydrochloride,20,20,0.8031178,-4.9153767,Promethazine-Hydrochloride,0.9998228,15.887678
16204,53534,promethazine-hydrochloride,20,50,0.7469479,-5.0837665,Promethazine-Hydrochloride,0.9996569,15.623514
16211,53026,promethazine-hydrochloride,50,50,0.99979335,0.28852054,Promethazine-Hydrochloride,0.9998684,16.194231
16215,53028,promethazine-hydrochloride,50,50,0.9709807,-4.3429604,Promethazine-Hydrochloride,0.9923177,13.610918
16220,53031,promethazine-hydrochloride,50,50,0.9942906,-2.364421,Promethazine-Hydrochloride,0.999856,15.535232
16222,53024,promethazine-hydrochloride,50,100,0.869835,-3.6239154,Promethazine-Hydrochloride,0.9971808,13.949259
16223,52568,promethazine-hydrochloride,50,50,0.99595547,-2.299797,Promethazine-Hydrochloride,0.9998863,15.582967
16224,52568,promethazine-hydrochloride,50,50,0.9992803,-1.2843578,Promethazine-Hydrochloride,0.99983835,15.615706
16227,52583,promethazine-hydrochloride,50,50,0.9318361,-3.097839,Promethazine-Hydrochloride,0.96663284,12.64477
16236,53650,ampicillin,100,100,0.99774855,-4.313547,Ampicillin,0.9998809,14.940499
16237,53649,ampicillin,100,100,0.99727243,-2.652888,Ampicillin,0.9999325,15.392444
16245,53649,ampicillin,100,100,0.99469995,-3.0484593,Ampicillin,0.99989367,15.346518
16246,53650,ampicillin,100,100,0.99773955,-4.347578,Ampicillin,0.9994111,14.4926605
16252,53657,ampicillin,100,100,0.9995925,-1.9502001,Ampicillin,0.9998337,15.428262
16259,53657,ampicillin,100,100,0.99999106,-0.082521304,Ampicillin,0.9997763,15.150368
16265,53659,ampicillin,100,20,0.5559819,-4.3891325,Ampicillin,0.9998952,15.075773
16271,53660,ampicillin,100,100,0.9991726,-0.32956088,Ampicillin,0.9999484,15.698928
16275,53567,ampicillin,100,100,0.999448,-0.75820404,Ampicillin,0.9986773,14.526271
16277,53660,ampicillin,100,100,0.9997292,0.6738152,Ampicillin,0.9999229,15.436226
16281,53567,ampicillin,100,100,0.9990728,-0.64279443,Ampicillin,0.99892324,14.323026
16283,53644,ampicillin,100,100,0.9999465,-0.90040565,Ampicillin,0.9997234,14.9856205
16285,53644,ampicillin,100,100,0.9999323,-1.7541511,Ampicillin,0.99987173,15.026149
16289,53601,ampicillin,100,100,0.9999682,-0.12490855,Ampicillin,0.9982917,13.460693
16292,53664,ampicillin,100,100,0.99394,-3.7976925,Ampicillin,0.99957377,14.674035
16294,53601,ampicillin,100,100,0.99999857,0.8989791,Ampicillin,0.9986702,13.833162
16302,53637,ampicillin,80,80,0.9877681,-5.8593683,Ampicillin,0.99994814,15.999581
16303,53670,ampicillin,100,100,0.97733206,-3.8501787,Ampicillin,0.9999386,15.022596
16309,53670,ampicillin,100,100,0.9291036,-5.159874,Ampicillin,0.99986184,14.196037
16314,53501,ampicillin,80,100,0.9597295,-5.136618,Ampicillin,0.9999449,15.33222
16315,53472,ampicillin,80,80,0.999481,-1.6805478,Ampicillin,0.9861838,10.678757
16318,53637,ampicillin,80,80,0.91780645,-6.274667,Ampicillin,0.9999776,16.20204
16319,53633,ampicillin,80,80,0.69488215,-7.27409,Ampicillin,0.99996924,15.729166
16324,53633,ampicillin,80,80,0.99156255,-4.528348,Ampicillin,0.9999063,15.304642
16330,53582,ampicillin,80,100,0.8228408,-6.6716394,Ampicillin,0.999574,14.058676
16351,53582,ampicillin,80,100,0.95115274,-6.2909646,Ampicillin,0.999723,14.49376
16355,53502,ampicillin,80,100,0.9846178,-5.0351377,Ampicillin,0.9998416,15.5679
16359,53502,ampicillin,80,100,0.49225298,-7.4505515,Ampicillin,0.9999175,15.53526
16370,53584,ampicillin,50,100,0.8876472,-4.177991,Ampicillin,0.9994649,13.823263
16380,53584,ampicillin,50,100,0.97869897,-2.5909693,Ampicillin,0.99967,13.97413
16385,53578,ampicillin,50,50,0.6344803,-5.28537,Ampicillin,0.97396004,10.161613
16389,53578,ampicillin,50,100,0.48872876,-4.6172857,Ampicillin,0.9997582,13.910336
16390,53490,ampicillin,50,20,0.6931679,-6.3582983,Ampicillin,0.99965477,13.397255
16404,53489,ampicillin,50,20,0.97816944,-5.2077017,Ampicillin,0.9971511,12.40809
16407,53513,ampicillin,50,20,0.9431373,-3.6799898,Ampicillin,0.99331516,12.147787
16408,53518,ampicillin,50,50,0.4722005,-6.0602612,Ampicillin,0.95587915,10.87364
16414,53578,ampicillin,50,100,0.60435635,-4.179839,Ampicillin,0.99979395,14.0349
16420,53513,ampicillin,50,50,0.6283952,-4.5288725,Ampicillin,0.9913483,11.644274
16421,53518,ampicillin,50,50,0.6846543,-6.2232656,Ampicillin,0.99026465,12.22516
16434,53562,ampicillin,20,20,0.9930616,-3.199799,Ampicillin,0.91057307,9.926706
16447,53512,ampicillin,20,20,0.9975057,-1.8312883,Ampicillin,0.99651045,12.237047
16454,53553,ampicillin,20,20,0.989604,-0.8558539,Ampicillin,0.9622708,9.834441
16455,53543,ampicillin,20,20,0.99999046,1.707023,Ampicillin,0.99838877,12.5039215
16456,53623,ampicillin,20,20,0.9999511,0.70735097,Ampicillin,0.9999248,15.017504
16462,53550,ampicillin,20,20,0.98900014,-4.6787987,Ampicillin,0.9824745,10.578317
16465,53553,ampicillin,20,20,0.9760418,-1.8366965,Ampicillin,0.89550364,9.14497
16466,53543,ampicillin,20,20,0.9999889,1.6923143,Ampicillin,0.9988772,12.426172
16467,53623,ampicillin,20,20,0.99997807,0.12816238,Ampicillin,0.99983513,14.38192
16468,53548,ampicillin,20,20,0.9999666,0.43731263,Ampicillin,0.9997136,14.201246
16473,53548,ampicillin,20,20,0.99995327,-0.34363508,Ampicillin,0.99933654,13.78194
16483,53550,ampicillin,20,20,0.99049616,-3.6714787,Ampicillin,0.9991697,12.959213
16491,53424,albendazole,100,100,0.9963343,-7.460234,Albendazole,0.99980515,16.477781
16492,53355,albendazole,100,50,0.4961637,-7.206335,Albendazole,0.99889225,14.866248
16493,53429,albendazole,100,80,0.99903935,-1.0943118,Albendazole,0.9998617,16.052729
16497,53355,albendazole,100,50,0.6005976,-6.907347,Albendazole,0.9997359,15.709762
16498,53429,albendazole,100,80,0.975774,-3.9050586,Albendazole,0.999808,15.771808
16504,53353,albendazole,100,100,0.6430224,-6.4953833,Albendazole,0.99971145,15.285161
16506,53328,albendazole,100,80,0.619179,-7.9583945,Albendazole,0.99975353,15.91833
16514,53329,albendazole,100,100,0.9317483,-4.4716783,Albendazole,0.9999026,17.269861
16515,53425,albendazole,100,100,0.95287323,-6.2398195,Albendazole,0.9995722,15.674649
16519,53353,albendazole,100,100,0.98342854,-4.3390126,Albendazole,0.9994821,14.269687
16530,53328,albendazole,100,80,0.9496323,-5.5607023,Albendazole,0.9993567,15.135154
16536,53329,albendazole,100,100,0.8654592,-5.642353,Albendazole,0.99978715,16.380623
16538,53430,albendazole,100,80,0.99823785,-5.0428348,Albendazole,0.9975545,15.411113
16541,53422,albendazole,80,20,0.9481915,-4.4672384,Albendazole,0.99491477,13.577479
16546,53422,albendazole,80,50,0.5362236,-6.0178604,Albendazole,0.9881755,14.121147
16554,53316,albendazole,80,80,0.99709356,-4.6644206,Albendazole,0.99077106,14.433523
16555,53316,albendazole,80,80,0.96050733,-7.366345,Albendazole,0.9598792,14.473001
16558,53406,albendazole,80,80,0.82532305,-7.114787,Albendazole,0.993458,14.993571
16567,53324,albendazole,80,80,0.9435547,-4.273292,Albendazole,0.99832636,16.188114
16571,53335,albendazole,80,80,0.5142982,-5.769986,Albendazole,0.99413955,15.311731
16572,53325,albendazole,80,80,0.9999958,-0.33928752,Albendazole,0.9996377,16.742313
16574,53327,albendazole,80,100,0.9803073,-9.181073,Albendazole,0.98510575,14.694631
16577,53316,albendazole,80,80,0.9951624,-5.6386247,Albendazole,0.9847751,14.809112
16579,53406,albendazole,80,80,0.83886653,-5.116609,Albendazole,0.9978054,15.799571
16581,53406,albendazole,80,80,0.9900433,-3.0582037,Albendazole,0.99867505,15.591695
16583,53324,albendazole,80,80,0.95936084,-4.5572987,Albendazole,0.9955323,15.55149
16588,53325,albendazole,80,80,0.999997,1.1403009,Albendazole,0.9990953,15.861928
16594,53335,albendazole,80,100,0.44286117,-5.033039,Albendazole,0.99080807,14.472734
16595,53327,albendazole,80,100,0.9274906,-8.423869,Albendazole,0.98987764,14.812061
16596,53324,albendazole,80,80,0.9721925,-4.338416,Albendazole,0.99206597,14.999595
16601,53312,albendazole,50,80,0.34374112,-5.848707,Albendazole,0.9998659,16.168055
16604,53414,albendazole,50,80,0.85711396,-6.386681,Albendazole,0.9971219,15.34084
16605,53304,albendazole,50,80,0.9904648,-3.207042,Albendazole,0.9997899,16.031643
16606,53313,albendazole,50,50,0.6529216,-5.8719854,Albendazole,0.9985208,15.648696
16608,53312,albendazole,50,80,0.8636462,-5.3576365,Albendazole,0.9998609,16.254759
16615,53315,albendazole,50,80,0.8883439,-5.2427297,Albendazole,0.99984694,16.034466
16616,53393,albendazole,50,80,0.7280118,-4.0358577,Albendazole,0.9993674,14.233807
16623,53396,albendazole,50,80,0.97482854,-4.111583,Albendazole,0.9941122,13.206633
16627,53393,albendazole,50,50,0.5815633,-5.319467,Albendazole,0.9996364,14.881214
16629,53313,albendazole,50,100,0.6456798,-5.753553,Albendazole,0.9984541,15.075553
16630,53414,albendazole,50,80,0.9849658,-5.706297,Albendazole,0.9943553,14.825997
16631,53304,albendazole,50,80,0.9992111,-1.2760017,Albendazole,0.99978524,15.977379
16632,53304,albendazole,50,80,0.9981117,-1.8983793,Albendazole,0.99960667,15.4851465
16647,53315,albendazole,50,80,0.92687553,-4.822395,Albendazole,0.9990489,14.328629
16648,53396,albendazole,50,80,0.7872824,-6.0608926,Albendazole,0.822207,11.115906
16650,53049,ciprofloxacin,100,100,0.9999509,-2.300253,Ciprofloxacin,0.97836167,11.672818
16657,53049,ciprofloxacin,100,100,0.999863,-1.9492106,Ciprofloxacin,0.98118925,12.2220545
16659,53040,ciprofloxacin,100,100,0.99914086,-3.5536609,Ciprofloxacin,0.9997341,13.367624
16665,53053,ciprofloxacin,100,100,0.99999976,1.688299,Ciprofloxacin,0.99975854,13.835683
16669,53040,ciprofloxacin,100,100,0.9994419,-3.5103414,Ciprofloxacin,0.9997912,13.607332
16670,53048,ciprofloxacin,100,100,0.7050448,-7.707079,Ciprofloxacin,0.9994398,13.040084
16673,53053,ciprofloxacin,100,100,0.9999994,1.348851,Ciprofloxacin,0.99979883,13.853147
16678,53145,ciprofloxacin,100,100,0.99990284,-2.5912037,Ciprofloxacin,0.99930155,13.047946
16680,53048,ciprofloxacin,100,100,0.9211135,-6.71322,Ciprofloxacin,0.999803,13.797602
16683,53151,ciprofloxacin,100,100,0.999941,-2.9417703,Ciprofloxacin,0.9989202,13.627034
16685,53150,ciprofloxacin,100,100,0.9833076,-5.434699,Ciprofloxacin,0.99434656,11.99038
16686,53234,ciprofloxacin,100,80,0.97840524,-4.3117437,Ciprofloxacin,0.708007,8.301688
16692,53145,ciprofloxacin,100,100,0.9999529,-1.4123403,Ciprofloxacin,0.9997962,13.77462
16696,53151,ciprofloxacin,100,100,0.99991584,-2.828429,Ciprofloxacin,0.99918133,13.686568
16698,53150,ciprofloxacin,100,100,0.99407697,-3.761894,Ciprofloxacin,0.99657106,12.158751
16702,53234,ciprofloxacin,100,80,0.9862266,-3.8758337,Ciprofloxacin,0.7699167,8.237539
16713,53137,ciprofloxacin,80,100,0.988906,-2.98465,Ciprofloxacin,0.97070026,10.926806
16714,53139,ciprofloxacin,80,100,0.6014983,-7.7189484,Ciprofloxacin,0.8960438,11.554535
16727,53065,ciprofloxacin,80,80,0.9835924,-5.750099,Ciprofloxacin,0.99510527,12.0926285
16736,53137,ciprofloxacin,80,100,0.9886818,-3.2226737,Ciprofloxacin,0.88419133,9.285806
16741,53170,ciprofloxacin,80,50,0.92000514,-6.1119976,Ciprofloxacin,0.9998161,14.107009
16745,53174,ciprofloxacin,80,50,0.99875903,-3.40798,Ciprofloxacin,0.9980167,13.267503
16747,53173,ciprofloxacin,80,50,0.9990559,-1.4458734,Ciprofloxacin,0.99982697,14.377369
16749,53066,ciprofloxacin,80,80,0.6177985,-7.2245555,Ciprofloxacin,0.99848527,12.85314
16752,53170,ciprofloxacin,80,50,0.796485,-6.7197766,Ciprofloxacin,0.99986005,14.218977
16756,53174,ciprofloxacin,80,50,0.99236417,-3.956854,Ciprofloxacin,0.998027,13.356578
16758,53173,ciprofloxacin,80,50,0.9968336,-1.6470503,Ciprofloxacin,0.99972886,14.313298
16761,53066,ciprofloxacin,80,20,0.7424434,-6.5008,Ciprofloxacin,0.9996383,13.726922
16762,53049,ciprofloxacin,100,100,0.9998945,-2.6863983,Ciprofloxacin,0.96343803,11.210472
16764,53065,ciprofloxacin,80,80,0.9971517,-3.1638927,Ciprofloxacin,0.9992107,12.999235
16772,53204,ciprofloxacin,50,50,0.98611,-4.240574,Ciprofloxacin,0.9987778,12.15067
16778,53153,ciprofloxacin,50,20,0.95594376,-3.1004665,Ciprofloxacin,0.9992318,12.801064
16782,53206,ciprofloxacin,50,50,0.9716024,-3.9275458,Ciprofloxacin,0.99817646,11.678505
16784,53204,ciprofloxacin,50,50,0.99018186,-3.4060197,Ciprofloxacin,0.9992331,12.470966
16786,53402,albendazole,20,20,0.66315925,-4.72507,Albendazole,0.9963056,12.290642
16796,53206,ciprofloxacin,50,50,0.9962245,-2.4228435,Ciprofloxacin,0.99785894,11.609953
16798,53099,ciprofloxacin,50,50,0.99980456,-1.0123664,Ciprofloxacin,0.99598384,12.445817
16806,53097,ciprofloxacin,50,50,0.9632228,-2.5392568,Ciprofloxacin,0.9998124,13.813428
16812,53099,ciprofloxacin,50,50,0.99962616,-1.3711483,Ciprofloxacin,0.9967679,12.845142
16819,53137,ciprofloxacin,80,100,0.42352945,-6.058422,Ciprofloxacin,0.94247806,10.898527
16820,53048,ciprofloxacin,100,100,0.98432803,-6.1457276,Ciprofloxacin,0.99933904,13.060529
16822,53053,ciprofloxacin,100,100,0.9999994,-0.17636113,Ciprofloxacin,0.98050904,11.735016
16830,53301,albendazole,20,20,0.93202925,-6.6030183,Albendazole,0.99566674,14.77114
16836,53150,ciprofloxacin,100,100,0.9967685,-2.5640054,Ciprofloxacin,0.9996792,13.046268
16850,53049,ciprofloxacin,100,100,0.99997544,-1.7986984,Ciprofloxacin,0.9828348,11.812591
16856,53053,ciprofloxacin,100,100,0.9999994,0.012084736,Ciprofloxacin,0.99813604,13.3792515
16862,53091,ciprofloxacin,50,50,0.98194677,-3.7230525,Ciprofloxacin,0.99947196,13.014609
16863,53090,ciprofloxacin,50,50,0.91249204,-4.4861794,Ciprofloxacin,0.99885595,13.214472
16866,53057,ciprofloxacin,20,100,0.9134921,-1.311647,Ciprofloxacin,0.9976737,11.55474
16867,53091,ciprofloxacin,50,50,0.941598,-4.3401885,Ciprofloxacin,0.9995352,13.422665
16868,53117,ciprofloxacin,20,20,0.99898773,-0.5893561,Ciprofloxacin,0.9831592,11.811853
16870,53117,ciprofloxacin,20,20,0.99813026,-1.3291191,Ciprofloxacin,0.9858496,11.697572
16871,53162,ciprofloxacin,20,20,0.99973255,0.07642845,Ciprofloxacin,0.9997546,12.885339
16873,53090,ciprofloxacin,50,50,0.9481231,-4.8713,Ciprofloxacin,0.9994584,13.468641
16878,53118,ciprofloxacin,20,20,0.99992645,2.629522,Ciprofloxacin,0.9871453,11.202687
16880,53166,ciprofloxacin,20,20,0.9902762,-2.4368203,Ciprofloxacin,0.9995499,13.791594
16882,53065,ciprofloxacin,80,20,0.80666614,-9.715232,Ciprofloxacin,0.99650687,10.259706
16888,53162,ciprofloxacin,20,20,0.9976392,-1.8943455,Ciprofloxacin,0.9971494,12.191555
16889,53160,ciprofloxacin,20,20,0.9960062,-0.6460034,Ciprofloxacin,0.9867085,10.998649
16895,53232,albendazole,20,20,0.61462456,-6.302246,Albendazole,0.87625414,11.4712305
16901,53048,ciprofloxacin,100,100,0.9914077,-5.220703,Ciprofloxacin,0.99979,13.872981
16906,53234,ciprofloxacin,100,80,0.6610377,-6.0394306,Ciprofloxacin,0.9553604,9.342098
16909,53232,albendazole,20,20,0.9282058,-5.5380297,Albendazole,0.9455266,12.368469
16914,53150,ciprofloxacin,100,100,0.9882984,-4.7247553,Ciprofloxacin,0.9993305,12.879953
16919,53040,ciprofloxacin,100,100,0.9994117,-3.1963396,Ciprofloxacin,0.9998896,14.074597
16922,53301,albendazole,20,20,0.9796157,-7.148527,Albendazole,0.9256684,13.325863
16924,53066,ciprofloxacin,80,100,0.6250703,-9.43836,Ciprofloxacin,0.9916197,11.170291
16926,53097,ciprofloxacin,50,50,0.9285283,-2.759232,Ciprofloxacin,0.99989045,14.07298
16927,53145,ciprofloxacin,100,100,0.9999894,0.9448431,Ciprofloxacin,0.9994398,13.611136
16946,53242,albendazole,20,20,0.9587786,-3.5266802,Albendazole,0.96337324,13.506799
16954,53151,ciprofloxacin,100,100,0.99999154,-1.853321,Ciprofloxacin,0.9991008,14.071357
16960,53303,albendazole,20,20,0.69363296,-4.8004494,Albendazole,0.9964478,13.390176
16966,53162,ciprofloxacin,20,20,0.9996333,0.20553513,Ciprofloxacin,0.99963784,12.741587
16968,53117,ciprofloxacin,20,20,0.9960544,-0.83329904,Ciprofloxacin,0.96385443,12.379699
16970,53118,ciprofloxacin,20,20,0.9998739,1.9560789,Ciprofloxacin,0.98348343,11.609511
16971,53057,ciprofloxacin,20,100,0.58592373,-1.0838649,Ciprofloxacin,0.9988912,12.331083
16974,53166,ciprofloxacin,20,20,0.9990288,-0.8827656,Ciprofloxacin,0.999843,14.327099
16976,53160,ciprofloxacin,20,20,0.97798836,-1.0885243,Ciprofloxacin,0.9892588,10.113474
16978,53117,ciprofloxacin,20,20,0.99926406,-0.58582747,Ciprofloxacin,0.9801191,12.411618
16984,53338,albendazole,20,20,0.89787674,-3.6796317,Albendazole,0.98687196,13.537664
16988,53242,albendazole,20,20,0.9490225,-3.8132427,Azithromycin,0.8268063,12.813739
16989,53234,ciprofloxacin,100,100,0.82500255,-5.52565,Ciprofloxacin,0.99486274,10.572652
16992,53145,ciprofloxacin,100,100,0.99998975,0.112056725,Ciprofloxacin,0.99987924,14.314049
16994,53243,albendazole,20,20,0.979859,-2.5537724,Albendazole,0.9683876,14.198782
17001,53040,ciprofloxacin,100,100,0.99967706,-2.8137252,Ciprofloxacin,0.9998221,13.565948
17003,53402,albendazole,20,20,0.5851643,-4.1841416,Albendazole,0.99955195,14.354463
17004,53151,ciprofloxacin,100,100,0.9999964,-0.22095451,Ciprofloxacin,0.995233,13.2138405
17006,53303,albendazole,20,20,0.9943169,-4.194373,Azithromycin,0.65202755,8.28754
17007,53243,albendazole,20,20,0.99061465,-1.8419573,Albendazole,0.627306,12.59793
17019,53057,ciprofloxacin,20,20,0.96097773,-0.3967053,Ciprofloxacin,0.9994124,12.356218
17027,53162,ciprofloxacin,20,20,0.9991855,-0.22100282,Ciprofloxacin,0.9996574,12.729615
17032,53117,ciprofloxacin,20,20,0.99277675,-0.38557976,Ciprofloxacin,0.9461606,12.21001
17038,53118,ciprofloxacin,20,20,0.9990459,1.0720509,Ciprofloxacin,0.98511523,12.223869
17041,53166,ciprofloxacin,20,20,0.9975085,-0.98978204,Ciprofloxacin,0.99984586,14.238609
17046,53160,ciprofloxacin,20,20,0.99701643,-0.22283228,Ciprofloxacin,0.92191017,8.02238
17048,53057,ciprofloxacin,20,20,0.894938,-0.71352077,Ciprofloxacin,0.99922323,12.193309
17056,53222,ciprofloxacin,20,20,0.99984825,1.9293938,Ciprofloxacin,0.9994104,12.928091
17063,53118,ciprofloxacin,20,20,0.99901986,0.86709434,Ciprofloxacin,0.9908007,11.933087
17065,53160,ciprofloxacin,20,20,0.9987153,0.09089519,Ciprofloxacin,0.8675046,7.366579
17070,53166,ciprofloxacin,20,20,0.99805593,-1.100181,Ciprofloxacin,0.9998313,14.122536
17078,53222,ciprofloxacin,20,20,0.99981755,1.6249616,Ciprofloxacin,0.9994754,12.910841
17091,53222,ciprofloxacin,20,20,0.99992263,1.4776583,Ciprofloxacin,0.99921536,12.648531
17092,53222,ciprofloxacin,20,20,0.999915,1.6796308,Ciprofloxacin,0.99949884,12.95012
17109,53126,lactose,100,100,0.6277313,-4.422989,Lactose,0.9948485,9.932786
17111,53121,lactose,100,100,0.96318376,-2.940369,Lactose,0.98082054,8.784592
17118,53126,lactose,100,100,0.7997114,-3.6630416,Lactose,0.95425665,8.933117
17120,53121,lactose,100,100,0.9902541,-2.2372231,Lactose,0.6520489,8.295537
17121,53124,lactose,100,100,0.97818065,-1.7863024,Lactose,0.9936406,10.278012
17124,53126,lactose,100,100,0.76656675,-2.1244311,Lactose,0.9869135,10.176024
17126,53121,lactose,100,100,0.8464837,-2.4247675,Lactose,0.8036649,8.800068
17127,53124,lactose,100,100,0.9888446,-3.9409626,Lactose,0.99423075,10.692175
17137,53211,lactose,100,100,0.99998367,2.1696928,Lactose,0.9071273,9.521851
17138,53208,lactose,100,100,0.99847883,-1.8610109,Lactose,0.9843583,8.7745
17142,53121,lactose,100,100,0.9435283,-2.2165384,Lactose,0.5380739,8.991611
17147,53126,lactose,100,100,0.87505454,-1.2280498,Lactose,0.9678287,9.635548
17150,53211,lactose,100,100,0.999949,0.69251215,Lactose,0.9045789,9.301405
17152,53226,lactose,100,100,0.9986407,-1.9128522,Lactose,0.9969848,10.4876795
17153,53124,lactose,100,100,0.9159345,-1.4694372,Lactose,0.9968786,10.722829
17155,53208,lactose,100,100,0.99916375,0.54498595,Lactose,0.8729015,8.19252
17158,53211,lactose,100,100,0.9999368,1.2788565,Lactose,0.85640275,8.473972
17162,53075,lactose,100,100,0.99998796,-0.37648982,Lactose,0.9221021,7.5251007
17345,52516,benzyl-penicillin,100,100,0.9987386,-1.6396269,Benzyl-Penicillin,0.9988288,13.07183
17379,52516,benzyl-penicillin,100,100,0.9995932,0.075781874,Benzyl-Penicillin,0.99924314,13.568032
17396,52516,benzyl-penicillin,100,100,0.9995604,0.8019996,Benzyl-Penicillin,0.9992576,13.403514
17431,52375,benzyl-penicillin,100,20,0.5422539,-6.43256,Benzyl-Penicillin,0.96533436,11.057976
17455,52369,benzyl-penicillin,100,100,0.77341676,-5.489298,Benzyl-Penicillin,0.97443277,11.499438
17458,52363,benzyl-penicillin,80,80,0.7394489,-4.689702,Benzyl-Penicillin,0.99665123,13.348402
17478,52363,benzyl-penicillin,80,80,0.7079103,-4.8184047,Benzyl-Penicillin,0.9965675,13.249618
17489,52363,benzyl-penicillin,80,20,0.3527609,-5.4714546,Benzyl-Penicillin,0.9858111,12.449503
17502,52349,benzyl-penicillin,80,100,0.9966935,-1.2648292,Benzyl-Penicillin,0.99905354,13.08493
17514,52349,benzyl-penicillin,80,100,0.98637307,-2.59699,Benzyl-Penicillin,0.99941206,13.261724
17535,52363,benzyl-penicillin,80,80,0.95889246,-3.1216285,Benzyl-Penicillin,0.99870694,13.2750635
17547,52422,benzyl-penicillin,80,80,0.49478725,-4.8957,Benzyl-Penicillin,0.99253654,12.853803
17556,52422,benzyl-penicillin,80,80,0.5559425,-6.3754444,Benzyl-Penicillin,0.99574536,13.11605
17560,52349,benzyl-penicillin,80,100,0.9809457,-2.4724169,Benzyl-Penicillin,0.99847907,12.445387
17564,52422,benzyl-penicillin,80,100,0.7303343,-4.3708415,Benzyl-Penicillin,0.99795145,13.113188
17597,52356,benzyl-penicillin,50,20,0.9216676,-1.4618571,Benzyl-Penicillin,0.9989548,12.573693
17617,52358,benzyl-penicillin,50,100,0.6847659,-4.7682915,Benzyl-Penicillin,0.9996147,13.759404
17650,52356,benzyl-penicillin,50,20,0.9900422,0.32178873,Benzyl-Penicillin,0.99920493,13.094277
17656,52358,benzyl-penicillin,50,100,0.6578933,-4.5048094,Benzyl-Penicillin,0.9996432,13.826584
17670,53198,benzyl-penicillin,20,20,0.9986173,0.4072462,Benzyl-Penicillin,0.9996233,13.074997
17707,53197,benzyl-penicillin,20,20,0.8499363,-5.414097,Benzyl-Penicillin,0.9987017,12.261646
17710,53198,benzyl-penicillin,20,20,0.99688464,0.53618205,Benzyl-Penicillin,0.99966824,13.443354
17720,53198,benzyl-penicillin,20,20,0.99949205,1.0359586,Benzyl-Penicillin,0.99959713,13.189984
17747,53197,benzyl-penicillin,20,100,0.56084025,-5.2722416,Benzyl-Penicillin,0.99792767,11.912428
17750,53198,benzyl-penicillin,20,20,0.99717003,-0.3623869,Benzyl-Penicillin,0.9995473,13.112698
17756,52530,benzyl-penicillin,20,20,0.99859446,1.326123,Benzyl-Penicillin,0.99905807,12.41121
17776,53180,isoniazid,100,100,0.99716836,-4.393629,Isoniazid,0.99991655,15.630865
17784,53180,isoniazid,100,100,0.98622084,-5.5925713,Isoniazid,0.9998779,15.35051
17793,53187,isoniazid,100,100,0.9998778,-0.8579417,Isoniazid,0.9998981,16.21237
17794,52340,isoniazid,100,100,0.9997944,-1.5395268,Isoniazid,0.9996991,16.009829
17799,52338,isoniazid,100,100,0.99876726,0.9080086,Isoniazid,0.99975234,15.924095
17808,52336,isoniazid,100,100,0.99935883,-1.5222011,Isoniazid,0.9999007,16.841793
17812,53180,isoniazid,100,100,0.9986773,-3.37607,Isoniazid,0.9999155,16.364464
17817,52336,isoniazid,100,100,0.9762631,-3.598112,Isoniazid,0.99987483,16.305159
17820,52209,isoniazid,100,100,0.83805233,-4.5671988,Isoniazid,0.99970406,15.70276
17823,52340,isoniazid,100,100,0.9995741,-1.3589463,Isoniazid,0.9998696,16.866179
17827,52338,isoniazid,100,100,0.9999752,2.2877643,Isoniazid,0.9996673,15.869282
17830,52336,isoniazid,100,100,0.99982077,-1.7921295,Isoniazid,0.99978,16.637423
17837,53180,isoniazid,100,100,0.99837387,-2.777355,Isoniazid,0.9998851,16.328384
17850,52221,isoniazid,100,100,0.8822697,-3.6057901,Isoniazid,0.9998429,16.08928
17859,52221,isoniazid,100,100,0.98769814,-2.3186185,Isoniazid,0.99901414,14.374273
17866,52340,isoniazid,100,100,0.9985127,-1.9948862,Isoniazid,0.9997751,16.798878
17871,52221,isoniazid,100,100,0.958937,-3.4519153,Isoniazid,0.9997818,16.39792
17888,52340,isoniazid,100,100,0.9934116,-2.429665,Isoniazid,0.99981767,16.871408
17933,52470,isoniazid,80,80,0.9958994,-4.949596,Isoniazid,0.9999293,16.7661
17934,52464,isoniazid,80,80,0.9797703,-3.6447196,Isoniazid,0.9999386,17.1756
17935,52469,isoniazid,80,80,0.9778907,-5.1856694,Isoniazid,0.9999056,16.788742
17937,52465,isoniazid,80,80,0.99766773,-3.6567955,Isoniazid,0.99992883,17.129208
17938,52465,isoniazid,80,80,0.97252494,-5.192583,Isoniazid,0.99989367,16.690437
17939,52469,isoniazid,80,80,0.7547647,-8.148243,Isoniazid,0.9998871,16.329685
17940,52464,isoniazid,80,80,0.9064355,-4.602961,Isoniazid,0.9999076,15.882974
17947,52323,isoniazid,80,80,0.9996145,-2.8917701,Isoniazid,0.99991775,17.108515
17948,52470,isoniazid,80,80,0.99717915,-4.8048916,Isoniazid,0.999895,16.725964
17949,52464,isoniazid,80,80,0.8588875,-4.890261,Isoniazid,0.99993324,17.102919
17950,52469,isoniazid,80,80,0.99069124,-4.4908757,Isoniazid,0.99988663,16.771763
17952,52465,isoniazid,80,80,0.9946408,-4.270735,Isoniazid,0.9999064,16.91118
17960,52223,isoniazid,80,100,0.5881484,-5.3957167,Isoniazid,0.99993515,17.174694
17962,52323,isoniazid,80,80,0.99850404,-3.589118,Isoniazid,0.9999225,17.151098
17968,52223,isoniazid,80,80,0.96120465,-4.1091375,Isoniazid,0.99995005,17.30405
17970,52321,isoniazid,80,100,0.93242097,-3.530005,Isoniazid,0.9997656,16.508993
17974,52321,isoniazid,80,80,0.5176829,-4.32394,Isoniazid,0.9997962,16.454659
17991,52463,isoniazid,50,50,0.96683395,-4.1173778,Isoniazid,0.9999398,17.118618
17992,52461,isoniazid,50,50,0.56138384,-6.2961407,Isoniazid,0.99988234,16.85179
17997,52441,isoniazid,50,100,0.8636932,-6.089549,Isoniazid,0.9998276,16.296066
17998,52456,isoniazid,50,80,0.9484291,-5.3474293,Isoniazid,0.9991615,15.244521
18001,52321,isoniazid,80,20,0.651992,-7.7978888,Isoniazid,0.99852777,13.476192
18005,52465,isoniazid,80,80,0.9932935,-5.0120244,Isoniazid,0.9999269,16.793795
18011,52321,isoniazid,80,100,0.6735793,-5.287342,Isoniazid,0.99980456,16.060818
18012,52464,isoniazid,80,80,0.9778917,-4.3866296,Isoniazid,0.9999523,17.003735
18032,52463,isoniazid,50,50,0.987472,-3.1169274,Isoniazid,0.9999249,16.91797
18033,52461,isoniazid,50,50,0.81554306,-5.550543,Isoniazid,0.9998416,16.69585
18039,52469,isoniazid,80,80,0.8806046,-6.9930973,Isoniazid,0.99991524,16.49165
18040,52494,isoniazid,20,20,0.9990355,-0.15794152,Isoniazid,0.99966943,14.951443
18041,52478,isoniazid,50,100,0.49072945,-7.3258996,Isoniazid,0.9997917,16.195913
18042,52494,isoniazid,20,20,0.9999062,1.8528214,Isoniazid,0.9994698,15.535084
18043,52223,isoniazid,80,80,0.52248615,-5.7366314,Isoniazid,0.9999522,16.936914
18050,52921,isoniazid,20,20,0.9999745,-0.4748633,Isoniazid,0.99927396,14.364975
18051,52500,isoniazid,20,20,0.65921944,-2.7276733,Isoniazid,0.9999162,16.638296
18054,52470,isoniazid,80,80,0.9544781,-7.306241,Isoniazid,0.99989855,15.954727
18062,52491,isoniazid,20,20,0.9998915,1.1543535,Isoniazid,0.9998055,15.570255
18064,52500,isoniazid,20,20,0.9912924,-3.024212,Isoniazid,0.9995402,14.475448
18066,52921,isoniazid,20,20,0.99873704,-1.5307661,Isoniazid,0.9997949,16.590559
18069,52500,isoniazid,20,20,0.873763,-3.8850472,Isoniazid,0.9996824,15.736484
18070,52491,isoniazid,20,20,0.99965334,1.7272124,Isoniazid,0.9991715,14.389226
18072,52478,isoniazid,50,80,0.9496096,-7.045339,Isoniazid,0.9999571,16.805643
18085,52323,isoniazid,80,80,0.9659195,-7.113564,Isoniazid,0.99986315,16.404501
18093,52222,isoniazid,80,80,0.7091159,-6.5068765,Isoniazid,0.9995732,15.085436
18096,52491,isoniazid,20,20,0.99983656,0.3015556,Isoniazid,0.99977046,15.039862
18105,52478,isoniazid,50,80,0.96004575,-7.5318313,Isoniazid,0.9999182,16.072441
18106,52473,isoniazid,50,50,0.9541486,-3.6152842,Isoniazid,0.9999051,16.70258
18112,52461,isoniazid,50,80,0.75233924,-6.938713,Isoniazid,0.9998338,16.3049
18113,52494,isoniazid,20,20,0.9998982,2.61583,Isoniazid,0.9990797,14.761623
18122,52494,isoniazid,20,20,0.9988275,0.59294635,Isoniazid,0.9997646,15.636439
18142,52490,isoniazid,20,20,0.9999676,1.6748766,Isoniazid,0.9997327,15.71256
18147,52478,isoniazid,50,100,0.69259655,-7.3832254,Isoniazid,0.9998348,16.383463
18155,52463,isoniazid,50,80,0.941706,-5.9125123,Isoniazid,0.9999317,16.648771
18169,52458,isoniazid,20,20,0.9993104,-0.613322,Isoniazid,0.99954826,14.302395
18173,52933,isoniazid,20,20,0.9996044,-1.9576013,Isoniazid,0.999589,14.705784
18175,52463,isoniazid,50,50,0.5424729,-6.3788805,Isoniazid,0.9999455,16.978699
18181,52933,isoniazid,20,20,0.99744165,-2.5867903,Isoniazid,0.9998222,15.564457
18201,52500,isoniazid,20,20,0.74356306,-4.4572597,Isoniazid,0.99984956,16.560696
18204,52223,isoniazid,80,100,0.60388345,-5.2921085,Isoniazid,0.99995756,17.076662
18205,52490,isoniazid,20,20,0.99941885,1.9044878,Isoniazid,0.99962795,15.108235
18207,52461,isoniazid,50,80,0.89035106,-6.7689505,Isoniazid,0.99989617,16.705574
18213,52457,isoniazid,50,80,0.90550596,-5.2781734,Isoniazid,0.9999268,16.767658
18215,52490,isoniazid,20,20,0.9997937,1.5423106,Isoniazid,0.9989981,15.451652
18395,52456,isoniazid,50,80,0.94361204,-5.603917,Isoniazid,0.9994019,14.760077
18403,52323,isoniazid,80,80,0.9349813,-6.401201,Isoniazid,0.9998952,16.37954
18432,51986,tetracycline,80,100,0.34685996,-10.244742,Tetracycline,0.99966943,15.644524
18433,52036,tetracycline,20,20,0.99277264,-2.0546858,Tetracycline,0.9991335,14.822477
18532,52109,tetracycline,100,100,0.9997991,-2.380949,Tetracycline,0.99986637,16.17606
18538,51986,tetracycline,80,100,0.61743563,-9.345112,Tetracycline,0.99973327,15.775507
18539,52066,tetracycline,50,20,0.7350888,-7.369427,Tetracycline,0.9998154,15.719208
18540,52005,tetracycline,50,50,0.52148896,-7.7762513,Tetracycline,0.99986124,15.616455
18545,52036,tetracycline,20,20,0.99088997,-1.7870907,Tetracycline,0.9995053,14.903481
18546,52086,tetracycline,20,20,0.99911684,-4.626339,Tetracycline,0.9997093,15.386353
18551,52115,tetracycline,100,100,0.9968425,-3.9943275,Tetracycline,0.99965394,15.288646
18558,52127,tetracycline,100,100,0.99998987,3.179341,Tetracycline,0.9992092,15.606273
18563,52091,tetracycline,80,50,0.4884657,-8.926753,Tetracycline,0.9997496,15.457509
18572,52091,tetracycline,80,80,0.5706586,-9.321447,Tetracycline,0.9996506,15.129535
18576,52100,tetracycline,80,100,0.99999833,0.8631489,Tetracycline,0.99990094,15.937422
18590,51986,tetracycline,80,50,0.383147,-9.421001,Tetracycline,0.99966645,15.462953
18596,52074,tetracycline,50,50,0.9660529,-6.7790446,Tetracycline,0.99986744,15.858036
18609,52054,tetracycline,20,20,0.97593915,-3.6185095,Tetracycline,0.998679,14.186725
18613,52942,tetracycline,100,100,0.99999964,3.4393718,Tetracycline,0.9998196,15.937272
18617,52941,tetracycline,100,100,0.9999465,0.92840934,Tetracycline,0.9989421,14.453402
18622,52109,tetracycline,100,100,0.99975973,-2.7287767,Tetracycline,0.9998398,16.103745
18627,52092,tetracycline,80,100,0.527149,-7.093708,Tetracycline,0.9998634,16.173887
18631,52094,tetracycline,80,80,0.99910647,-5.780056,Tetracycline,0.9995956,15.180047
18635,52092,tetracycline,80,80,0.8931198,-6.4255624,Tetracycline,0.9998666,16.106096
18649,51984,tetracycline,50,100,0.59309876,-8.272705,Tetracycline,0.9995029,14.556113
18658,52051,tetracycline,20,20,0.94900465,-5.559009,Tetracycline,0.99990714,15.935807
18676,52051,tetracycline,20,20,0.99203306,-5.7158546,Tetracycline,0.9998616,15.85177
18682,52086,tetracycline,20,20,0.9993253,-3.9476302,Tetracycline,0.9997688,15.438921
18698,52056,tetracycline,20,50,0.9864804,-1.3127493,Tetracycline,0.99956316,15.524492
18709,52941,tetracycline,100,100,0.9998191,0.9256374,Tetracycline,0.9992811,15.322923
18714,52125,tetracycline,80,50,0.62329954,-9.250572,Tetracycline,0.99873465,14.951219
18734,52007,tetracycline,50,100,0.9770488,-6.720447,Tetracycline,0.9998746,16.052153
18740,51984,tetracycline,50,100,0.57413924,-8.532855,Tetracycline,0.99932766,14.292324
18742,52061,tetracycline,20,20,0.999956,-1.8050946,Tetracycline,0.9995634,15.279188
18744,52060,tetracycline,50,50,0.79174817,-5.141646,Tetracycline,0.9998299,15.457401
18754,52107,tetracycline,100,100,0.99999917,-0.16195494,Tetracycline,0.99991,16.424828
18760,52125,tetracycline,80,50,0.6953564,-9.212417,Tetracycline,0.9984232,14.91995
18778,52054,tetracycline,20,20,0.9844891,-3.2856555,Tetracycline,0.999281,14.353432
18784,52115,tetracycline,100,100,0.9966323,-4.255077,Tetracycline,0.99965894,15.655864
18786,52942,tetracycline,100,100,1.0,4.776772,Tetracycline,0.99981683,15.762824
18789,52107,tetracycline,100,100,0.99999833,-0.8131425,Tetracycline,0.99987864,16.196247
18801,52094,tetracycline,80,80,0.99738616,-6.7228155,Tetracycline,0.99949694,15.04849
18804,52100,tetracycline,80,100,0.9999913,0.29021537,Tetracycline,0.9999026,16.030298
18814,52066,tetracycline,50,20,0.8436434,-6.1420608,Tetracycline,0.99987257,16.004099
18817,51999,tetracycline,50,50,0.99398804,-5.2679696,Tetracycline,0.99979216,15.367005
18820,52005,tetracycline,50,50,0.9228376,-6.967102,Tetracycline,0.99982136,15.53306
18823,52007,tetracycline,50,100,0.99298346,-5.560408,Tetracycline,0.99970883,15.515242
18838,52938,tetracycline,100,100,0.99921894,-1.6398499,Tetracycline,0.9998392,15.787139
18852,52097,tetracycline,80,50,0.5369967,-8.68533,Tetracycline,0.9998816,16.178898
18860,52074,tetracycline,50,50,0.8380289,-7.2484665,Tetracycline,0.99988043,15.764552
18865,51999,tetracycline,50,50,0.9974542,-4.9898114,Tetracycline,0.9996605,14.962935
18874,52127,tetracycline,100,100,0.99995184,1.8404379,Tetracycline,0.9992508,15.9255295
18881,52097,tetracycline,80,50,0.56770825,-7.716813,Tetracycline,0.99979645,15.64917
18896,52061,tetracycline,20,20,0.9996082,-3.5562599,Tetracycline,0.9995122,14.983486
18899,52052,tetracycline,20,20,0.99985456,-2.4572256,Tetracycline,0.9998573,15.538492
18900,52060,tetracycline,50,50,0.542404,-5.309203,Tetracycline,0.9998165,15.6038885
18904,52052,tetracycline,20,20,0.999816,-2.277267,Tetracycline,0.9998635,15.57481
18907,52056,tetracycline,20,50,0.9631145,-1.7685642,Tetracycline,0.9992242,15.071967
18909,52036,tetracycline,20,20,0.9776593,-2.1265368,Tetracycline,0.99958605,14.887234
18956,52007,tetracycline,50,100,0.98580027,-7.256883,Tetracycline,0.99984217,15.861516
18958,51984,tetracycline,50,100,0.539851,-8.175276,Tetracycline,0.9989421,13.739666
18964,52913,ceftriaxone,80,80,0.9910517,-4.0976205,Ceftriaxone,0.99991727,16.577915
18965,52672,ceftriaxone,50,50,0.7214037,-6.0139174,Ceftriaxone,0.99809784,14.350285
18975,52675,ceftriaxone,50,50,0.99170274,-4.117651,Ceftriaxone,0.99983954,15.80981
18978,52091,tetracycline,80,50,0.50103956,-8.993838,Tetracycline,0.999806,15.513939
18980,52710,ceftriaxone,50,100,0.9613539,-6.556852,Ceftriaxone,0.999635,15.37933
18992,52051,tetracycline,20,20,0.93613034,-5.969331,Tetracycline,0.9998709,15.88511
18996,52905,ceftriaxone,100,100,0.984991,-5.1874866,Ceftriaxone,0.99991596,16.214031
19001,52640,ceftriaxone,20,20,0.9982476,-0.6704572,Ceftriaxone,0.9998802,16.265903
19017,52056,tetracycline,20,50,0.8928402,-1.482093,Tetracycline,0.9975126,14.246185
19025,52033,ceftriaxone,100,50,0.9138647,-3.6214821,Ceftriaxone,0.9998412,16.039742
19027,52668,ceftriaxone,20,20,0.99945587,-1.1960354,Ceftriaxone,0.9989631,13.235359
19031,52066,tetracycline,50,20,0.8798383,-6.590633,Tetracycline,0.9996568,14.916292
19032,52885,ceftriaxone,20,20,0.9999726,0.44607466,Ceftriaxone,0.9996117,13.532209
19035,52036,tetracycline,20,20,0.9961898,-1.4098696,Tetracycline,0.99887294,14.085436
19037,52877,ceftriaxone,20,20,0.9998783,-0.6208121,Ceftriaxone,0.9999479,15.764625
19042,52699,ceftriaxone,80,50,0.7938896,-4.3138447,Ceftriaxone,0.999616,15.649058
19052,52872,ceftriaxone,20,20,0.99989176,1.9852314,Ceftriaxone,0.9997098,15.36191
19059,52007,tetracycline,50,100,0.99658597,-6.071077,Tetracycline,0.99979776,15.462313
19061,52668,ceftriaxone,20,20,0.99884605,-1.6197456,Ceftriaxone,0.99923074,14.156027
19062,52094,tetracycline,80,80,0.9999219,-4.9549046,Tetracycline,0.9996068,15.037199
19068,52937,tetracycline,100,100,0.99999976,5.004592,Tetracycline,0.999421,14.943035
19103,52885,ceftriaxone,20,20,0.99999404,1.7133203,Ceftriaxone,0.9997799,14.512994
19119,52060,tetracycline,50,20,0.8998774,-5.148233,Tetracycline,0.9997404,15.11724
19120,52056,tetracycline,20,50,0.8107988,-2.6159601,Tetracycline,0.9978236,14.177916
19123,52881,ceftriaxone,20,20,0.9999881,2.6720972,Ceftriaxone,0.9994104,14.703712
19125,52640,ceftriaxone,20,20,0.99446714,-2.082527,Ceftriaxone,0.99993503,16.68656
19128,52109,tetracycline,100,100,0.9996511,-1.8467842,Tetracycline,0.99955994,15.335233
19131,52680,ceftriaxone,50,20,0.93263406,-4.746866,Ceftriaxone,0.9960846,13.50571
19133,52937,tetracycline,100,100,1.0,5.7603207,Tetracycline,0.999624,15.42536
19134,52669,ceftriaxone,20,50,0.5894297,-4.4840546,Ceftriaxone,0.99991536,16.302332
19135,52926,ceftriaxone,80,80,0.8943098,-9.132599,Ceftriaxone,0.9965462,12.009152
19141,52097,tetracycline,80,100,0.81972003,-8.212004,Tetracycline,0.99983704,15.644311
19144,51999,tetracycline,50,50,0.99660945,-5.942725,Tetracycline,0.999798,15.314514
19155,52695,ceftriaxone,80,80,0.992446,-2.3750415,Ceftriaxone,0.99996114,16.35406
19168,52656,ceftriaxone,100,100,0.92468375,-6.741243,Ceftriaxone,0.99994886,16.49059
19169,52034,ceftriaxone,100,100,0.8626597,-7.288998,Ceftriaxone,0.9994025,14.875105
19175,52107,tetracycline,100,100,0.999979,-1.667845,Tetracycline,0.9997638,15.349526
19178,52913,ceftriaxone,80,80,0.99471396,-4.149488,Ceftriaxone,0.999902,16.478254
19181,52094,tetracycline,80,80,0.9976082,-6.267147,Tetracycline,0.9992466,14.509453
19186,52941,tetracycline,100,100,0.998657,-0.40181988,Tetracycline,0.9977076,14.575552
19189,52074,tetracycline,50,50,0.8930882,-7.266091,Tetracycline,0.99960846,14.618315
19194,52092,tetracycline,80,80,0.80635256,-7.3202224,Tetracycline,0.9998202,15.940268
19199,52872,ceftriaxone,20,20,0.9990687,0.21852796,Ceftriaxone,0.9993942,14.675167
19201,52092,tetracycline,80,100,0.5576566,-7.3086376,Tetracycline,0.99965465,15.165785
19206,52086,tetracycline,20,20,0.99935967,-5.6576877,Tetracycline,0.9996644,15.118148
19208,52677,ceftriaxone,50,50,0.9986376,-2.6799436,Ceftriaxone,0.99980444,16.214409
19217,52005,tetracycline,50,50,0.5225471,-8.287672,Tetracycline,0.9998259,15.411112
19218,52677,ceftriaxone,50,50,0.9986376,-2.6799436,Ceftriaxone,0.99980444,16.214409
19219,52107,tetracycline,100,100,0.99999917,-0.32009864,Tetracycline,0.99989176,16.257454
19221,52115,tetracycline,100,100,0.9992459,-4.4699454,Tetracycline,0.99941874,15.544986
19222,52680,ceftriaxone,50,20,0.8892871,-4.7617455,Ceftriaxone,0.9947537,12.851942
19230,52942,tetracycline,100,100,1.0,5.6214266,Tetracycline,0.9996295,15.335304
19234,52675,ceftriaxone,50,50,0.95903474,-3.6024668,Ceftriaxone,0.99953973,15.129162
19235,52052,tetracycline,20,20,0.99964535,-3.706889,Tetracycline,0.99948454,14.248872
19237,52100,tetracycline,80,100,0.9999993,0.65693533,Tetracycline,0.9997062,15.03623
19238,52669,ceftriaxone,20,50,0.565777,-5.4509716,Ceftriaxone,0.99994755,16.659782
19241,52677,ceftriaxone,50,50,0.99682534,-3.858892,Ceftriaxone,0.99982554,16.25119
19264,52909,ceftriaxone,100,20,0.99592245,-4.1824975,Ceftriaxone,0.9996222,14.535041
19286,52942,tetracycline,100,100,1.0,7.2480865,Tetracycline,0.99984705,15.918317
19291,52649,ceftriaxone,80,80,0.547279,-7.065909,Ceftriaxone,0.9998393,15.824018
19294,52672,ceftriaxone,50,50,0.77473253,-5.7212653,Ceftriaxone,0.9992888,15.20953
19302,52046,ceftriaxone,100,100,0.92069626,-5.90708,Ceftriaxone,0.9995277,15.237241
19311,52656,ceftriaxone,100,100,0.91531205,-6.280696,Ceftriaxone,0.9999502,16.570541
19313,52881,ceftriaxone,20,20,0.9999826,1.8003964,Ceftriaxone,0.9994087,14.305795
19317,52697,ceftriaxone,80,100,0.49834314,-7.5066776,Ceftriaxone,0.99989223,16.242184
19325,52673,ceftriaxone,50,50,0.9507301,-6.711437,Ceftriaxone,0.97835714,13.874243
19330,52697,ceftriaxone,80,80,0.95680225,-6.183973,Ceftriaxone,0.9997408,15.524693
19337,52941,tetracycline,100,100,0.9972594,-0.82060736,Tetracycline,0.9984676,14.3785715
19343,52097,tetracycline,80,50,0.798779,-8.218087,Tetracycline,0.9998858,16.129925
19346,52051,tetracycline,20,20,0.9812889,-5.700612,Tetracycline,0.99975604,15.093523
19351,52066,tetracycline,50,20,0.96575713,-5.532532,Tetracycline,0.9997811,15.261002
19355,52125,tetracycline,80,50,0.7453274,-10.051023,Tetracycline,0.9985453,14.9651
19358,52100,tetracycline,80,100,0.99999964,1.520142,Tetracycline,0.99986327,15.616853
19362,52005,tetracycline,50,20,0.8164374,-6.547805,Tetracycline,0.999595,14.592076
19366,52127,tetracycline,100,100,0.99999034,2.4380498,Tetracycline,0.9989513,15.824101
19374,52074,tetracycline,50,50,0.9561229,-7.594793,Tetracycline,0.9995921,14.796393
19377,52061,tetracycline,20,20,0.9999939,-2.0467267,Tetracycline,0.99893874,15.056054
19380,51999,tetracycline,50,50,0.9461477,-7.890885,Tetracycline,0.99960095,14.757397
19382,52052,tetracycline,20,20,0.9998814,-2.792918,Tetracycline,0.99965405,14.646972
19383,52648,ceftriaxone,50,50,0.9656216,-4.9984975,Ceftriaxone,0.9998735,16.163185
19387,52115,tetracycline,100,100,0.9977596,-4.2007813,Tetracycline,0.99919957,14.827037
19390,52877,ceftriaxone,20,20,0.99979144,-0.85192966,Ceftriaxone,0.99994457,16.115406
19403,52699,ceftriaxone,80,50,0.85629505,-5.292243,Ceftriaxone,0.99979013,15.913611
19407,52695,ceftriaxone,80,80,0.81503266,-4.181641,Ceftriaxone,0.9999503,15.92786
19409,52061,tetracycline,20,20,0.99998355,-1.404528,Tetracycline,0.9978467,14.228739
19410,52033,ceftriaxone,100,50,0.96270746,-3.5191066,Ceftriaxone,0.9997309,15.73605
19411,51986,tetracycline,80,50,0.47198918,-9.4731655,Tetracycline,0.9996227,15.313832
19419,52109,tetracycline,100,100,0.9995908,-3.4223723,Tetracycline,0.99979466,15.770223
19421,52905,ceftriaxone,100,100,0.9940293,-4.831185,Ceftriaxone,0.9998379,15.768334
19437,52649,ceftriaxone,80,50,0.931896,-5.6516404,Ceftriaxone,0.99992347,16.430262
19448,52046,ceftriaxone,100,100,0.95988435,-5.815054,Ceftriaxone,0.99982774,15.866014
19452,52710,ceftriaxone,50,100,0.8136921,-6.4235168,Ceftriaxone,0.99955314,14.989164
19472,52046,ceftriaxone,100,100,0.8769777,-5.625443,Ceftriaxone,0.9997689,15.62674
19475,52877,ceftriaxone,20,20,0.998857,-1.1860906,Ceftriaxone,0.9999577,16.710083
19481,52046,ceftriaxone,100,100,0.9846853,-4.671213,Ceftriaxone,0.99969447,15.08337
19497,52695,ceftriaxone,80,80,0.99946874,-1.4851681,Ceftriaxone,0.99996674,16.809793
19501,52680,ceftriaxone,50,50,0.49104518,-4.6170917,Ceftriaxone,0.99847156,13.5648985
19517,52881,ceftriaxone,20,20,0.999997,2.8786318,Ceftriaxone,0.99979776,15.310039
19518,52694,ceftriaxone,80,80,0.97202027,-3.8447576,Ceftriaxone,0.99993896,16.417522
19519,52909,ceftriaxone,100,20,0.99963725,-2.8063264,Ceftriaxone,0.99968016,15.054648
19522,52675,ceftriaxone,50,50,0.98065037,-4.2062182,Ceftriaxone,0.99993193,16.633938
19529,52695,ceftriaxone,80,80,0.99559695,-1.8126582,Ceftriaxone,0.99993324,15.798224
19531,52913,ceftriaxone,80,80,0.9983192,-2.5003026,Ceftriaxone,0.9999424,16.988867
19540,52913,ceftriaxone,80,80,0.9958758,-2.8418243,Ceftriaxone,0.99989414,16.425236
19542,52699,ceftriaxone,80,50,0.7511255,-4.8804274,Ceftriaxone,0.9999008,16.533531
19546,52904,ceftriaxone,100,50,0.72554576,-6.5816455,Ceftriaxone,0.9999572,16.833075
19549,52909,ceftriaxone,100,20,0.9992029,-3.0649679,Ceftriaxone,0.99960774,14.50512
19551,52905,ceftriaxone,100,100,0.62140936,-5.4197235,Ceftriaxone,0.9999199,16.35511
19553,52672,ceftriaxone,50,50,0.9845595,-4.295318,Ceftriaxone,0.9998363,16.047781
19557,52034,ceftriaxone,100,100,0.4977541,-7.2020817,Ceftriaxone,0.99955434,14.791718
19567,52677,ceftriaxone,50,50,0.99607724,-3.0531578,Ceftriaxone,0.9999095,16.785084
19570,52710,ceftriaxone,50,100,0.97868365,-5.3379054,Ceftriaxone,0.99982506,16.012953
19574,52710,ceftriaxone,50,100,0.99502784,-4.094315,Ceftriaxone,0.9998939,15.987777
19581,52881,ceftriaxone,20,20,0.9999989,3.7800746,Ceftriaxone,0.99981385,15.319588
19582,52675,ceftriaxone,50,50,0.9185893,-5.5355163,Ceftriaxone,0.9999598,16.522715
19583,52881,ceftriaxone,20,20,0.99999654,3.2467182,Ceftriaxone,0.9997396,15.425543
19587,52648,ceftriaxone,50,50,0.9836701,-5.2559714,Ceftriaxone,0.9999038,16.235352
19596,52680,ceftriaxone,50,80,0.7981294,-4.9330673,Ceftriaxone,0.9983789,14.022972
19612,52648,ceftriaxone,50,50,0.9191666,-5.3840704,Ceftriaxone,0.99993455,16.889954
19613,52872,ceftriaxone,20,20,0.9989594,0.08269271,Ceftriaxone,0.9998541,15.712288
19616,52656,ceftriaxone,100,100,0.8867195,-6.35709,Ceftriaxone,0.9999634,16.871891
19618,52908,ceftriaxone,100,50,0.6778138,-6.038084,Ceftriaxone,0.9997229,14.270887
19619,52672,ceftriaxone,50,50,0.9955746,-3.421649,Ceftriaxone,0.9998305,15.758164
19621,52656,ceftriaxone,100,100,0.9152269,-6.437701,Ceftriaxone,0.9999604,16.58227
19625,52885,ceftriaxone,20,20,0.9999975,3.269309,Ceftriaxone,0.9998011,14.849309
19646,52905,ceftriaxone,100,100,0.7775706,-6.1011624,Ceftriaxone,0.99987936,15.44536
19650,52669,ceftriaxone,20,50,0.9150369,-4.164203,Ceftriaxone,0.99994445,16.455513
19654,52677,ceftriaxone,50,50,0.9942099,-2.4962983,Ceftriaxone,0.9999299,16.530293
19662,52034,ceftriaxone,100,100,0.84271216,-4.8930774,Ceftriaxone,0.9994824,14.975994
19674,52872,ceftriaxone,20,20,0.99932706,0.4463101,Ceftriaxone,0.9997625,15.616775
19677,52668,ceftriaxone,20,20,0.9996673,-0.7604291,Ceftriaxone,0.99961144,14.925471
19679,52640,ceftriaxone,20,20,0.98990834,-3.0169914,Ceftriaxone,0.9999486,16.770077
19684,52669,ceftriaxone,20,50,0.94390637,-3.98251,Ceftriaxone,0.9999542,16.95996
19691,52699,ceftriaxone,80,50,0.9933709,-2.7275746,Ceftriaxone,0.99990475,15.73006
19692,52668,ceftriaxone,20,20,0.99982613,-0.61082083,Ceftriaxone,0.99961334,14.694636
19694,52640,ceftriaxone,20,20,0.99260265,-2.8355057,Ceftriaxone,0.9999585,16.529339
19701,52877,ceftriaxone,20,20,0.9993749,-0.51732296,Ceftriaxone,0.99995375,16.255306
19710,52854,sulfamethoxazole,80,80,0.99855703,-1.0611467,Sulfamethoxazole,0.99380267,12.095073
19718,52844,sulfamethoxazole,80,80,0.9671641,-1.6136369,Sulfamethoxazole,0.9991116,13.094283
19734,52317,sulfamethoxazole,50,80,0.64324677,-4.7587514,Sulfamethoxazole,0.99722266,12.290447
19741,52309,sulfamethoxazole,50,50,0.9999628,1.4821938,Sulfamethoxazole,0.9992106,12.6750555
19748,52302,sulfamethoxazole,20,20,0.8886838,-4.832013,Sulfamethoxazole,0.99751663,12.66282
19750,52845,sulfamethoxazole,80,80,0.9933994,-2.3689065,Sulfamethoxazole,0.99869424,12.680174
19754,52646,sulfamethoxazole,50,50,0.7812165,-6.4596906,Sulfamethoxazole,0.99299276,11.083909
19756,52865,sulfamethoxazole,100,100,0.5478464,-5.5939465,Sulfamethoxazole,0.9977089,12.068202
19760,52852,sulfamethoxazole,80,80,0.8925914,-5.2861776,Sulfamethoxazole,0.9991295,12.013649
19772,52297,sulfamethoxazole,20,20,0.993046,-1.1452341,Sulfamethoxazole,0.98609656,9.178458
19774,52844,sulfamethoxazole,80,80,0.9774195,-2.8258755,Sulfamethoxazole,0.99922395,13.314085
19777,52317,sulfamethoxazole,50,80,0.9647443,-2.4303904,Sulfamethoxazole,0.9979929,12.322608
19780,52180,sulfamethoxazole,20,20,0.9993542,1.3885849,Sulfamethoxazole,0.9976737,11.062462
19784,52856,sulfamethoxazole,100,80,0.7303139,-5.9134116,Sulfamethoxazole,0.9965833,10.726674
19785,52861,sulfamethoxazole,100,80,0.5513101,-3.7359698,Sulfamethoxazole,0.99690455,11.827582
19790,52861,sulfamethoxazole,100,80,0.8923176,-3.496786,Sulfamethoxazole,0.99557,11.662419
19792,52639,sulfamethoxazole,80,80,0.9356102,-5.6177793,Sulfamethoxazole,0.99684227,12.778321
19796,52329,sulfamethoxazole,80,80,0.9998184,-4.8027964,Sulfamethoxazole,0.990961,10.616961
19799,52300,sulfamethoxazole,20,20,0.9931311,-0.6666686,Sulfamethoxazole,0.78152966,7.5238776
19802,52854,sulfamethoxazole,80,80,0.98734343,-4.192241,Sulfamethoxazole,0.99793136,12.284416
19803,52300,sulfamethoxazole,20,20,0.94506866,-1.8055644,Sulfamethoxazole,0.7632955,7.50539
19808,52307,sulfamethoxazole,50,50,0.9997329,-1.0326306,Sulfamethoxazole,0.9971173,11.495368
19809,52307,sulfamethoxazole,50,50,0.9834541,-1.9862719,Sulfamethoxazole,0.99755114,12.04619
19821,52297,sulfamethoxazole,20,20,0.9977175,-0.9361917,Sulfamethoxazole,0.9887304,9.822175
19822,52854,sulfamethoxazole,80,80,0.9970458,-2.130417,Sulfamethoxazole,0.99749607,12.724528
19824,52212,sulfamethoxazole,50,80,0.7340588,-2.3560197,Sulfamethoxazole,0.99953926,12.783715
19829,52302,sulfamethoxazole,20,20,0.6029766,-4.645947,Sulfamethoxazole,0.99759465,12.801239
19834,52642,sulfamethoxazole,100,80,0.7433477,-5.975319,Sulfamethoxazole,0.99461526,11.629974
19835,52335,sulfamethoxazole,50,100,0.7403535,-5.812432,Sulfamethoxazole,0.9989755,12.560972
19843,52848,sulfamethoxazole,100,80,0.99555176,-2.1325371,Sulfamethoxazole,0.9946825,11.293542
19851,52629,sulfamethoxazole,20,20,0.9808607,-2.0268967,Sulfamethoxazole,0.94458246,10.553727
19856,52212,sulfamethoxazole,50,80,0.8089252,-2.180584,Sulfamethoxazole,0.9990263,12.740427
19858,52330,sulfamethoxazole,80,100,0.82020336,-5.0614824,Sulfamethoxazole,0.9850649,11.364782
19893,52297,sulfamethoxazole,20,20,0.9992231,0.243556,Sulfamethoxazole,0.85107344,7.1938424
19905,53530,promethazine-hydrochloride,50,50,0.9462316,-2.1300602,Promethazine-Hydrochloride,0.99937856,14.910571
19912,51704,promethazine-hydrochloride,80,80,0.9999838,2.6330807,Chloroquine,0.71940494,11.289835
19914,51714,promethazine-hydrochloride,80,100,0.9975546,-2.905104,Promethazine-Hydrochloride,0.99889153,14.184049
19919,51719,promethazine-hydrochloride,80,80,0.71358496,-4.8881297,Promethazine-Hydrochloride,0.99875546,13.661011
19920,51719,promethazine-hydrochloride,80,80,0.9478126,-4.726292,Promethazine-Hydrochloride,0.9996735,14.3538065
19922,51715,promethazine-hydrochloride,80,100,0.86591154,-4.730365,Promethazine-Hydrochloride,0.99963295,15.038556
19933,51715,promethazine-hydrochloride,80,100,0.8928847,-4.11228,Promethazine-Hydrochloride,0.9990509,14.809105
19945,51714,promethazine-hydrochloride,80,100,0.9976888,-1.7876728,Promethazine-Hydrochloride,0.999653,14.611388
19961,53014,promethazine-hydrochloride,100,100,0.62789243,-3.3828952,Promethazine-Hydrochloride,0.9888616,13.413318
19962,51732,promethazine-hydrochloride,100,100,0.99607664,-3.3904133,Promethazine-Hydrochloride,0.99756867,14.14589
19963,53675,promethazine-hydrochloride,100,100,0.99998343,0.47193328,Promethazine-Hydrochloride,0.9781463,12.346101
19970,53672,promethazine-hydrochloride,100,100,0.865889,-4.3333907,Promethazine-Hydrochloride,0.992409,13.511447
19980,53672,promethazine-hydrochloride,100,100,0.9870272,-2.145826,Promethazine-Hydrochloride,0.9327808,12.255094
19985,53675,promethazine-hydrochloride,100,100,0.99999595,2.347889,Promethazine-Hydrochloride,0.98041713,12.566559
19986,51743,promethazine-hydrochloride,100,100,0.9913932,-0.16000977,Promethazine-Hydrochloride,0.9954457,13.538451
19987,51732,promethazine-hydrochloride,100,100,0.9974287,-2.4004245,Promethazine-Hydrochloride,0.9989133,14.317378
19989,51743,promethazine-hydrochloride,100,100,0.8420148,-0.9939738,Promethazine-Hydrochloride,0.9924595,13.18535
19996,53686,promethazine-hydrochloride,100,100,0.632999,-5.610601,Promethazine-Hydrochloride,0.965883,11.924759
19997,53014,promethazine-hydrochloride,100,100,0.55210286,-2.1123948,Promethazine-Hydrochloride,0.99501437,13.957547
20008,51743,promethazine-hydrochloride,100,100,0.8690747,-1.449907,Promethazine-Hydrochloride,0.99129605,13.099674
20013,53557,promethazine-hydrochloride,20,20,0.98823625,-2.9475346,Promethazine-Hydrochloride,0.97339475,12.563549
20018,53572,promethazine-hydrochloride,20,20,0.93006605,-3.9322586,Promethazine-Hydrochloride,0.99525756,13.060115
20022,53557,promethazine-hydrochloride,20,20,0.9853415,-3.0561087,Promethazine-Hydrochloride,0.98983335,12.914166
20024,53535,promethazine-hydrochloride,20,20,0.86821353,-6.1091757,Promethazine-Hydrochloride,0.99676466,13.809713
20027,53534,promethazine-hydrochloride,20,20,0.4608319,-7.178715,Promethazine-Hydrochloride,0.9990671,14.647127
20034,53534,promethazine-hydrochloride,20,20,0.9120327,-5.3565235,Promethazine-Hydrochloride,0.9990809,15.073056
20036,53572,promethazine-hydrochloride,20,20,0.7411638,-5.231609,Promethazine-Hydrochloride,0.99328196,12.651844
20041,53495,promethazine-hydrochloride,20,20,0.9999074,-0.09050661,Promethazine-Hydrochloride,0.9950204,13.4217415
20043,53535,promethazine-hydrochloride,20,20,0.7385476,-5.898867,Promethazine-Hydrochloride,0.9978157,14.228746
20048,53495,promethazine-hydrochloride,20,20,0.99994326,-0.16988398,Promethazine-Hydrochloride,0.98628634,12.298983
20053,53559,promethazine-hydrochloride,20,20,0.9998753,-1.0391945,Promethazine-Hydrochloride,0.99765426,14.075052
20060,53268,doxycycline,20,20,0.99982303,0.5103052,Doxycycline,0.9996296,13.492793
20066,53269,doxycycline,20,20,0.99725205,-2.0151603,Doxycycline,0.9954201,11.220524
20071,53269,doxycycline,20,20,0.9986706,-1.8838193,Doxycycline,0.9981325,11.328445
20074,53363,doxycycline,20,20,0.9994091,-1.9467309,Doxycycline,0.9997409,13.761517
20075,53369,doxycycline,20,20,0.9990231,0.13583788,Doxycycline,0.99960643,13.177813
20076,53373,doxycycline,20,20,0.9995753,0.05399827,Doxycycline,0.9995548,13.046292
20078,53370,doxycycline,20,20,0.9970504,-2.3728178,Doxycycline,0.999864,14.2985115
20086,53363,doxycycline,20,20,0.9989843,-2.867027,Doxycycline,0.9997969,14.195528
20090,53369,doxycycline,20,20,0.9971129,-1.6446046,Doxycycline,0.99976915,13.687921
20095,53268,doxycycline,20,20,0.85513777,-3.0229585,Doxycycline,0.9995152,13.480581
20099,53374,doxycycline,20,20,0.99988735,-2.2694268,Doxycycline,0.99982977,14.345161
20101,53370,doxycycline,20,20,0.99954164,-1.8992052,Doxycycline,0.99916494,13.184026
20107,53361,doxycycline,20,20,0.9402414,-3.1226022,Doxycycline,0.99877506,12.799219
20109,53361,doxycycline,20,20,0.929383,-2.8493657,Doxycycline,0.999705,12.863985
20124,53287,doxycycline,50,100,0.9404367,-5.283405,Doxycycline,0.9998136,13.929143
20126,53383,doxycycline,50,80,0.86551183,-7.8004737,Doxycycline,0.9971091,11.312501
20129,53377,doxycycline,50,20,0.8448919,-3.045841,Doxycycline,0.99952996,13.777204
20138,53377,doxycycline,50,50,0.6867946,-6.1475253,Doxycycline,0.9998549,14.075853
20147,53385,doxycycline,50,100,0.5528354,-6.0844245,Doxycycline,0.9997086,13.347854
20165,53286,doxycycline,50,100,0.53221333,-7.0622025,Doxycycline,0.99944717,13.102043
20169,53272,doxycycline,50,50,0.5927783,-4.5367246,Doxycycline,0.9996488,13.690076
20176,53383,doxycycline,50,80,0.99157095,-5.5115495,Doxycycline,0.9995871,12.852861
20179,53287,doxycycline,50,100,0.5033859,-5.708107,Doxycycline,0.9997644,14.425098
20181,53244,doxycycline,80,50,0.7486555,-6.008652,Doxycycline,0.9996803,12.437671
20184,53614,doxycycline,80,80,0.6753898,-3.4312148,Doxycycline,0.9991697,12.295265
20185,53290,doxycycline,80,80,0.9744596,-3.7951922,Doxycycline,0.9990734,12.805154
20190,53350,doxycycline,80,20,0.9181626,-5.2038727,Doxycycline,0.9954679,11.876798
20192,53351,doxycycline,80,100,0.9765672,-4.34804,Doxycycline,0.99818414,12.582988
20199,53351,doxycycline,80,100,0.7459689,-5.9771857,Doxycycline,0.9997949,13.528289
20201,53289,doxycycline,80,20,0.5822146,-7.322421,Doxycycline,0.9997416,13.999905
20203,53345,doxycycline,80,20,0.34162095,-8.2446785,Doxycycline,0.99971384,14.321249
20209,53345,doxycycline,80,50,0.52988535,-6.846244,Doxycycline,0.9998882,14.561822
20211,53244,doxycycline,80,20,0.46944404,-5.8217797,Doxycycline,0.99974877,13.048314
20216,53289,doxycycline,80,80,0.88412255,-6.8117943,Doxycycline,0.99987006,13.853106
20226,53293,doxycycline,80,100,0.94620734,-4.9868784,Doxycycline,0.9998293,14.294715
20228,53293,doxycycline,80,100,0.9621574,-4.4861503,Doxycycline,0.9993736,13.370481
20232,53350,doxycycline,80,100,0.87295365,-5.837862,Doxycycline,0.9997441,13.395655
20233,53290,doxycycline,80,80,0.9628981,-3.797074,Doxycycline,0.99956053,12.757963
20239,53629,doxycycline,100,100,0.8820978,-5.4105477,Doxycycline,0.99954873,13.912098
20248,53624,doxycycline,100,100,0.99472356,-3.4477537,Doxycycline,0.9996007,13.218644
20254,53618,doxycycline,100,100,0.9868197,-4.837426,Doxycycline,0.99977046,14.0458975
20255,53483,doxycycline,100,100,0.8691845,-6.5227766,Doxycycline,0.9991041,13.762575
20266,53511,doxycycline,100,100,0.99965525,-0.975572,Doxycycline,0.999913,14.625012
20271,53484,doxycycline,100,100,0.85686475,-2.8376226,Doxycycline,0.99957675,13.604175
20273,53618,doxycycline,100,100,0.9980509,-3.0548031,Doxycycline,0.9996755,14.011009
20277,53624,doxycycline,100,100,0.9628189,-4.2058725,Doxycycline,0.99974066,13.79718
20280,53629,doxycycline,100,100,0.6136326,-7.459011,Doxycycline,0.9997451,13.764796
20284,53509,doxycycline,100,100,0.9573027,-3.130887,Doxycycline,0.99966526,13.433916
20285,53628,doxycycline,100,100,0.99929917,-1.4495904,Doxycycline,0.9997305,12.924406
20295,53628,doxycycline,100,100,0.8972136,-3.8122137,Doxycycline,0.99938023,11.347051
20299,53484,doxycycline,100,100,0.908191,-3.1096468,Doxycycline,0.9997229,13.702979
20317,53826,chloroquine,20,20,0.89095855,-6.628172,Chloroquine,0.95270205,12.109448
20319,53768,chloroquine,20,20,0.99456716,-2.887257,Chloroquine,0.99882466,14.562608
20324,53821,chloroquine,20,20,0.9998673,-0.93600345,Chloroquine,0.9998109,15.862887
20333,53809,chloroquine,20,20,0.9999981,1.1505405,Chloroquine,0.9988605,13.90718
20340,53821,chloroquine,20,20,0.9998229,-2.356552,Chloroquine,0.9992804,15.142337
20343,53809,chloroquine,20,20,0.9999858,0.49327698,Chloroquine,0.9990036,14.342905
20344,53768,chloroquine,20,20,0.98724943,-1.8136455,Chloroquine,0.98538107,12.854049
20345,53826,chloroquine,20,20,0.95277333,-3.3683276,Chloroquine,0.9800064,13.011313
20349,53768,chloroquine,20,20,0.99821484,-0.5109964,Chloroquine,0.98342013,13.01533
20351,53818,chloroquine,20,20,0.9007231,-5.128938,Chloroquine,0.9998023,15.807896
20358,53810,chloroquine,20,20,0.9999987,0.3435945,Chloroquine,0.99954706,14.78882
20359,53826,chloroquine,20,20,0.93047136,-4.91284,Chloroquine,0.94701505,12.264965
20360,53816,chloroquine,20,20,0.9998357,-2.5513048,Chloroquine,0.99963593,14.620808
20363,53809,chloroquine,20,20,0.9999881,0.8908888,Chloroquine,0.9991553,14.44452
20367,53809,chloroquine,20,20,0.9999951,0.89094114,Chloroquine,0.99866414,13.995414
20375,53821,chloroquine,20,20,0.99995756,-1.047301,Chloroquine,0.9984958,14.400238
20376,53816,chloroquine,20,20,0.9974481,-3.7652502,Chloroquine,0.9987431,13.500539
20379,53810,chloroquine,20,20,0.9999914,0.01848446,Chloroquine,0.9996057,14.550769
20383,53821,chloroquine,20,20,0.9997073,-2.300478,Chloroquine,0.99972874,15.349263
20388,53809,chloroquine,20,20,0.99998736,0.353377,Chloroquine,0.99967,14.76271
20396,53818,chloroquine,20,20,0.9093952,-4.6867666,Chloroquine,0.999923,16.21516
20405,53821,chloroquine,20,20,0.99393976,-4.1840515,Chloroquine,0.9997346,15.24782
20408,53821,chloroquine,20,20,0.99973685,-1.9099884,Chloroquine,0.99986255,15.781167
20409,53816,chloroquine,20,20,0.99993956,-0.79653805,Chloroquine,0.9997507,15.081733
20420,53768,chloroquine,20,20,0.99120754,-3.6948352,Chloroquine,0.9995459,14.876967
20424,53810,chloroquine,20,20,0.99999666,0.0318278,Chloroquine,0.9996587,14.792615
20426,53816,chloroquine,20,20,0.9992291,-3.2762194,Chloroquine,0.9997876,15.043063
20428,53810,chloroquine,20,20,0.9999801,-0.17131081,Chloroquine,0.9995759,14.683239
20432,53809,chloroquine,20,20,0.9999907,1.0715455,Chloroquine,0.999645,14.65044
20435,53818,chloroquine,20,20,0.7809351,-5.4624987,Chloroquine,0.9999348,16.221516
20437,53768,chloroquine,20,20,0.99294245,-3.6778822,Chloroquine,0.9996946,15.172484
20438,53816,chloroquine,20,20,0.99988914,-0.87989557,Chloroquine,0.9996877,14.817785
20439,53810,chloroquine,20,20,0.99999905,0.069002084,Chloroquine,0.9996387,14.745575
20440,53826,chloroquine,20,20,0.6097733,-6.2097263,Chloroquine,0.9948919,12.987227
20441,53826,chloroquine,20,100,0.5049851,-4.7769823,Chloroquine,0.994991,13.427766
20444,53869,chloroquine,100,100,0.9999999,-1.4832267,Chloroquine,0.999899,15.93321
20453,53857,chloroquine,100,100,0.9992459,-1.5491403,Chloroquine,0.9999385,16.23012
20454,53868,chloroquine,100,50,0.931823,-7.7173567,Chloroquine,0.9999541,16.684958
20462,53857,chloroquine,100,100,0.9998784,-4.02427,Chloroquine,0.9999032,15.758658
20465,53835,chloroquine,100,100,0.9999721,-0.504414,Chloroquine,0.9997242,15.158739
20467,53851,chloroquine,100,100,0.9999993,-0.5219709,Chloroquine,0.9993919,15.212531
20468,53868,chloroquine,100,50,0.9915537,-6.024416,Chloroquine,0.99997926,17.123552
20474,53873,chloroquine,100,100,0.9999937,-2.53476,Chloroquine,0.9989146,14.560801
20478,53447,chloroquine,100,100,0.97296923,-4.2742343,Chloroquine,0.9952467,14.020572
20484,53447,chloroquine,100,100,0.99758005,-3.247498,Chloroquine,0.98943114,13.715912
20485,53873,chloroquine,100,100,0.9999995,-2.0823734,Chloroquine,0.996896,13.955455
20489,53869,chloroquine,100,100,0.999982,-4.554536,Chloroquine,0.99993765,16.134281
20495,53874,chloroquine,100,100,0.99999964,1.8699846,Chloroquine,0.88513833,12.591309
20499,53851,chloroquine,100,100,0.99986863,-2.2167904,Chloroquine,0.9998553,15.756514
20502,53762,chloroquine,50,50,0.9996643,-2.5367532,Chloroquine,0.9999368,16.168667
20503,53816,chloroquine,50,20,0.99977654,-1.8089839,Chloroquine,0.999752,14.822679
20507,53762,chloroquine,50,50,0.99900275,-4.2748218,Chloroquine,0.99992836,16.188763
20509,53766,chloroquine,50,50,0.98860663,-4.983228,Chloroquine,0.99980193,15.687565
20510,53752,chloroquine,50,50,0.9516996,-4.385203,Chloroquine,0.99623674,13.483848
20512,53752,chloroquine,50,20,0.5903245,-4.3858376,Chloroquine,0.9798074,12.535455
20517,53764,chloroquine,50,50,0.9906549,-6.2859693,Chloroquine,0.9996538,15.314866
20521,53761,chloroquine,50,50,0.7378137,-6.90431,Chloroquine,0.9991184,15.003916
20529,53846,chloroquine,50,50,0.9999877,-1.9992472,Chloroquine,0.99966395,15.833118
20535,53846,chloroquine,50,20,0.64374924,-7.8800516,Chloroquine,0.9609216,12.571309
20538,53761,chloroquine,50,20,0.78064394,-5.1509533,Chloroquine,0.99970657,15.5052185
20539,53841,chloroquine,50,20,0.8701595,-4.5289836,Chloroquine,0.9982803,13.752419
20542,53761,chloroquine,50,20,0.9293838,-7.178228,Chloroquine,0.9988482,14.7965555
20543,53762,chloroquine,50,50,0.9995047,-3.7483945,Chloroquine,0.99993193,15.997838
20544,53764,chloroquine,50,50,0.97235155,-5.682795,Chloroquine,0.99955946,15.107784
20547,53766,chloroquine,50,50,0.83517265,-4.9851537,Chloroquine,0.9995553,15.386755
20548,53766,chloroquine,50,50,0.9952467,-4.680693,Chloroquine,0.9994293,14.9491
20554,53764,chloroquine,50,50,0.9765335,-5.1152596,Chloroquine,0.99899787,14.691929
20557,53752,chloroquine,50,50,0.8953467,-4.1270523,Chloroquine,0.9993999,14.542388
20562,53833,chloroquine,80,100,0.9290081,-7.4261684,Chloroquine,0.99994826,16.341965
20565,53438,chloroquine,80,100,0.9953061,-5.213853,Chloroquine,0.99653566,14.726984
20568,53433,chloroquine,80,100,0.9999994,0.7703744,Chloroquine,0.99957806,14.989748
20570,53833,chloroquine,80,80,0.6602795,-6.864624,Chloroquine,0.99997675,17.127523
20576,53835,chloroquine,80,100,0.99583447,-4.0861273,Chloroquine,0.99989974,15.772082
20583,53432,chloroquine,80,100,0.9919396,-5.2511587,Chloroquine,0.98727536,12.659249
20589,53432,chloroquine,80,100,0.9970945,-5.705678,Chloroquine,0.99630594,13.583952
20591,53866,chloroquine,80,100,0.8524491,-8.121826,Chloroquine,0.9997023,15.360658
20593,53435,chloroquine,80,80,0.99396026,-6.374221,Chloroquine,0.99971193,15.4730425
20594,53433,chloroquine,80,100,0.99997175,-1.1585242,Chloroquine,0.99725145,13.683609
20599,52544,chloroquine,80,80,0.8715628,-6.293224,Chloroquine,0.97697824,13.635475
20602,53866,chloroquine,80,100,0.9832161,-4.445137,Chloroquine,0.9962069,14.075189
20611,52544,chloroquine,80,80,0.88610244,-5.8299527,Chloroquine,0.9893072,14.232639
20612,53438,chloroquine,80,100,0.98810184,-4.9504046,Chloroquine,0.9992354,15.022595
20614,53435,chloroquine,80,80,0.9951383,-6.507103,Chloroquine,0.9996018,15.2527
20620,53762,chloroquine,50,50,0.9939925,-6.4930663,Chloroquine,0.9999002,15.977787
20622,53841,chloroquine,50,20,0.6755433,-4.7806997,Chloroquine,0.98657876,12.7997675
20627,53818,chloroquine,50,100,0.5874867,-5.084662,Chloroquine,0.9996488,15.491264
20629,53846,chloroquine,50,50,0.64112186,-8.460595,Chloroquine,0.9951278,14.016494
20632,53766,chloroquine,50,20,0.7220862,-9.192062,Chloroquine,0.9392218,12.006523
20633,53766,chloroquine,50,50,0.9755729,-6.098447,Chloroquine,0.9972488,14.357558
20637,53762,chloroquine,50,50,0.9613948,-7.448015,Chloroquine,0.9999646,17.033886
20652,53846,chloroquine,50,50,0.41681972,-9.218448,Chloroquine,0.6343037,11.772937
20656,53752,chloroquine,50,50,0.96855295,-4.2358074,Chloroquine,0.9651878,12.095211
20657,53841,chloroquine,50,50,0.8181618,-5.34759,Chloroquine,0.9958722,13.4615135
20658,53846,chloroquine,50,20,0.9509251,-7.8042207,Hydroxychloroquine,0.6147361,11.516115
20667,53761,chloroquine,50,20,0.99666697,-3.9337785,Chloroquine,0.99951696,15.1105
20675,53752,chloroquine,50,50,0.5812343,-3.8806589,Chloroquine,0.9531215,11.502519
20677,53764,chloroquine,50,50,0.532637,-6.359291,Chloroquine,0.99957985,14.901886
20680,53764,chloroquine,50,50,0.976905,-6.739319,Chloroquine,0.99926215,14.934427
20681,53846,chloroquine,50,20,0.70022583,-8.717444,Chloroquine,0.6106115,11.683419
20682,53761,chloroquine,50,20,0.587374,-7.1185737,Chloroquine,0.9980611,14.621456
20689,53841,chloroquine,50,20,0.7311661,-4.6074524,Chloroquine,0.9958759,13.384276
20691,53841,chloroquine,50,20,0.91130954,-5.8184395,Chloroquine,0.99646336,13.848162
20699,53429,albendazole,100,80,0.98766196,-3.6908479,Albendazole,0.99980897,15.084726
20714,53355,albendazole,100,50,0.81331915,-5.2481084,Albendazole,0.9987632,14.474406
20716,53353,albendazole,100,100,0.62419146,-5.638114,Albendazole,0.99930036,14.644545
20726,53353,albendazole,100,100,0.80772364,-4.891282,Albendazole,0.9997774,15.299665
20729,53355,albendazole,100,50,0.84648013,-5.8248887,Albendazole,0.9957712,13.273308
20736,53355,albendazole,100,50,0.6013327,-6.497131,Albendazole,0.99710745,13.886183
20747,53353,albendazole,100,100,0.790798,-5.1503224,Albendazole,0.999699,15.213854
20756,53353,albendazole,100,100,0.95548654,-4.7069707,Albendazole,0.99870396,13.814781
20775,53429,albendazole,100,80,0.9704661,-3.3438628,Albendazole,0.9999136,16.08908
20783,53429,albendazole,100,80,0.9987828,-2.0295498,Albendazole,0.9997806,15.055776
20786,53353,albendazole,100,100,0.743135,-4.037827,Albendazole,0.9996284,15.351917
20795,53154,ciprofloxacin,50,50,0.92130893,-5.140755,Ciprofloxacin,0.9991749,13.151094
20799,53206,ciprofloxacin,50,50,0.99591416,-3.885183,Ciprofloxacin,0.9722056,9.5850935
20804,53091,ciprofloxacin,50,50,0.9968929,-3.737938,Ciprofloxacin,0.99779886,12.09788
20809,53153,ciprofloxacin,50,50,0.97965896,-2.8733122,Ciprofloxacin,0.9970728,12.445149
20815,53204,ciprofloxacin,50,50,0.85933226,-5.9845366,Ciprofloxacin,0.76848066,7.055515
20816,53206,ciprofloxacin,50,50,0.67940557,-6.0522456,Ciprofloxacin,0.993929,11.367832
20819,53091,ciprofloxacin,50,50,0.99548787,-4.5425243,Ciprofloxacin,0.98943835,10.129403
20822,53204,ciprofloxacin,50,50,0.91385293,-6.6537642,Ciprofloxacin,0.98341286,9.5750265
20831,53154,ciprofloxacin,50,80,0.5354685,-6.339437,Ciprofloxacin,0.9990796,13.113159
20833,53097,ciprofloxacin,50,50,0.9832012,-2.627608,Ciprofloxacin,0.99913543,12.669745
20838,53099,ciprofloxacin,50,50,0.9999578,-0.5671293,Ciprofloxacin,0.9906652,11.134159
20842,53090,ciprofloxacin,50,50,0.9932573,-3.2955015,Ciprofloxacin,0.9989882,12.716535
20851,53097,ciprofloxacin,50,50,0.9514041,-2.2399766,Ciprofloxacin,0.9987675,12.611524
20852,53099,ciprofloxacin,50,50,0.99969757,-2.9151008,Ciprofloxacin,0.9956572,12.140997
20856,53090,ciprofloxacin,50,50,0.96549356,-4.3028145,Ciprofloxacin,0.9974928,12.072341
20857,53174,ciprofloxacin,80,50,0.99963117,-2.6036918,Ciprofloxacin,0.99917114,13.457467
20859,53170,ciprofloxacin,80,50,0.75613004,-6.9817557,Ciprofloxacin,0.99752504,12.773181
20863,53174,ciprofloxacin,80,50,0.9579893,-4.7644696,Ciprofloxacin,0.9984425,12.977072
20864,53065,ciprofloxacin,80,80,0.9943487,-2.4629326,Ciprofloxacin,0.99925596,12.772571
20865,53066,ciprofloxacin,80,20,0.8626783,-7.0603743,Ciprofloxacin,0.9984694,12.965684
20867,53173,ciprofloxacin,80,50,0.9863322,-3.1948283,Ciprofloxacin,0.99956185,13.614155
20869,53170,ciprofloxacin,80,20,0.5091065,-7.1405344,Ciprofloxacin,0.99963546,13.567405
20873,53065,ciprofloxacin,80,80,0.9053313,-5.514196,Ciprofloxacin,0.99717206,12.097512
20876,53170,ciprofloxacin,80,50,0.74338216,-7.234562,Ciprofloxacin,0.9969272,12.202783
20879,53173,ciprofloxacin,80,50,0.9718563,-2.9876726,Ciprofloxacin,0.99945515,13.843371
20885,53066,ciprofloxacin,80,20,0.96378165,-5.681454,Ciprofloxacin,0.9991799,13.269166
20889,53173,ciprofloxacin,80,50,0.99586123,-3.3600698,Ciprofloxacin,0.99977785,14.132338
20896,53065,ciprofloxacin,80,80,0.97729915,-6.082475,Ciprofloxacin,0.99765223,12.594363
20898,53174,ciprofloxacin,80,50,0.99895215,-3.1793783,Ciprofloxacin,0.9981614,13.113355
20901,53066,ciprofloxacin,80,20,0.96032995,-5.4703436,Ciprofloxacin,0.99834645,12.605234
20903,53169,ciprofloxacin,80,100,0.5927626,-7.3958025,Ciprofloxacin,0.99593854,12.776214
20905,53173,ciprofloxacin,80,50,0.9784209,-2.8440852,Ciprofloxacin,0.99962676,13.841054
20909,53703,amoxicillin,100,100,0.992004,-3.0454452,Amoxicillin,0.9652883,12.566658
20910,53721,amoxicillin,100,80,0.97513753,-7.8622165,Amoxicillin,0.999913,15.512952
20911,53848,amoxicillin,100,100,0.98935586,-7.500775,Amoxicillin,0.9998634,14.627573
20912,53749,amoxicillin,100,100,0.99996626,-8.910608,Amoxicillin,0.9860247,12.585563
20930,53696,amoxicillin,100,50,0.99569017,-2.8852158,Amoxicillin,0.99994147,16.063423
20931,53748,amoxicillin,100,100,0.99999833,-0.26382214,Amoxicillin,0.9993223,13.581515
20933,53697,amoxicillin,100,100,0.99847835,-6.126038,Amoxicillin,0.9999404,16.472559
20941,52553,amoxicillin,20,20,0.99539423,-1.6038076,Amoxicillin,0.99998343,15.307188
20942,53453,amoxicillin,20,20,0.9984137,-1.2202404,Amoxicillin,0.99990284,14.857039
20944,53458,amoxicillin,20,50,0.88867134,-4.4544845,Amoxicillin,0.9999906,16.368135
20945,53461,amoxicillin,20,20,0.9933304,-3.6919937,Amoxicillin,0.9955959,12.4111
20949,53452,amoxicillin,20,20,0.99986947,-0.56645125,Amoxicillin,0.93345374,9.636106
20952,53890,amoxicillin,20,20,0.95134294,-5.5251975,Amoxicillin,0.9999325,15.368235
20967,52553,amoxicillin,20,20,0.9958045,-0.46180588,Amoxicillin,0.99997675,15.163818
20968,53890,amoxicillin,20,20,0.99944526,-3.2544634,Amoxicillin,0.99991965,15.527915
20970,53456,amoxicillin,20,20,0.99129254,-2.976036,Amoxicillin,0.98092675,12.559381
20978,53742,amoxicillin,50,100,0.99816835,-2.8800137,Amoxicillin,0.99994993,16.355484
20986,53877,amoxicillin,50,50,0.88156396,-4.2560434,Amoxicillin,0.999801,15.025624
20988,53737,amoxicillin,50,50,0.9864842,-7.1980624,Amoxicillin,0.99774724,15.333781
20998,52552,amoxicillin,50,100,0.9225487,-7.1444726,Amoxicillin,0.99981385,15.083009
21000,53882,amoxicillin,50,100,0.5415423,-6.5311875,Amoxicillin,0.9999877,16.603252
21002,53740,amoxicillin,50,100,0.84777504,-6.4887056,Amoxicillin,0.99973506,15.508133
21011,53712,amoxicillin,80,80,0.99651104,-4.5718427,Amoxicillin,0.99998343,17.035452
21015,53713,amoxicillin,80,80,0.78870183,-6.5234256,Amoxicillin,0.99995494,16.506063
21016,53715,amoxicillin,80,100,0.98077184,-6.5299983,Amoxicillin,0.99997723,16.181602
21018,53715,amoxicillin,80,100,0.977467,-5.1785107,Amoxicillin,0.9999472,15.825068
21020,53723,amoxicillin,80,100,0.5882879,-6.9285674,Amoxicillin,0.99998677,16.921783
21021,53734,amoxicillin,80,100,0.9976163,-3.1494896,Amoxicillin,0.9999826,16.955221
21026,53717,amoxicillin,80,80,0.66704696,-7.278465,Amoxicillin,0.99997795,16.22028
21034,52567,hydroxychloroquine,50,50,0.99127114,-3.887873,Hydroxychloroquine,0.99846774,14.962046
21041,52567,hydroxychloroquine,50,50,0.998645,-2.3341475,Hydroxychloroquine,0.9987627,14.958645
21048,52564,hydroxychloroquine,50,50,0.9992151,-3.0166998,Hydroxychloroquine,0.99960905,14.250393
21074,51712,hydroxychloroquine,50,50,0.997707,-1.9186279,Hydroxychloroquine,0.99824226,13.862243
21076,52571,hydroxychloroquine,50,50,0.9995067,-0.3863984,Hydroxychloroquine,0.99951434,14.198686
21077,52565,hydroxychloroquine,50,50,0.99998903,-0.8863377,Hydroxychloroquine,0.9995328,14.452818
21078,52564,hydroxychloroquine,50,50,0.99902785,-3.6970477,Hydroxychloroquine,0.9992987,14.416856
21085,52567,hydroxychloroquine,50,50,0.99735034,-2.3195624,Hydroxychloroquine,0.99937016,14.882697
21094,53016,hydroxychloroquine,50,20,0.99997056,-3.857715,Hydroxychloroquine,0.9991455,12.548398
21103,53016,hydroxychloroquine,50,50,0.9175934,-6.0219154,Hydroxychloroquine,0.99915755,15.160461
21110,52567,hydroxychloroquine,50,50,0.99635077,-3.2163157,Hydroxychloroquine,0.9993856,15.037887
21115,51712,hydroxychloroquine,50,50,0.997858,-2.357723,Hydroxychloroquine,0.9994448,13.739595
21116,52571,hydroxychloroquine,50,50,0.9999596,0.87410975,Hydroxychloroquine,0.9994491,14.341309
21122,53021,hydroxychloroquine,50,50,0.996865,-3.1567657,Hydroxychloroquine,0.99939775,14.895172
21126,52565,hydroxychloroquine,50,50,0.999982,-1.6278627,Hydroxychloroquine,0.9995055,14.052802
21130,53016,hydroxychloroquine,50,50,0.99122673,-4.2061296,Hydroxychloroquine,0.99898714,15.029773
21145,52571,hydroxychloroquine,50,50,0.99997747,1.4916064,Hydroxychloroquine,0.9994733,14.473124
21163,53016,hydroxychloroquine,50,50,0.9936982,-4.2374177,Hydroxychloroquine,0.9995975,15.126291
21165,52567,hydroxychloroquine,50,50,0.9991685,-2.1440017,Hydroxychloroquine,0.99880385,14.926183
21169,53016,hydroxychloroquine,50,50,0.99257857,-4.125367,Hydroxychloroquine,0.9995763,15.025315
21172,53016,hydroxychloroquine,50,50,0.92809695,-4.7711134,Hydroxychloroquine,0.99865085,15.022544
21180,53021,hydroxychloroquine,50,50,0.8590151,-5.042935,Hydroxychloroquine,0.9996118,14.556281
21190,53788,hydroxychloroquine,100,100,0.9984646,-1.9311261,Hydroxychloroquine,0.99559206,14.560067
21220,53791,hydroxychloroquine,100,100,0.99968255,0.48146158,Hydroxychloroquine,0.99467695,14.391707
21229,53796,hydroxychloroquine,100,100,0.99999845,1.0465933,Hydroxychloroquine,0.9945391,13.711712
21231,53771,hydroxychloroquine,100,100,0.96471524,-4.5179996,Hydroxychloroquine,0.99930716,15.197708
21243,53783,hydroxychloroquine,100,100,0.9940088,-2.4564323,Hydroxychloroquine,0.99540293,14.650491
21247,53796,hydroxychloroquine,100,100,0.99999654,0.30294758,Hydroxychloroquine,0.9320912,11.879908
21249,53784,hydroxychloroquine,100,100,0.9853667,-4.454828,Hydroxychloroquine,0.9590326,12.202313
21257,53783,hydroxychloroquine,100,100,0.9999888,0.12473552,Hydroxychloroquine,0.98196155,14.306055
21259,53786,hydroxychloroquine,100,100,0.99998367,-0.17059729,Hydroxychloroquine,0.98007584,13.03278
21260,53783,hydroxychloroquine,100,100,0.9998641,-0.96132565,Hydroxychloroquine,0.9897001,14.526289
21262,53784,hydroxychloroquine,100,100,0.9980894,-0.068265885,Hydroxychloroquine,0.99697876,14.139323
21273,53786,hydroxychloroquine,100,100,0.9999968,0.09710246,Hydroxychloroquine,0.9904636,13.892039
21276,53771,hydroxychloroquine,100,100,0.9333712,-4.411512,Hydroxychloroquine,0.99763787,15.184628
21284,53771,hydroxychloroquine,100,100,0.847386,-5.2034864,Hydroxychloroquine,0.99794143,15.265494
21295,53803,hydroxychloroquine,80,80,0.9722811,-2.586876,Hydroxychloroquine,0.99272996,13.9326315
21305,53814,hydroxychloroquine,80,100,0.9932597,-2.100201,Hydroxychloroquine,0.9970197,13.982633
21309,53899,hydroxychloroquine,80,80,0.960113,-4.4679418,Hydroxychloroquine,0.99949265,15.357966
21316,53803,hydroxychloroquine,80,80,0.9839684,-2.0925944,Hydroxychloroquine,0.99330705,13.900384
21319,53803,hydroxychloroquine,80,80,0.94791406,-2.9787607,Hydroxychloroquine,0.99846727,14.287121
21330,53807,hydroxychloroquine,80,100,0.9990989,-2.6784332,Hydroxychloroquine,0.99837315,14.978859
21340,53814,hydroxychloroquine,80,100,0.88140756,-2.7934036,Hydroxychloroquine,0.99458545,14.075784
21348,53807,hydroxychloroquine,80,100,0.99908304,-2.612516,Hydroxychloroquine,0.99847203,15.089795
21356,53464,hydroxychloroquine,80,100,0.91912585,-6.0253243,Hydroxychloroquine,0.999481,14.819748
21374,53801,hydroxychloroquine,80,100,0.9962806,-3.0490532,Hydroxychloroquine,0.9974197,14.828585
21379,53807,hydroxychloroquine,80,100,0.9994368,-1.7988203,Hydroxychloroquine,0.9966484,15.145053
21381,53464,hydroxychloroquine,80,100,0.90326643,-4.198879,Hydroxychloroquine,0.998572,14.634045
21386,53800,hydroxychloroquine,80,100,0.9147228,-4.276252,Hydroxychloroquine,0.99616903,14.677942
21392,53800,hydroxychloroquine,80,100,0.9895453,-2.7406943,Hydroxychloroquine,0.99148995,14.576218
21394,53800,hydroxychloroquine,80,100,0.95887583,-3.8704016,Hydroxychloroquine,0.9958675,14.746877
21407,53801,hydroxychloroquine,80,100,0.924749,-4.522981,Hydroxychloroquine,0.9947542,14.59757
21427,53464,hydroxychloroquine,80,100,0.94140875,-5.787998,Hydroxychloroquine,0.9994979,14.82467
21434,53899,hydroxychloroquine,80,80,0.9948019,-4.063353,Hydroxychloroquine,0.99857366,15.557607
21442,53800,hydroxychloroquine,80,100,0.9596744,-3.9227705,Hydroxychloroquine,0.99623364,14.814961
21455,51731,hydroxychloroquine,20,20,0.99996305,1.7946585,Hydroxychloroquine,0.99873513,13.518557
21473,51729,hydroxychloroquine,20,100,0.65303165,-5.5601044,Hydroxychloroquine,0.99862754,13.817203
21475,53001,hydroxychloroquine,20,20,0.9999565,1.9156449,Hydroxychloroquine,0.99793696,13.57169
21476,53001,hydroxychloroquine,20,20,0.99999774,3.5577073,Hydroxychloroquine,0.99872005,13.690128
21481,51728,hydroxychloroquine,20,20,0.9999528,-1.0966983,Hydroxychloroquine,0.9985159,13.276796
21486,51731,hydroxychloroquine,20,20,0.99983084,-0.5478134,Hydroxychloroquine,0.99933285,14.095985
21488,51734,hydroxychloroquine,20,20,0.9999535,-0.5479821,Hydroxychloroquine,0.99873096,13.96317
21489,51729,hydroxychloroquine,20,100,0.7660104,-7.5672817,Hydroxychloroquine,0.99810886,14.187739
21492,51728,hydroxychloroquine,20,20,0.99980086,-0.13741133,Hydroxychloroquine,0.9963404,12.578509
21494,51720,hydroxychloroquine,20,20,0.9969759,-0.09173648,Hydroxychloroquine,0.99846834,12.572667
21496,53006,hydroxychloroquine,20,20,0.99998736,2.3566568,Hydroxychloroquine,0.99860066,13.068116
21502,53006,hydroxychloroquine,20,20,0.9999869,2.1347542,Hydroxychloroquine,0.99924123,13.487994
21505,51720,hydroxychloroquine,20,20,0.9373369,-1.7049696,Hydroxychloroquine,0.99904436,12.491438
21511,53899,hydroxychloroquine,80,80,0.99698985,-4.4643903,Hydroxychloroquine,0.99869007,15.26013
21512,53800,hydroxychloroquine,80,100,0.9398029,-4.1722035,Hydroxychloroquine,0.9882917,13.76587
21522,53803,hydroxychloroquine,80,80,0.935014,-3.0488977,Hydroxychloroquine,0.99395955,13.489818
